; Generated with:
; "Raster 2 Laser Gcode generator"
; by 305 Engineering
;
;
;
G28; home all axes
G21; Set units to millimeters
G90; Use absolute coordinates
G92; Coordinate Offset
G00 X13.8 Y2.0
M03
G01 X93.9 Y2.0 F4000
M05
G00 X93.9 Y2.1
M03
G01 X13.0 Y2.1 F4000
M05
G00 X12.3 Y2.2
M03
G01 X14.0 Y2.2 F4000
M05
G00 X93.7 Y2.2
M03
G01 X93.9 Y2.2 F4000
M05
G00 X93.9 Y2.3
M03
G01 X93.8 Y2.3 F4000
M05
G00 X13.3 Y2.3
M03
G01 X11.5 Y2.3 F4000
M05
G00 X10.9 Y2.4
M03
G01 X12.5 Y2.4 F4000
M05
G00 X93.8 Y2.4
M03
G01 X93.9 Y2.4 F4000
M05
G00 X93.9 Y2.5
M03
G01 X93.8 Y2.5 F4000
M05
G00 X11.7 Y2.5
M03
G01 X10.7 Y2.5 F4000
M05
G00 X10.4 Y2.6
M03
G01 X11.0 Y2.6 F4000
M05
G00 X93.8 Y2.6
M03
G01 X93.9 Y2.6 F4000
M05
G00 X93.9 Y2.7
M03
G01 X93.8 Y2.7 F4000
M05
G00 X10.7 Y2.7
M03
G01 X10.2 Y2.7 F4000
M05
G00 X9.9 Y2.8
M03
G01 X10.5 Y2.8 F4000
M05
G00 X93.8 Y2.8
M03
G01 X93.9 Y2.8 F4000
M05
G00 X93.9 Y2.9
M03
G01 X93.8 Y2.9 F4000
M05
G00 X10.2 Y2.9
M03
G01 X9.7 Y2.9 F4000
M05
G00 X9.4 Y3.0
M03
G01 X10.0 Y3.0 F4000
M05
G00 X93.8 Y3.0
M03
G01 X93.9 Y3.0 F4000
M05
G00 X93.9 Y3.1
M03
G01 X93.8 Y3.1 F4000
M05
G00 X9.7 Y3.1
M03
G01 X9.2 Y3.1 F4000
M05
G00 X9.0 Y3.2
M03
G01 X9.5 Y3.2 F4000
M05
G00 X93.8 Y3.2
M03
G01 X93.9 Y3.2 F4000
M05
G00 X93.9 Y3.3
M03
G01 X93.8 Y3.3 F4000
M05
G00 X9.2 Y3.3
M03
G01 X8.7 Y3.3 F4000
M05
G00 X8.5 Y3.4
M03
G01 X9.0 Y3.4 F4000
M05
G00 X93.8 Y3.4
M03
G01 X93.9 Y3.4 F4000
M05
G00 X93.9 Y3.5
M03
G01 X93.8 Y3.5 F4000
M05
G00 X8.8 Y3.5
M03
G01 X8.2 Y3.5 F4000
M05
G00 X8.0 Y3.6
M03
G01 X8.5 Y3.6 F4000
M05
G00 X93.8 Y3.6
M03
G01 X93.9 Y3.6 F4000
M05
G00 X93.9 Y3.7
M03
G01 X93.8 Y3.7 F4000
M05
G00 X8.3 Y3.7
M03
G01 X7.9 Y3.7 F4000
M05
G00 X7.7 Y3.8
M03
G01 X8.0 Y3.8 F4000
M05
G00 X93.8 Y3.8
M03
G01 X93.9 Y3.8 F4000
M05
G00 X93.9 Y3.9
M03
G01 X93.8 Y3.9 F4000
M05
G00 X7.9 Y3.9
M03
G01 X7.6 Y3.9 F4000
M05
G00 X7.5 Y4.0
M03
G01 X7.8 Y4.0 F4000
M05
G00 X93.8 Y4.0
M03
G01 X93.9 Y4.0 F4000
M05
G00 X93.9 Y4.1
M03
G01 X93.8 Y4.1 F4000
M05
G00 X7.7 Y4.1
M03
G01 X7.4 Y4.1 F4000
M05
G00 X7.2 Y4.2
M03
G01 X7.5 Y4.2 F4000
M05
G00 X93.8 Y4.2
M03
G01 X93.9 Y4.2 F4000
M05
G00 X93.9 Y4.3
M03
G01 X93.8 Y4.3 F4000
M05
G00 X7.4 Y4.3
M03
G01 X7.1 Y4.3 F4000
M05
G00 X7.0 Y4.4
M03
G01 X7.3 Y4.4 F4000
M05
G00 X93.8 Y4.4
M03
G01 X93.9 Y4.4 F4000
M05
G00 X93.9 Y4.5
M03
G01 X93.8 Y4.5 F4000
M05
G00 X7.1 Y4.5
M03
G01 X6.8 Y4.5 F4000
M05
G00 X6.7 Y4.6
M03
G01 X7.0 Y4.6 F4000
M05
G00 X93.8 Y4.6
M03
G01 X93.9 Y4.6 F4000
M05
G00 X93.9 Y4.7
M03
G01 X93.8 Y4.7 F4000
M05
G00 X6.9 Y4.7
M03
G01 X6.6 Y4.7 F4000
M05
G00 X6.4 Y4.8
M03
G01 X6.7 Y4.8 F4000
M05
G00 X93.8 Y4.8
M03
G01 X93.9 Y4.8 F4000
M05
G00 X93.9 Y4.9
M03
G01 X93.8 Y4.9 F4000
M05
G00 X6.6 Y4.9
M03
G01 X6.3 Y4.9 F4000
M05
G00 X6.2 Y5.0
M03
G01 X6.5 Y5.0 F4000
M05
G00 X93.8 Y5.0
M03
G01 X93.9 Y5.0 F4000
M05
G00 X93.9 Y5.1
M03
G01 X93.8 Y5.1 F4000
M05
G00 X6.3 Y5.1
M03
G01 X6.0 Y5.1 F4000
M05
G00 X5.9 Y5.2
M03
G01 X6.2 Y5.2 F4000
M05
G00 X93.8 Y5.2
M03
G01 X93.9 Y5.2 F4000
M05
G00 X93.9 Y5.3
M03
G01 X93.8 Y5.3 F4000
M05
G00 X6.1 Y5.3
M03
G01 X5.8 Y5.3 F4000
M05
G00 X5.6 Y5.4
M03
G01 X6.0 Y5.4 F4000
M05
G00 X93.8 Y5.4
M03
G01 X93.9 Y5.4 F4000
M05
G00 X93.9 Y5.5
M03
G01 X93.8 Y5.5 F4000
M05
G00 X5.8 Y5.5
M03
G01 X5.5 Y5.5 F4000
M05
G00 X5.5 Y5.6
M03
G01 X5.7 Y5.6 F4000
M05
G00 X93.8 Y5.6
M03
G01 X93.9 Y5.6 F4000
M05
G00 X93.9 Y5.7
M03
G01 X93.8 Y5.7 F4000
M05
G00 X5.6 Y5.7
M03
G01 X5.4 Y5.7 F4000
M05
G00 X5.3 Y5.8
M03
G01 X5.5 Y5.8 F4000
M05
G00 X93.8 Y5.8
M03
G01 X93.9 Y5.8 F4000
M05
G00 X93.9 Y5.9
M03
G01 X93.8 Y5.9 F4000
M05
G00 X5.4 Y5.9
M03
G01 X5.2 Y5.9 F4000
M05
G00 X5.1 Y6.0
M03
G01 X5.3 Y6.0 F4000
M05
G00 X13.6 Y6.0
M03
G01 X14.5 Y6.0 F4000
M05
G00 X48.7 Y6.0
M03
G01 X48.7 Y6.0 F4000
M05
G00 X62.6 Y6.0
M03
G01 X62.6 Y6.0 F4000
M05
G00 X93.8 Y6.0
M03
G01 X93.9 Y6.0 F4000
M05
G00 X93.9 Y6.1
M03
G01 X93.8 Y6.1 F4000
M05
G00 X81.9 Y6.1
M03
G01 X81.8 Y6.1 F4000
M05
G00 X62.7 Y6.1
M03
G01 X62.6 Y6.1 F4000
M05
G00 X48.9 Y6.1
M03
G01 X48.7 Y6.1 F4000
M05
G00 X33.1 Y6.1
M03
G01 X33.1 Y6.1 F4000
M05
G00 X15.2 Y6.1
M03
G01 X12.9 Y6.1 F4000
M05
G00 X5.3 Y6.1
M03
G01 X5.1 Y6.1 F4000
M05
G00 X5.0 Y6.2
M03
G01 X5.2 Y6.2 F4000
M05
G00 X12.3 Y6.2
M03
G01 X13.7 Y6.2 F4000
M05
G00 X14.4 Y6.2
M03
G01 X15.8 Y6.2 F4000
M05
G00 X29.4 Y6.2
M03
G01 X29.4 Y6.2 F4000
M05
G00 X32.7 Y6.2
M03
G01 X33.5 Y6.2 F4000
M05
G00 X35.6 Y6.2
M03
G01 X36.3 Y6.2 F4000
M05
G00 X48.6 Y6.2
M03
G01 X49.0 Y6.2 F4000
M05
G00 X53.4 Y6.2
M03
G01 X53.7 Y6.2 F4000
M05
G00 X62.5 Y6.2
M03
G01 X62.9 Y6.2 F4000
M05
G00 X64.5 Y6.2
M03
G01 X65.1 Y6.2 F4000
M05
G00 X76.4 Y6.2
M03
G01 X76.6 Y6.2 F4000
M05
G00 X78.8 Y6.2
M03
G01 X79.7 Y6.2 F4000
M05
G00 X81.4 Y6.2
M03
G01 X82.2 Y6.2 F4000
M05
G00 X93.8 Y6.2
M03
G01 X93.9 Y6.2 F4000
M05
G00 X93.9 Y6.3
M03
G01 X93.8 Y6.3 F4000
M05
G00 X87.2 Y6.3
M03
G01 X86.5 Y6.3 F4000
M05
G00 X85.6 Y6.3
M03
G01 X85.6 Y6.3 F4000
M05
G00 X84.6 Y6.3
M03
G01 X83.9 Y6.3 F4000
M05
G00 X82.4 Y6.3
M03
G01 X81.3 Y6.3 F4000
M05
G00 X79.8 Y6.3
M03
G01 X78.6 Y6.3 F4000
M05
G00 X76.8 Y6.3
M03
G01 X76.3 Y6.3 F4000
M05
G00 X75.4 Y6.3
M03
G01 X73.4 Y6.3 F4000
M05
G00 X72.1 Y6.3
M03
G01 X71.1 Y6.3 F4000
M05
G00 X70.0 Y6.3
M03
G01 X68.8 Y6.3 F4000
M05
G00 X68.2 Y6.3
M03
G01 X68.1 Y6.3 F4000
M05
G00 X67.7 Y6.3
M03
G01 X67.1 Y6.3 F4000
M05
G00 X65.6 Y6.3
M03
G01 X64.0 Y6.3 F4000
M05
G00 X63.0 Y6.3
M03
G01 X62.5 Y6.3 F4000
M05
G00 X61.9 Y6.3
M03
G01 X60.6 Y6.3 F4000
M05
G00 X60.2 Y6.3
M03
G01 X59.1 Y6.3 F4000
M05
G00 X58.4 Y6.3
M03
G01 X58.4 Y6.3 F4000
M05
G00 X57.9 Y6.3
M03
G01 X57.4 Y6.3 F4000
M05
G00 X56.3 Y6.3
M03
G01 X55.3 Y6.3 F4000
M05
G00 X53.8 Y6.3
M03
G01 X53.3 Y6.3 F4000
M05
G00 X51.8 Y6.3
M03
G01 X50.8 Y6.3 F4000
M05
G00 X49.2 Y6.3
M03
G01 X48.6 Y6.3 F4000
M05
G00 X48.0 Y6.3
M03
G01 X46.8 Y6.3 F4000
M05
G00 X46.4 Y6.3
M03
G01 X45.2 Y6.3 F4000
M05
G00 X44.5 Y6.3
M03
G01 X44.5 Y6.3 F4000
M05
G00 X44.0 Y6.3
M03
G01 X43.5 Y6.3 F4000
M05
G00 X43.2 Y6.3
M03
G01 X41.2 Y6.3 F4000
M05
G00 X40.5 Y6.3
M03
G01 X38.5 Y6.3 F4000
M05
G00 X36.7 Y6.3
M03
G01 X35.1 Y6.3 F4000
M05
G00 X33.6 Y6.3
M03
G01 X32.5 Y6.3 F4000
M05
G00 X31.1 Y6.3
M03
G01 X30.3 Y6.3 F4000
M05
G00 X29.4 Y6.3
M03
G01 X29.4 Y6.3 F4000
M05
G00 X28.4 Y6.3
M03
G01 X27.7 Y6.3 F4000
M05
G00 X16.5 Y6.3
M03
G01 X15.0 Y6.3 F4000
M05
G00 X13.1 Y6.3
M03
G01 X11.6 Y6.3 F4000
M05
G00 X5.1 Y6.3
M03
G01 X4.9 Y6.3 F4000
M05
G00 X4.8 Y6.4
M03
G01 X5.0 Y6.4 F4000
M05
G00 X11.4 Y6.4
M03
G01 X12.4 Y6.4 F4000
M05
G00 X15.7 Y6.4
M03
G01 X16.7 Y6.4 F4000
M05
G00 X27.7 Y6.4
M03
G01 X28.4 Y6.4 F4000
M05
G00 X29.3 Y6.4
M03
G01 X29.5 Y6.4 F4000
M05
G00 X30.3 Y6.4
M03
G01 X31.1 Y6.4 F4000
M05
G00 X32.4 Y6.4
M03
G01 X33.8 Y6.4 F4000
M05
G00 X35.1 Y6.4
M03
G01 X36.9 Y6.4 F4000
M05
G00 X38.5 Y6.4
M03
G01 X40.5 Y6.4 F4000
M05
G00 X41.2 Y6.4
M03
G01 X43.3 Y6.4 F4000
M05
G00 X43.5 Y6.4
M03
G01 X44.1 Y6.4 F4000
M05
G00 X44.5 Y6.4
M03
G01 X44.6 Y6.4 F4000
M05
G00 X45.2 Y6.4
M03
G01 X46.4 Y6.4 F4000
M05
G00 X46.8 Y6.4
M03
G01 X48.0 Y6.4 F4000
M05
G00 X48.6 Y6.4
M03
G01 X49.3 Y6.4 F4000
M05
G00 X50.8 Y6.4
M03
G01 X51.8 Y6.4 F4000
M05
G00 X53.2 Y6.4
M03
G01 X53.9 Y6.4 F4000
M05
G00 X55.3 Y6.4
M03
G01 X56.3 Y6.4 F4000
M05
G00 X57.4 Y6.4
M03
G01 X57.9 Y6.4 F4000
M05
G00 X58.3 Y6.4
M03
G01 X58.5 Y6.4 F4000
M05
G00 X59.0 Y6.4
M03
G01 X60.3 Y6.4 F4000
M05
G00 X60.6 Y6.4
M03
G01 X61.9 Y6.4 F4000
M05
G00 X62.4 Y6.4
M03
G01 X63.2 Y6.4 F4000
M05
G00 X64.0 Y6.4
M03
G01 X65.8 Y6.4 F4000
M05
G00 X67.1 Y6.4
M03
G01 X67.7 Y6.4 F4000
M05
G00 X68.1 Y6.4
M03
G01 X68.2 Y6.4 F4000
M05
G00 X68.8 Y6.4
M03
G01 X70.0 Y6.4 F4000
M05
G00 X71.0 Y6.4
M03
G01 X72.1 Y6.4 F4000
M05
G00 X73.4 Y6.4
M03
G01 X75.5 Y6.4 F4000
M05
G00 X76.2 Y6.4
M03
G01 X76.9 Y6.4 F4000
M05
G00 X78.4 Y6.4
M03
G01 X79.9 Y6.4 F4000
M05
G00 X81.1 Y6.4
M03
G01 X82.5 Y6.4 F4000
M05
G00 X83.8 Y6.4
M03
G01 X84.6 Y6.4 F4000
M05
G00 X85.5 Y6.4
M03
G01 X85.6 Y6.4 F4000
M05
G00 X86.5 Y6.4
M03
G01 X87.3 Y6.4 F4000
M05
G00 X93.8 Y6.4
M03
G01 X93.9 Y6.4 F4000
M05
G00 X93.9 Y6.5
M03
G01 X93.8 Y6.5 F4000
M05
G00 X87.3 Y6.5
M03
G01 X86.5 Y6.5 F4000
M05
G00 X85.7 Y6.5
M03
G01 X85.5 Y6.5 F4000
M05
G00 X84.6 Y6.5
M03
G01 X83.8 Y6.5 F4000
M05
G00 X82.6 Y6.5
M03
G01 X81.0 Y6.5 F4000
M05
G00 X79.9 Y6.5
M03
G01 X78.3 Y6.5 F4000
M05
G00 X76.9 Y6.5
M03
G01 X76.1 Y6.5 F4000
M05
G00 X75.5 Y6.5
M03
G01 X73.4 Y6.5 F4000
M05
G00 X72.1 Y6.5
M03
G01 X71.0 Y6.5 F4000
M05
G00 X70.0 Y6.5
M03
G01 X68.8 Y6.5 F4000
M05
G00 X68.3 Y6.5
M03
G01 X68.0 Y6.5 F4000
M05
G00 X67.7 Y6.5
M03
G01 X67.1 Y6.5 F4000
M05
G00 X65.9 Y6.5
M03
G01 X64.0 Y6.5 F4000
M05
G00 X63.3 Y6.5
M03
G01 X62.4 Y6.5 F4000
M05
G00 X61.9 Y6.5
M03
G01 X60.6 Y6.5 F4000
M05
G00 X60.2 Y6.5
M03
G01 X59.0 Y6.5 F4000
M05
G00 X58.6 Y6.5
M03
G01 X58.3 Y6.5 F4000
M05
G00 X58.0 Y6.5
M03
G01 X57.4 Y6.5 F4000
M05
G00 X56.3 Y6.5
M03
G01 X55.3 Y6.5 F4000
M05
G00 X54.0 Y6.5
M03
G01 X53.1 Y6.5 F4000
M05
G00 X51.8 Y6.5
M03
G01 X50.8 Y6.5 F4000
M05
G00 X49.5 Y6.5
M03
G01 X48.5 Y6.5 F4000
M05
G00 X48.0 Y6.5
M03
G01 X46.8 Y6.5 F4000
M05
G00 X46.4 Y6.5
M03
G01 X45.2 Y6.5 F4000
M05
G00 X44.7 Y6.5
M03
G01 X44.4 Y6.5 F4000
M05
G00 X44.1 Y6.5
M03
G01 X43.5 Y6.5 F4000
M05
G00 X43.3 Y6.5
M03
G01 X41.2 Y6.5 F4000
M05
G00 X40.6 Y6.5
M03
G01 X38.5 Y6.5 F4000
M05
G00 X37.1 Y6.5
M03
G01 X35.1 Y6.5 F4000
M05
G00 X33.9 Y6.5
M03
G01 X32.3 Y6.5 F4000
M05
G00 X31.1 Y6.5
M03
G01 X30.3 Y6.5 F4000
M05
G00 X29.5 Y6.5
M03
G01 X29.3 Y6.5 F4000
M05
G00 X28.4 Y6.5
M03
G01 X27.7 Y6.5 F4000
M05
G00 X16.9 Y6.5
M03
G01 X16.3 Y6.5 F4000
M05
G00 X11.8 Y6.5
M03
G01 X11.2 Y6.5 F4000
M05
G00 X5.0 Y6.5
M03
G01 X4.8 Y6.5 F4000
M05
G00 X4.7 Y6.6
M03
G01 X4.9 Y6.6 F4000
M05
G00 X11.0 Y6.6
M03
G01 X11.5 Y6.6 F4000
M05
G00 X16.7 Y6.6
M03
G01 X17.1 Y6.6 F4000
M05
G00 X27.7 Y6.6
M03
G01 X28.4 Y6.6 F4000
M05
G00 X29.2 Y6.6
M03
G01 X29.6 Y6.6 F4000
M05
G00 X30.3 Y6.6
M03
G01 X31.1 Y6.6 F4000
M05
G00 X32.2 Y6.6
M03
G01 X33.9 Y6.6 F4000
M05
G00 X35.1 Y6.6
M03
G01 X37.2 Y6.6 F4000
M05
G00 X38.5 Y6.6
M03
G01 X40.6 Y6.6 F4000
M05
G00 X41.2 Y6.6
M03
G01 X43.3 Y6.6 F4000
M05
G00 X43.5 Y6.6
M03
G01 X44.1 Y6.6 F4000
M05
G00 X44.4 Y6.6
M03
G01 X44.8 Y6.6 F4000
M05
G00 X45.1 Y6.6
M03
G01 X46.4 Y6.6 F4000
M05
G00 X46.8 Y6.6
M03
G01 X48.0 Y6.6 F4000
M05
G00 X48.5 Y6.6
M03
G01 X49.6 Y6.6 F4000
M05
G00 X50.8 Y6.6
M03
G01 X51.8 Y6.6 F4000
M05
G00 X53.1 Y6.6
M03
G01 X54.0 Y6.6 F4000
M05
G00 X55.3 Y6.6
M03
G01 X56.3 Y6.6 F4000
M05
G00 X57.4 Y6.6
M03
G01 X58.0 Y6.6 F4000
M05
G00 X58.3 Y6.6
M03
G01 X58.7 Y6.6 F4000
M05
G00 X59.0 Y6.6
M03
G01 X60.2 Y6.6 F4000
M05
G00 X60.6 Y6.6
M03
G01 X61.9 Y6.6 F4000
M05
G00 X62.3 Y6.6
M03
G01 X63.5 Y6.6 F4000
M05
G00 X64.0 Y6.6
M03
G01 X66.1 Y6.6 F4000
M05
G00 X67.1 Y6.6
M03
G01 X67.7 Y6.6 F4000
M05
G00 X68.0 Y6.6
M03
G01 X68.4 Y6.6 F4000
M05
G00 X68.8 Y6.6
M03
G01 X70.0 Y6.6 F4000
M05
G00 X71.0 Y6.6
M03
G01 X72.1 Y6.6 F4000
M05
G00 X73.4 Y6.6
M03
G01 X75.5 Y6.6 F4000
M05
G00 X76.1 Y6.6
M03
G01 X77.0 Y6.6 F4000
M05
G00 X78.2 Y6.6
M03
G01 X79.9 Y6.6 F4000
M05
G00 X81.0 Y6.6
M03
G01 X82.7 Y6.6 F4000
M05
G00 X83.8 Y6.6
M03
G01 X84.6 Y6.6 F4000
M05
G00 X85.4 Y6.6
M03
G01 X85.7 Y6.6 F4000
M05
G00 X86.5 Y6.6
M03
G01 X87.3 Y6.6 F4000
M05
G00 X93.8 Y6.6
M03
G01 X93.9 Y6.6 F4000
M05
G00 X93.9 Y6.7
M03
G01 X93.8 Y6.7 F4000
M05
G00 X87.3 Y6.7
M03
G01 X86.5 Y6.7 F4000
M05
G00 X85.8 Y6.7
M03
G01 X85.3 Y6.7 F4000
M05
G00 X84.6 Y6.7
M03
G01 X83.8 Y6.7 F4000
M05
G00 X82.8 Y6.7
M03
G01 X80.9 Y6.7 F4000
M05
G00 X79.9 Y6.7
M03
G01 X78.1 Y6.7 F4000
M05
G00 X77.0 Y6.7
M03
G01 X76.1 Y6.7 F4000
M05
G00 X75.5 Y6.7
M03
G01 X73.4 Y6.7 F4000
M05
G00 X72.1 Y6.7
M03
G01 X71.0 Y6.7 F4000
M05
G00 X70.0 Y6.7
M03
G01 X68.0 Y6.7 F4000
M05
G00 X67.7 Y6.7
M03
G01 X67.1 Y6.7 F4000
M05
G00 X66.2 Y6.7
M03
G01 X63.9 Y6.7 F4000
M05
G00 X63.5 Y6.7
M03
G01 X62.3 Y6.7 F4000
M05
G00 X61.9 Y6.7
M03
G01 X60.6 Y6.7 F4000
M05
G00 X60.2 Y6.7
M03
G01 X59.0 Y6.7 F4000
M05
G00 X58.8 Y6.7
M03
G01 X58.2 Y6.7 F4000
M05
G00 X58.0 Y6.7
M03
G01 X57.4 Y6.7 F4000
M05
G00 X56.3 Y6.7
M03
G01 X55.3 Y6.7 F4000
M05
G00 X54.0 Y6.7
M03
G01 X53.1 Y6.7 F4000
M05
G00 X51.8 Y6.7
M03
G01 X50.7 Y6.7 F4000
M05
G00 X49.6 Y6.7
M03
G01 X48.4 Y6.7 F4000
M05
G00 X48.0 Y6.7
M03
G01 X46.8 Y6.7 F4000
M05
G00 X46.3 Y6.7
M03
G01 X44.4 Y6.7 F4000
M05
G00 X44.1 Y6.7
M03
G01 X43.5 Y6.7 F4000
M05
G00 X43.3 Y6.7
M03
G01 X41.2 Y6.7 F4000
M05
G00 X40.6 Y6.7
M03
G01 X38.5 Y6.7 F4000
M05
G00 X37.3 Y6.7
M03
G01 X35.1 Y6.7 F4000
M05
G00 X34.0 Y6.7
M03
G01 X32.1 Y6.7 F4000
M05
G00 X31.1 Y6.7
M03
G01 X30.3 Y6.7 F4000
M05
G00 X29.6 Y6.7
M03
G01 X29.2 Y6.7 F4000
M05
G00 X28.4 Y6.7
M03
G01 X27.7 Y6.7 F4000
M05
G00 X17.3 Y6.7
M03
G01 X16.9 Y6.7 F4000
M05
G00 X11.3 Y6.7
M03
G01 X10.8 Y6.7 F4000
M05
G00 X4.8 Y6.7
M03
G01 X4.6 Y6.7 F4000
M05
G00 X4.5 Y6.8
M03
G01 X4.7 Y6.8 F4000
M05
G00 X10.6 Y6.8
M03
G01 X11.1 Y6.8 F4000
M05
G00 X17.1 Y6.8
M03
G01 X17.5 Y6.8 F4000
M05
G00 X27.7 Y6.8
M03
G01 X28.4 Y6.8 F4000
M05
G00 X29.1 Y6.8
M03
G01 X29.7 Y6.8 F4000
M05
G00 X30.3 Y6.8
M03
G01 X31.1 Y6.8 F4000
M05
G00 X32.1 Y6.8
M03
G01 X34.1 Y6.8 F4000
M05
G00 X35.1 Y6.8
M03
G01 X37.4 Y6.8 F4000
M05
G00 X38.5 Y6.8
M03
G01 X40.6 Y6.8 F4000
M05
G00 X41.2 Y6.8
M03
G01 X43.3 Y6.8 F4000
M05
G00 X43.6 Y6.8
M03
G01 X46.3 Y6.8 F4000
M05
G00 X46.8 Y6.8
M03
G01 X48.0 Y6.8 F4000
M05
G00 X48.4 Y6.8
M03
G01 X49.5 Y6.8 F4000
M05
G00 X50.7 Y6.8
M03
G01 X51.8 Y6.8 F4000
M05
G00 X53.1 Y6.8
M03
G01 X54.0 Y6.8 F4000
M05
G00 X55.2 Y6.8
M03
G01 X56.3 Y6.8 F4000
M05
G00 X57.4 Y6.8
M03
G01 X58.0 Y6.8 F4000
M05
G00 X58.2 Y6.8
M03
G01 X60.2 Y6.8 F4000
M05
G00 X60.6 Y6.8
M03
G01 X61.9 Y6.8 F4000
M05
G00 X62.2 Y6.8
M03
G01 X63.4 Y6.8 F4000
M05
G00 X63.9 Y6.8
M03
G01 X66.3 Y6.8 F4000
M05
G00 X67.2 Y6.8
M03
G01 X69.9 Y6.8 F4000
M05
G00 X71.0 Y6.8
M03
G01 X72.1 Y6.8 F4000
M05
G00 X73.4 Y6.8
M03
G01 X75.5 Y6.8 F4000
M05
G00 X76.0 Y6.8
M03
G01 X77.0 Y6.8 F4000
M05
G00 X78.0 Y6.8
M03
G01 X79.9 Y6.8 F4000
M05
G00 X80.8 Y6.8
M03
G01 X82.8 Y6.8 F4000
M05
G00 X83.8 Y6.8
M03
G01 X84.6 Y6.8 F4000
M05
G00 X85.3 Y6.8
M03
G01 X85.8 Y6.8 F4000
M05
G00 X86.5 Y6.8
M03
G01 X87.3 Y6.8 F4000
M05
G00 X93.8 Y6.8
M03
G01 X93.9 Y6.8 F4000
M05
G00 X93.9 Y6.9
M03
G01 X93.8 Y6.9 F4000
M05
G00 X87.3 Y6.9
M03
G01 X86.5 Y6.9 F4000
M05
G00 X85.9 Y6.9
M03
G01 X85.2 Y6.9 F4000
M05
G00 X84.6 Y6.9
M03
G01 X83.8 Y6.9 F4000
M05
G00 X82.9 Y6.9
M03
G01 X80.8 Y6.9 F4000
M05
G00 X79.9 Y6.9
M03
G01 X78.0 Y6.9 F4000
M05
G00 X77.0 Y6.9
M03
G01 X76.0 Y6.9 F4000
M05
G00 X75.5 Y6.9
M03
G01 X73.4 Y6.9 F4000
M05
G00 X72.1 Y6.9
M03
G01 X71.0 Y6.9 F4000
M05
G00 X69.9 Y6.9
M03
G01 X67.2 Y6.9 F4000
M05
G00 X66.4 Y6.9
M03
G01 X63.9 Y6.9 F4000
M05
G00 X63.3 Y6.9
M03
G01 X62.2 Y6.9 F4000
M05
G00 X61.9 Y6.9
M03
G01 X60.6 Y6.9 F4000
M05
G00 X60.2 Y6.9
M03
G01 X57.4 Y6.9 F4000
M05
G00 X56.3 Y6.9
M03
G01 X55.2 Y6.9 F4000
M05
G00 X54.0 Y6.9
M03
G01 X53.1 Y6.9 F4000
M05
G00 X51.8 Y6.9
M03
G01 X50.7 Y6.9 F4000
M05
G00 X49.5 Y6.9
M03
G01 X48.4 Y6.9 F4000
M05
G00 X48.0 Y6.9
M03
G01 X46.7 Y6.9 F4000
M05
G00 X46.3 Y6.9
M03
G01 X43.6 Y6.9 F4000
M05
G00 X43.3 Y6.9
M03
G01 X41.2 Y6.9 F4000
M05
G00 X40.6 Y6.9
M03
G01 X38.5 Y6.9 F4000
M05
G00 X37.5 Y6.9
M03
G01 X35.1 Y6.9 F4000
M05
G00 X34.1 Y6.9
M03
G01 X32.0 Y6.9 F4000
M05
G00 X31.1 Y6.9
M03
G01 X30.3 Y6.9 F4000
M05
G00 X29.7 Y6.9
M03
G01 X29.1 Y6.9 F4000
M05
G00 X28.4 Y6.9
M03
G01 X27.7 Y6.9 F4000
M05
G00 X17.7 Y6.9
M03
G01 X17.2 Y6.9 F4000
M05
G00 X10.9 Y6.9
M03
G01 X10.4 Y6.9 F4000
M05
G00 X4.7 Y6.9
M03
G01 X4.4 Y6.9 F4000
M05
G00 X4.4 Y7.0
M03
G01 X4.6 Y7.0 F4000
M05
G00 X10.2 Y7.0
M03
G01 X10.7 Y7.0 F4000
M05
G00 X17.4 Y7.0
M03
G01 X17.9 Y7.0 F4000
M05
G00 X27.7 Y7.0
M03
G01 X28.5 Y7.0 F4000
M05
G00 X29.0 Y7.0
M03
G01 X29.8 Y7.0 F4000
M05
G00 X30.3 Y7.0
M03
G01 X31.1 Y7.0 F4000
M05
G00 X32.0 Y7.0
M03
G01 X34.2 Y7.0 F4000
M05
G00 X35.1 Y7.0
M03
G01 X37.5 Y7.0 F4000
M05
G00 X38.5 Y7.0
M03
G01 X40.6 Y7.0 F4000
M05
G00 X41.2 Y7.0
M03
G01 X43.3 Y7.0 F4000
M05
G00 X43.6 Y7.0
M03
G01 X46.3 Y7.0 F4000
M05
G00 X46.7 Y7.0
M03
G01 X48.0 Y7.0 F4000
M05
G00 X48.3 Y7.0
M03
G01 X49.4 Y7.0 F4000
M05
G00 X50.7 Y7.0
M03
G01 X51.8 Y7.0 F4000
M05
G00 X53.1 Y7.0
M03
G01 X54.0 Y7.0 F4000
M05
G00 X55.2 Y7.0
M03
G01 X56.3 Y7.0 F4000
M05
G00 X57.4 Y7.0
M03
G01 X60.2 Y7.0 F4000
M05
G00 X60.6 Y7.0
M03
G01 X61.9 Y7.0 F4000
M05
G00 X62.2 Y7.0
M03
G01 X63.2 Y7.0 F4000
M05
G00 X63.9 Y7.0
M03
G01 X66.4 Y7.0 F4000
M05
G00 X67.2 Y7.0
M03
G01 X69.9 Y7.0 F4000
M05
G00 X71.0 Y7.0
M03
G01 X72.1 Y7.0 F4000
M05
G00 X73.4 Y7.0
M03
G01 X75.5 Y7.0 F4000
M05
G00 X76.1 Y7.0
M03
G01 X77.0 Y7.0 F4000
M05
G00 X77.9 Y7.0
M03
G01 X79.9 Y7.0 F4000
M05
G00 X80.7 Y7.0
M03
G01 X82.9 Y7.0 F4000
M05
G00 X83.8 Y7.0
M03
G01 X84.6 Y7.0 F4000
M05
G00 X85.2 Y7.0
M03
G01 X85.9 Y7.0 F4000
M05
G00 X86.5 Y7.0
M03
G01 X87.3 Y7.0 F4000
M05
G00 X93.8 Y7.0
M03
G01 X93.9 Y7.0 F4000
M05
G00 X93.9 Y7.1
M03
G01 X93.8 Y7.1 F4000
M05
G00 X87.3 Y7.1
M03
G01 X86.5 Y7.1 F4000
M05
G00 X86.0 Y7.1
M03
G01 X85.1 Y7.1 F4000
M05
G00 X84.6 Y7.1
M03
G01 X83.8 Y7.1 F4000
M05
G00 X83.0 Y7.1
M03
G01 X80.7 Y7.1 F4000
M05
G00 X80.0 Y7.1
M03
G01 X77.8 Y7.1 F4000
M05
G00 X77.0 Y7.1
M03
G01 X76.1 Y7.1 F4000
M05
G00 X75.6 Y7.1
M03
G01 X73.4 Y7.1 F4000
M05
G00 X72.1 Y7.1
M03
G01 X71.0 Y7.1 F4000
M05
G00 X69.9 Y7.1
M03
G01 X67.2 Y7.1 F4000
M05
G00 X66.5 Y7.1
M03
G01 X63.9 Y7.1 F4000
M05
G00 X63.2 Y7.1
M03
G01 X62.1 Y7.1 F4000
M05
G00 X61.9 Y7.1
M03
G01 X60.6 Y7.1 F4000
M05
G00 X60.1 Y7.1
M03
G01 X57.5 Y7.1 F4000
M05
G00 X56.3 Y7.1
M03
G01 X55.2 Y7.1 F4000
M05
G00 X54.0 Y7.1
M03
G01 X53.1 Y7.1 F4000
M05
G00 X51.8 Y7.1
M03
G01 X50.7 Y7.1 F4000
M05
G00 X49.3 Y7.1
M03
G01 X48.3 Y7.1 F4000
M05
G00 X48.0 Y7.1
M03
G01 X46.7 Y7.1 F4000
M05
G00 X46.3 Y7.1
M03
G01 X43.6 Y7.1 F4000
M05
G00 X43.4 Y7.1
M03
G01 X41.2 Y7.1 F4000
M05
G00 X40.6 Y7.1
M03
G01 X38.5 Y7.1 F4000
M05
G00 X37.6 Y7.1
M03
G01 X35.1 Y7.1 F4000
M05
G00 X34.2 Y7.1
M03
G01 X31.9 Y7.1 F4000
M05
G00 X31.1 Y7.1
M03
G01 X30.3 Y7.1 F4000
M05
G00 X29.8 Y7.1
M03
G01 X29.0 Y7.1 F4000
M05
G00 X28.5 Y7.1
M03
G01 X27.7 Y7.1 F4000
M05
G00 X18.1 Y7.1
M03
G01 X17.6 Y7.1 F4000
M05
G00 X10.5 Y7.1
M03
G01 X10.0 Y7.1 F4000
M05
G00 X4.5 Y7.1
M03
G01 X4.3 Y7.1 F4000
M05
G00 X4.2 Y7.2
M03
G01 X4.4 Y7.2 F4000
M05
G00 X9.8 Y7.2
M03
G01 X10.3 Y7.2 F4000
M05
G00 X17.8 Y7.2
M03
G01 X18.3 Y7.2 F4000
M05
G00 X27.7 Y7.2
M03
G01 X28.5 Y7.2 F4000
M05
G00 X28.9 Y7.2
M03
G01 X29.9 Y7.2 F4000
M05
G00 X30.3 Y7.2
M03
G01 X31.1 Y7.2 F4000
M05
G00 X31.9 Y7.2
M03
G01 X34.3 Y7.2 F4000
M05
G00 X35.1 Y7.2
M03
G01 X37.7 Y7.2 F4000
M05
G00 X38.5 Y7.2
M03
G01 X40.7 Y7.2 F4000
M05
G00 X41.2 Y7.2
M03
G01 X43.4 Y7.2 F4000
M05
G00 X43.6 Y7.2
M03
G01 X46.3 Y7.2 F4000
M05
G00 X46.7 Y7.2
M03
G01 X48.0 Y7.2 F4000
M05
G00 X48.2 Y7.2
M03
G01 X49.3 Y7.2 F4000
M05
G00 X50.7 Y7.2
M03
G01 X51.8 Y7.2 F4000
M05
G00 X53.1 Y7.2
M03
G01 X53.9 Y7.2 F4000
M05
G00 X55.2 Y7.2
M03
G01 X56.4 Y7.2 F4000
M05
G00 X57.5 Y7.2
M03
G01 X60.1 Y7.2 F4000
M05
G00 X60.6 Y7.2
M03
G01 X61.9 Y7.2 F4000
M05
G00 X62.1 Y7.2
M03
G01 X63.1 Y7.2 F4000
M05
G00 X63.9 Y7.2
M03
G01 X66.6 Y7.2 F4000
M05
G00 X67.2 Y7.2
M03
G01 X69.9 Y7.2 F4000
M05
G00 X71.0 Y7.2
M03
G01 X72.1 Y7.2 F4000
M05
G00 X73.4 Y7.2
M03
G01 X75.6 Y7.2 F4000
M05
G00 X76.1 Y7.2
M03
G01 X76.9 Y7.2 F4000
M05
G00 X77.8 Y7.2
M03
G01 X79.4 Y7.2 F4000
M05
G00 X79.8 Y7.2
M03
G01 X80.0 Y7.2 F4000
M05
G00 X80.6 Y7.2
M03
G01 X83.0 Y7.2 F4000
M05
G00 X83.8 Y7.2
M03
G01 X84.6 Y7.2 F4000
M05
G00 X85.1 Y7.2
M03
G01 X86.0 Y7.2 F4000
M05
G00 X86.5 Y7.2
M03
G01 X87.3 Y7.2 F4000
M05
G00 X93.8 Y7.2
M03
G01 X93.9 Y7.2 F4000
M05
G00 X93.9 Y7.3
M03
G01 X93.8 Y7.3 F4000
M05
G00 X87.3 Y7.3
M03
G01 X86.5 Y7.3 F4000
M05
G00 X86.1 Y7.3
M03
G01 X85.0 Y7.3 F4000
M05
G00 X84.6 Y7.3
M03
G01 X83.8 Y7.3 F4000
M05
G00 X83.1 Y7.3
M03
G01 X80.6 Y7.3 F4000
M05
G00 X80.0 Y7.3
M03
G01 X80.0 Y7.3 F4000
M05
G00 X79.2 Y7.3
M03
G01 X77.7 Y7.3 F4000
M05
G00 X76.9 Y7.3
M03
G01 X76.2 Y7.3 F4000
M05
G00 X75.6 Y7.3
M03
G01 X75.5 Y7.3 F4000
M05
G00 X74.7 Y7.3
M03
G01 X73.4 Y7.3 F4000
M05
G00 X72.1 Y7.3
M03
G01 X71.0 Y7.3 F4000
M05
G00 X69.9 Y7.3
M03
G01 X67.2 Y7.3 F4000
M05
G00 X66.6 Y7.3
M03
G01 X65.5 Y7.3 F4000
M05
G00 X65.2 Y7.3
M03
G01 X63.9 Y7.3 F4000
M05
G00 X63.1 Y7.3
M03
G01 X62.1 Y7.3 F4000
M05
G00 X61.9 Y7.3
M03
G01 X60.6 Y7.3 F4000
M05
G00 X60.1 Y7.3
M03
G01 X57.5 Y7.3 F4000
M05
G00 X56.4 Y7.3
M03
G01 X55.2 Y7.3 F4000
M05
G00 X53.9 Y7.3
M03
G01 X53.2 Y7.3 F4000
M05
G00 X51.9 Y7.3
M03
G01 X50.7 Y7.3 F4000
M05
G00 X49.2 Y7.3
M03
G01 X48.2 Y7.3 F4000
M05
G00 X48.0 Y7.3
M03
G01 X46.7 Y7.3 F4000
M05
G00 X46.2 Y7.3
M03
G01 X43.6 Y7.3 F4000
M05
G00 X43.4 Y7.3
M03
G01 X43.3 Y7.3 F4000
M05
G00 X42.4 Y7.3
M03
G01 X41.2 Y7.3 F4000
M05
G00 X40.7 Y7.3
M03
G01 X40.6 Y7.3 F4000
M05
G00 X39.7 Y7.3
M03
G01 X38.5 Y7.3 F4000
M05
G00 X37.7 Y7.3
M03
G01 X36.6 Y7.3 F4000
M05
G00 X36.3 Y7.3
M03
G01 X35.1 Y7.3 F4000
M05
G00 X34.3 Y7.3
M03
G01 X31.8 Y7.3 F4000
M05
G00 X31.1 Y7.3
M03
G01 X30.3 Y7.3 F4000
M05
G00 X29.9 Y7.3
M03
G01 X28.9 Y7.3 F4000
M05
G00 X28.5 Y7.3
M03
G01 X27.7 Y7.3 F4000
M05
G00 X18.5 Y7.3
M03
G01 X18.0 Y7.3 F4000
M05
G00 X10.1 Y7.3
M03
G01 X9.6 Y7.3 F4000
M05
G00 X4.3 Y7.3
M03
G01 X4.1 Y7.3 F4000
M05
G00 X4.1 Y7.4
M03
G01 X4.3 Y7.4 F4000
M05
G00 X9.4 Y7.4
M03
G01 X9.9 Y7.4 F4000
M05
G00 X18.2 Y7.4
M03
G01 X18.7 Y7.4 F4000
M05
G00 X27.7 Y7.4
M03
G01 X28.5 Y7.4 F4000
M05
G00 X28.8 Y7.4
M03
G01 X30.0 Y7.4 F4000
M05
G00 X30.3 Y7.4
M03
G01 X31.1 Y7.4 F4000
M05
G00 X31.8 Y7.4
M03
G01 X32.9 Y7.4 F4000
M05
G00 X33.2 Y7.4
M03
G01 X34.4 Y7.4 F4000
M05
G00 X35.0 Y7.4
M03
G01 X36.3 Y7.4 F4000
M05
G00 X36.8 Y7.4
M03
G01 X37.8 Y7.4 F4000
M05
G00 X38.5 Y7.4
M03
G01 X39.7 Y7.4 F4000
M05
G00 X41.2 Y7.4
M03
G01 X42.4 Y7.4 F4000
M05
G00 X43.7 Y7.4
M03
G01 X44.3 Y7.4 F4000
M05
G00 X44.9 Y7.4
M03
G01 X46.2 Y7.4 F4000
M05
G00 X46.7 Y7.4
M03
G01 X49.2 Y7.4 F4000
M05
G00 X50.7 Y7.4
M03
G01 X51.9 Y7.4 F4000
M05
G00 X53.3 Y7.4
M03
G01 X53.8 Y7.4 F4000
M05
G00 X55.2 Y7.4
M03
G01 X56.4 Y7.4 F4000
M05
G00 X57.5 Y7.4
M03
G01 X58.1 Y7.4 F4000
M05
G00 X58.8 Y7.4
M03
G01 X60.1 Y7.4 F4000
M05
G00 X60.6 Y7.4
M03
G01 X63.0 Y7.4 F4000
M05
G00 X63.9 Y7.4
M03
G01 X65.2 Y7.4 F4000
M05
G00 X65.7 Y7.4
M03
G01 X66.7 Y7.4 F4000
M05
G00 X67.3 Y7.4
M03
G01 X67.9 Y7.4 F4000
M05
G00 X68.5 Y7.4
M03
G01 X69.8 Y7.4 F4000
M05
G00 X71.0 Y7.4
M03
G01 X72.1 Y7.4 F4000
M05
G00 X73.4 Y7.4
M03
G01 X74.7 Y7.4 F4000
M05
G00 X76.3 Y7.4
M03
G01 X76.7 Y7.4 F4000
M05
G00 X77.7 Y7.4
M03
G01 X79.1 Y7.4 F4000
M05
G00 X80.5 Y7.4
M03
G01 X81.7 Y7.4 F4000
M05
G00 X82.0 Y7.4
M03
G01 X83.1 Y7.4 F4000
M05
G00 X83.8 Y7.4
M03
G01 X84.6 Y7.4 F4000
M05
G00 X85.0 Y7.4
M03
G01 X86.1 Y7.4 F4000
M05
G00 X86.5 Y7.4
M03
G01 X87.3 Y7.4 F4000
M05
G00 X93.8 Y7.4
M03
G01 X93.9 Y7.4 F4000
M05
G00 X93.9 Y7.5
M03
G01 X93.8 Y7.5 F4000
M05
G00 X87.3 Y7.5
M03
G01 X86.5 Y7.5 F4000
M05
G00 X86.2 Y7.5
M03
G01 X84.9 Y7.5 F4000
M05
G00 X84.6 Y7.5
M03
G01 X83.8 Y7.5 F4000
M05
G00 X83.2 Y7.5
M03
G01 X82.1 Y7.5 F4000
M05
G00 X81.6 Y7.5
M03
G01 X80.5 Y7.5 F4000
M05
G00 X79.0 Y7.5
M03
G01 X77.6 Y7.5 F4000
M05
G00 X74.7 Y7.5
M03
G01 X73.4 Y7.5 F4000
M05
G00 X72.1 Y7.5
M03
G01 X71.0 Y7.5 F4000
M05
G00 X69.8 Y7.5
M03
G01 X68.6 Y7.5 F4000
M05
G00 X67.9 Y7.5
M03
G01 X67.3 Y7.5 F4000
M05
G00 X66.7 Y7.5
M03
G01 X65.8 Y7.5 F4000
M05
G00 X65.2 Y7.5
M03
G01 X63.9 Y7.5 F4000
M05
G00 X63.0 Y7.5
M03
G01 X60.6 Y7.5 F4000
M05
G00 X60.1 Y7.5
M03
G01 X58.9 Y7.5 F4000
M05
G00 X58.2 Y7.5
M03
G01 X57.5 Y7.5 F4000
M05
G00 X56.4 Y7.5
M03
G01 X55.2 Y7.5 F4000
M05
G00 X51.9 Y7.5
M03
G01 X50.7 Y7.5 F4000
M05
G00 X49.1 Y7.5
M03
G01 X46.7 Y7.5 F4000
M05
G00 X46.2 Y7.5
M03
G01 X45.0 Y7.5 F4000
M05
G00 X44.3 Y7.5
M03
G01 X43.7 Y7.5 F4000
M05
G00 X42.5 Y7.5
M03
G01 X41.2 Y7.5 F4000
M05
G00 X39.7 Y7.5
M03
G01 X38.5 Y7.5 F4000
M05
G00 X37.8 Y7.5
M03
G01 X36.9 Y7.5 F4000
M05
G00 X36.3 Y7.5
M03
G01 X35.0 Y7.5 F4000
M05
G00 X34.4 Y7.5
M03
G01 X33.3 Y7.5 F4000
M05
G00 X32.8 Y7.5
M03
G01 X31.8 Y7.5 F4000
M05
G00 X31.1 Y7.5
M03
G01 X30.3 Y7.5 F4000
M05
G00 X30.0 Y7.5
M03
G01 X28.8 Y7.5 F4000
M05
G00 X28.5 Y7.5
M03
G01 X27.7 Y7.5 F4000
M05
G00 X18.8 Y7.5
M03
G01 X18.4 Y7.5 F4000
M05
G00 X9.7 Y7.5
M03
G01 X9.3 Y7.5 F4000
M05
G00 X4.2 Y7.5
M03
G01 X4.0 Y7.5 F4000
M05
G00 X3.9 Y7.6
M03
G01 X4.1 Y7.6 F4000
M05
G00 X9.2 Y7.6
M03
G01 X9.5 Y7.6 F4000
M05
G00 X18.6 Y7.6
M03
G01 X18.9 Y7.6 F4000
M05
G00 X27.7 Y7.6
M03
G01 X28.5 Y7.6 F4000
M05
G00 X28.7 Y7.6
M03
G01 X30.0 Y7.6 F4000
M05
G00 X30.3 Y7.6
M03
G01 X31.1 Y7.6 F4000
M05
G00 X31.7 Y7.6
M03
G01 X32.8 Y7.6 F4000
M05
G00 X33.4 Y7.6
M03
G01 X34.4 Y7.6 F4000
M05
G00 X35.0 Y7.6
M03
G01 X36.3 Y7.6 F4000
M05
G00 X37.0 Y7.6
M03
G01 X37.8 Y7.6 F4000
M05
G00 X38.5 Y7.6
M03
G01 X39.7 Y7.6 F4000
M05
G00 X41.2 Y7.6
M03
G01 X42.5 Y7.6 F4000
M05
G00 X43.7 Y7.6
M03
G01 X44.3 Y7.6 F4000
M05
G00 X45.0 Y7.6
M03
G01 X46.2 Y7.6 F4000
M05
G00 X46.7 Y7.6
M03
G01 X49.1 Y7.6 F4000
M05
G00 X50.7 Y7.6
M03
G01 X51.9 Y7.6 F4000
M05
G00 X55.2 Y7.6
M03
G01 X56.4 Y7.6 F4000
M05
G00 X57.5 Y7.6
M03
G01 X58.2 Y7.6 F4000
M05
G00 X58.8 Y7.6
M03
G01 X60.1 Y7.6 F4000
M05
G00 X60.6 Y7.6
M03
G01 X62.9 Y7.6 F4000
M05
G00 X63.9 Y7.6
M03
G01 X65.2 Y7.6 F4000
M05
G00 X65.8 Y7.6
M03
G01 X66.7 Y7.6 F4000
M05
G00 X67.3 Y7.6
M03
G01 X67.9 Y7.6 F4000
M05
G00 X68.6 Y7.6
M03
G01 X69.8 Y7.6 F4000
M05
G00 X71.0 Y7.6
M03
G01 X72.1 Y7.6 F4000
M05
G00 X73.4 Y7.6
M03
G01 X74.7 Y7.6 F4000
M05
G00 X77.6 Y7.6
M03
G01 X78.9 Y7.6 F4000
M05
G00 X80.5 Y7.6
M03
G01 X81.5 Y7.6 F4000
M05
G00 X82.1 Y7.6
M03
G01 X83.2 Y7.6 F4000
M05
G00 X83.8 Y7.6
M03
G01 X84.6 Y7.6 F4000
M05
G00 X84.9 Y7.6
M03
G01 X86.2 Y7.6 F4000
M05
G00 X86.5 Y7.6
M03
G01 X87.3 Y7.6 F4000
M05
G00 X93.8 Y7.6
M03
G01 X93.9 Y7.6 F4000
M05
G00 X93.9 Y7.7
M03
G01 X93.8 Y7.7 F4000
M05
G00 X87.3 Y7.7
M03
G01 X86.5 Y7.7 F4000
M05
G00 X86.3 Y7.7
M03
G01 X84.8 Y7.7 F4000
M05
G00 X84.6 Y7.7
M03
G01 X83.8 Y7.7 F4000
M05
G00 X83.2 Y7.7
M03
G01 X82.2 Y7.7 F4000
M05
G00 X81.5 Y7.7
M03
G01 X80.5 Y7.7 F4000
M05
G00 X78.9 Y7.7
M03
G01 X77.6 Y7.7 F4000
M05
G00 X74.7 Y7.7
M03
G01 X73.4 Y7.7 F4000
M05
G00 X72.2 Y7.7
M03
G01 X71.0 Y7.7 F4000
M05
G00 X69.8 Y7.7
M03
G01 X68.6 Y7.7 F4000
M05
G00 X68.0 Y7.7
M03
G01 X67.3 Y7.7 F4000
M05
G00 X66.8 Y7.7
M03
G01 X65.9 Y7.7 F4000
M05
G00 X65.2 Y7.7
M03
G01 X63.9 Y7.7 F4000
M05
G00 X62.9 Y7.7
M03
G01 X60.6 Y7.7 F4000
M05
G00 X60.0 Y7.7
M03
G01 X58.8 Y7.7 F4000
M05
G00 X58.2 Y7.7
M03
G01 X57.6 Y7.7 F4000
M05
G00 X56.4 Y7.7
M03
G01 X55.2 Y7.7 F4000
M05
G00 X51.9 Y7.7
M03
G01 X50.7 Y7.7 F4000
M05
G00 X49.0 Y7.7
M03
G01 X46.7 Y7.7 F4000
M05
G00 X46.2 Y7.7
M03
G01 X45.0 Y7.7 F4000
M05
G00 X44.3 Y7.7
M03
G01 X43.7 Y7.7 F4000
M05
G00 X42.5 Y7.7
M03
G01 X41.2 Y7.7 F4000
M05
G00 X39.7 Y7.7
M03
G01 X38.5 Y7.7 F4000
M05
G00 X37.9 Y7.7
M03
G01 X37.0 Y7.7 F4000
M05
G00 X36.3 Y7.7
M03
G01 X35.0 Y7.7 F4000
M05
G00 X34.5 Y7.7
M03
G01 X33.4 Y7.7 F4000
M05
G00 X32.7 Y7.7
M03
G01 X31.7 Y7.7 F4000
M05
G00 X31.1 Y7.7
M03
G01 X30.3 Y7.7 F4000
M05
G00 X30.1 Y7.7
M03
G01 X28.7 Y7.7 F4000
M05
G00 X28.5 Y7.7
M03
G01 X27.7 Y7.7 F4000
M05
G00 X19.0 Y7.7
M03
G01 X18.8 Y7.7 F4000
M05
G00 X9.3 Y7.7
M03
G01 X9.1 Y7.7 F4000
M05
G00 X4.0 Y7.7
M03
G01 X3.8 Y7.7 F4000
M05
G00 X3.8 Y7.8
M03
G01 X4.0 Y7.8 F4000
M05
G00 X9.0 Y7.8
M03
G01 X9.2 Y7.8 F4000
M05
G00 X18.9 Y7.8
M03
G01 X19.1 Y7.8 F4000
M05
G00 X27.6 Y7.8
M03
G01 X30.1 Y7.8 F4000
M05
G00 X30.3 Y7.8
M03
G01 X31.1 Y7.8 F4000
M05
G00 X31.7 Y7.8
M03
G01 X32.7 Y7.8 F4000
M05
G00 X33.5 Y7.8
M03
G01 X34.5 Y7.8 F4000
M05
G00 X35.0 Y7.8
M03
G01 X36.3 Y7.8 F4000
M05
G00 X37.1 Y7.8
M03
G01 X37.9 Y7.8 F4000
M05
G00 X38.5 Y7.8
M03
G01 X39.8 Y7.8 F4000
M05
G00 X41.2 Y7.8
M03
G01 X42.5 Y7.8 F4000
M05
G00 X43.7 Y7.8
M03
G01 X44.4 Y7.8 F4000
M05
G00 X44.9 Y7.8
M03
G01 X46.2 Y7.8 F4000
M05
G00 X46.7 Y7.8
M03
G01 X49.0 Y7.8 F4000
M05
G00 X50.7 Y7.8
M03
G01 X51.9 Y7.8 F4000
M05
G00 X55.2 Y7.8
M03
G01 X56.4 Y7.8 F4000
M05
G00 X57.6 Y7.8
M03
G01 X58.2 Y7.8 F4000
M05
G00 X58.8 Y7.8
M03
G01 X60.0 Y7.8 F4000
M05
G00 X60.6 Y7.8
M03
G01 X62.8 Y7.8 F4000
M05
G00 X63.9 Y7.8
M03
G01 X65.2 Y7.8 F4000
M05
G00 X65.9 Y7.8
M03
G01 X66.8 Y7.8 F4000
M05
G00 X67.3 Y7.8
M03
G01 X68.0 Y7.8 F4000
M05
G00 X68.5 Y7.8
M03
G01 X69.8 Y7.8 F4000
M05
G00 X71.0 Y7.8
M03
G01 X72.2 Y7.8 F4000
M05
G00 X73.4 Y7.8
M03
G01 X74.7 Y7.8 F4000
M05
G00 X77.5 Y7.8
M03
G01 X78.8 Y7.8 F4000
M05
G00 X80.4 Y7.8
M03
G01 X81.5 Y7.8 F4000
M05
G00 X82.2 Y7.8
M03
G01 X83.2 Y7.8 F4000
M05
G00 X83.8 Y7.8
M03
G01 X84.6 Y7.8 F4000
M05
G00 X84.8 Y7.8
M03
G01 X86.3 Y7.8 F4000
M05
G00 X86.5 Y7.8
M03
G01 X87.3 Y7.8 F4000
M05
G00 X93.8 Y7.8
M03
G01 X93.9 Y7.8 F4000
M05
G00 X93.9 Y7.9
M03
G01 X93.8 Y7.9 F4000
M05
G00 X87.3 Y7.9
M03
G01 X83.8 Y7.9 F4000
M05
G00 X83.3 Y7.9
M03
G01 X82.3 Y7.9 F4000
M05
G00 X81.4 Y7.9
M03
G01 X80.4 Y7.9 F4000
M05
G00 X78.8 Y7.9
M03
G01 X77.5 Y7.9 F4000
M05
G00 X74.7 Y7.9
M03
G01 X73.4 Y7.9 F4000
M05
G00 X72.2 Y7.9
M03
G01 X71.0 Y7.9 F4000
M05
G00 X69.8 Y7.9
M03
G01 X68.5 Y7.9 F4000
M05
G00 X68.0 Y7.9
M03
G01 X67.3 Y7.9 F4000
M05
G00 X66.8 Y7.9
M03
G01 X66.0 Y7.9 F4000
M05
G00 X65.2 Y7.9
M03
G01 X63.9 Y7.9 F4000
M05
G00 X62.8 Y7.9
M03
G01 X60.6 Y7.9 F4000
M05
G00 X60.0 Y7.9
M03
G01 X58.8 Y7.9 F4000
M05
G00 X58.2 Y7.9
M03
G01 X57.6 Y7.9 F4000
M05
G00 X56.4 Y7.9
M03
G01 X55.2 Y7.9 F4000
M05
G00 X51.9 Y7.9
M03
G01 X50.7 Y7.9 F4000
M05
G00 X48.9 Y7.9
M03
G01 X46.7 Y7.9 F4000
M05
G00 X46.2 Y7.9
M03
G01 X44.9 Y7.9 F4000
M05
G00 X44.4 Y7.9
M03
G01 X43.7 Y7.9 F4000
M05
G00 X42.5 Y7.9
M03
G01 X41.2 Y7.9 F4000
M05
G00 X39.8 Y7.9
M03
G01 X38.5 Y7.9 F4000
M05
G00 X37.9 Y7.9
M03
G01 X37.1 Y7.9 F4000
M05
G00 X36.3 Y7.9
M03
G01 X35.0 Y7.9 F4000
M05
G00 X34.5 Y7.9
M03
G01 X33.5 Y7.9 F4000
M05
G00 X32.7 Y7.9
M03
G01 X31.6 Y7.9 F4000
M05
G00 X31.1 Y7.9
M03
G01 X27.6 Y7.9 F4000
M05
G00 X19.2 Y7.9
M03
G01 X19.0 Y7.9 F4000
M05
G00 X9.1 Y7.9
M03
G01 X8.9 Y7.9 F4000
M05
G00 X3.9 Y7.9
M03
G01 X3.7 Y7.9 F4000
M05
G00 X3.6 Y8.0
M03
G01 X3.8 Y8.0 F4000
M05
G00 X8.8 Y8.0
M03
G01 X9.0 Y8.0 F4000
M05
G00 X19.1 Y8.0
M03
G01 X19.3 Y8.0 F4000
M05
G00 X27.6 Y8.0
M03
G01 X31.1 Y8.0 F4000
M05
G00 X31.6 Y8.0
M03
G01 X32.6 Y8.0 F4000
M05
G00 X33.5 Y8.0
M03
G01 X34.5 Y8.0 F4000
M05
G00 X35.0 Y8.0
M03
G01 X36.3 Y8.0 F4000
M05
G00 X37.1 Y8.0
M03
G01 X38.0 Y8.0 F4000
M05
G00 X38.4 Y8.0
M03
G01 X39.8 Y8.0 F4000
M05
G00 X40.3 Y8.0
M03
G01 X40.5 Y8.0 F4000
M05
G00 X41.2 Y8.0
M03
G01 X42.5 Y8.0 F4000
M05
G00 X43.7 Y8.0
M03
G01 X44.4 Y8.0 F4000
M05
G00 X44.9 Y8.0
M03
G01 X46.1 Y8.0 F4000
M05
G00 X46.7 Y8.0
M03
G01 X49.0 Y8.0 F4000
M05
G00 X50.7 Y8.0
M03
G01 X51.9 Y8.0 F4000
M05
G00 X55.2 Y8.0
M03
G01 X56.4 Y8.0 F4000
M05
G00 X57.6 Y8.0
M03
G01 X58.3 Y8.0 F4000
M05
G00 X58.7 Y8.0
M03
G01 X60.0 Y8.0 F4000
M05
G00 X60.6 Y8.0
M03
G01 X62.9 Y8.0 F4000
M05
G00 X63.9 Y8.0
M03
G01 X65.2 Y8.0 F4000
M05
G00 X66.0 Y8.0
M03
G01 X66.8 Y8.0 F4000
M05
G00 X67.4 Y8.0
M03
G01 X68.0 Y8.0 F4000
M05
G00 X68.5 Y8.0
M03
G01 X69.7 Y8.0 F4000
M05
G00 X71.0 Y8.0
M03
G01 X72.2 Y8.0 F4000
M05
G00 X73.4 Y8.0
M03
G01 X74.7 Y8.0 F4000
M05
G00 X75.2 Y8.0
M03
G01 X75.4 Y8.0 F4000
M05
G00 X77.5 Y8.0
M03
G01 X78.8 Y8.0 F4000
M05
G00 X80.4 Y8.0
M03
G01 X81.4 Y8.0 F4000
M05
G00 X82.3 Y8.0
M03
G01 X83.3 Y8.0 F4000
M05
G00 X83.8 Y8.0
M03
G01 X87.3 Y8.0 F4000
M05
G00 X93.8 Y8.0
M03
G01 X93.9 Y8.0 F4000
M05
G00 X93.9 Y8.1
M03
G01 X93.8 Y8.1 F4000
M05
G00 X87.3 Y8.1
M03
G01 X83.8 Y8.1 F4000
M05
G00 X83.3 Y8.1
M03
G01 X82.3 Y8.1 F4000
M05
G00 X81.4 Y8.1
M03
G01 X80.4 Y8.1 F4000
M05
G00 X78.8 Y8.1
M03
G01 X77.5 Y8.1 F4000
M05
G00 X75.4 Y8.1
M03
G01 X73.4 Y8.1 F4000
M05
G00 X72.2 Y8.1
M03
G01 X71.0 Y8.1 F4000
M05
G00 X69.7 Y8.1
M03
G01 X68.5 Y8.1 F4000
M05
G00 X68.0 Y8.1
M03
G01 X67.4 Y8.1 F4000
M05
G00 X66.9 Y8.1
M03
G01 X66.0 Y8.1 F4000
M05
G00 X65.2 Y8.1
M03
G01 X63.9 Y8.1 F4000
M05
G00 X63.0 Y8.1
M03
G01 X60.6 Y8.1 F4000
M05
G00 X60.0 Y8.1
M03
G01 X58.7 Y8.1 F4000
M05
G00 X58.3 Y8.1
M03
G01 X57.6 Y8.1 F4000
M05
G00 X56.4 Y8.1
M03
G01 X55.2 Y8.1 F4000
M05
G00 X51.9 Y8.1
M03
G01 X50.7 Y8.1 F4000
M05
G00 X49.1 Y8.1
M03
G01 X46.7 Y8.1 F4000
M05
G00 X46.1 Y8.1
M03
G01 X44.9 Y8.1 F4000
M05
G00 X44.4 Y8.1
M03
G01 X43.8 Y8.1 F4000
M05
G00 X42.5 Y8.1
M03
G01 X41.2 Y8.1 F4000
M05
G00 X40.5 Y8.1
M03
G01 X38.4 Y8.1 F4000
M05
G00 X38.0 Y8.1
M03
G01 X37.1 Y8.1 F4000
M05
G00 X36.3 Y8.1
M03
G01 X35.0 Y8.1 F4000
M05
G00 X34.5 Y8.1
M03
G01 X33.5 Y8.1 F4000
M05
G00 X32.6 Y8.1
M03
G01 X31.6 Y8.1 F4000
M05
G00 X31.1 Y8.1
M03
G01 X27.6 Y8.1 F4000
M05
G00 X19.4 Y8.1
M03
G01 X19.2 Y8.1 F4000
M05
G00 X8.9 Y8.1
M03
G01 X8.7 Y8.1 F4000
M05
G00 X3.7 Y8.1
M03
G01 X3.6 Y8.1 F4000
M05
G00 X3.5 Y8.2
M03
G01 X3.7 Y8.2 F4000
M05
G00 X8.6 Y8.2
M03
G01 X8.8 Y8.2 F4000
M05
G00 X19.3 Y8.2
M03
G01 X19.5 Y8.2 F4000
M05
G00 X27.6 Y8.2
M03
G01 X31.1 Y8.2 F4000
M05
G00 X31.6 Y8.2
M03
G01 X32.6 Y8.2 F4000
M05
G00 X33.6 Y8.2
M03
G01 X34.6 Y8.2 F4000
M05
G00 X35.0 Y8.2
M03
G01 X36.3 Y8.2 F4000
M05
G00 X37.2 Y8.2
M03
G01 X38.0 Y8.2 F4000
M05
G00 X38.4 Y8.2
M03
G01 X40.5 Y8.2 F4000
M05
G00 X41.2 Y8.2
M03
G01 X42.5 Y8.2 F4000
M05
G00 X43.8 Y8.2
M03
G01 X44.5 Y8.2 F4000
M05
G00 X44.8 Y8.2
M03
G01 X46.1 Y8.2 F4000
M05
G00 X46.7 Y8.2
M03
G01 X49.2 Y8.2 F4000
M05
G00 X50.7 Y8.2
M03
G01 X51.9 Y8.2 F4000
M05
G00 X55.2 Y8.2
M03
G01 X56.4 Y8.2 F4000
M05
G00 X57.6 Y8.2
M03
G01 X58.3 Y8.2 F4000
M05
G00 X58.7 Y8.2
M03
G01 X60.0 Y8.2 F4000
M05
G00 X60.6 Y8.2
M03
G01 X63.1 Y8.2 F4000
M05
G00 X63.9 Y8.2
M03
G01 X65.2 Y8.2 F4000
M05
G00 X66.0 Y8.2
M03
G01 X66.9 Y8.2 F4000
M05
G00 X67.4 Y8.2
M03
G01 X68.1 Y8.2 F4000
M05
G00 X68.4 Y8.2
M03
G01 X69.7 Y8.2 F4000
M05
G00 X71.0 Y8.2
M03
G01 X72.2 Y8.2 F4000
M05
G00 X73.4 Y8.2
M03
G01 X75.4 Y8.2 F4000
M05
G00 X77.5 Y8.2
M03
G01 X78.8 Y8.2 F4000
M05
G00 X80.3 Y8.2
M03
G01 X81.4 Y8.2 F4000
M05
G00 X82.3 Y8.2
M03
G01 X83.3 Y8.2 F4000
M05
G00 X83.8 Y8.2
M03
G01 X87.3 Y8.2 F4000
M05
G00 X93.8 Y8.2
M03
G01 X93.9 Y8.2 F4000
M05
G00 X93.9 Y8.3
M03
G01 X93.8 Y8.3 F4000
M05
G00 X87.3 Y8.3
M03
G01 X83.8 Y8.3 F4000
M05
G00 X83.3 Y8.3
M03
G01 X82.3 Y8.3 F4000
M05
G00 X81.4 Y8.3
M03
G01 X80.3 Y8.3 F4000
M05
G00 X78.8 Y8.3
M03
G01 X77.4 Y8.3 F4000
M05
G00 X75.4 Y8.3
M03
G01 X73.4 Y8.3 F4000
M05
G00 X72.2 Y8.3
M03
G01 X71.0 Y8.3 F4000
M05
G00 X69.7 Y8.3
M03
G01 X68.4 Y8.3 F4000
M05
G00 X68.1 Y8.3
M03
G01 X67.4 Y8.3 F4000
M05
G00 X66.9 Y8.3
M03
G01 X66.0 Y8.3 F4000
M05
G00 X65.2 Y8.3
M03
G01 X63.9 Y8.3 F4000
M05
G00 X63.2 Y8.3
M03
G01 X60.6 Y8.3 F4000
M05
G00 X60.0 Y8.3
M03
G01 X58.7 Y8.3 F4000
M05
G00 X58.3 Y8.3
M03
G01 X57.7 Y8.3 F4000
M05
G00 X56.4 Y8.3
M03
G01 X55.2 Y8.3 F4000
M05
G00 X51.9 Y8.3
M03
G01 X50.7 Y8.3 F4000
M05
G00 X49.3 Y8.3
M03
G01 X48.3 Y8.3 F4000
M05
G00 X48.1 Y8.3
M03
G01 X46.7 Y8.3 F4000
M05
G00 X46.1 Y8.3
M03
G01 X44.8 Y8.3 F4000
M05
G00 X44.5 Y8.3
M03
G01 X43.8 Y8.3 F4000
M05
G00 X42.5 Y8.3
M03
G01 X41.2 Y8.3 F4000
M05
G00 X40.5 Y8.3
M03
G01 X38.4 Y8.3 F4000
M05
G00 X38.0 Y8.3
M03
G01 X37.2 Y8.3 F4000
M05
G00 X36.3 Y8.3
M03
G01 X35.0 Y8.3 F4000
M05
G00 X34.6 Y8.3
M03
G01 X33.6 Y8.3 F4000
M05
G00 X32.6 Y8.3
M03
G01 X31.6 Y8.3 F4000
M05
G00 X31.1 Y8.3
M03
G01 X27.6 Y8.3 F4000
M05
G00 X19.6 Y8.3
M03
G01 X19.4 Y8.3 F4000
M05
G00 X8.7 Y8.3
M03
G01 X8.5 Y8.3 F4000
M05
G00 X3.6 Y8.3
M03
G01 X3.5 Y8.3 F4000
M05
G00 X3.4 Y8.4
M03
G01 X3.6 Y8.4 F4000
M05
G00 X8.4 Y8.4
M03
G01 X8.6 Y8.4 F4000
M05
G00 X19.5 Y8.4
M03
G01 X19.7 Y8.4 F4000
M05
G00 X27.6 Y8.4
M03
G01 X31.1 Y8.4 F4000
M05
G00 X31.6 Y8.4
M03
G01 X32.6 Y8.4 F4000
M05
G00 X33.6 Y8.4
M03
G01 X34.6 Y8.4 F4000
M05
G00 X35.0 Y8.4
M03
G01 X36.4 Y8.4 F4000
M05
G00 X37.2 Y8.4
M03
G01 X38.0 Y8.4 F4000
M05
G00 X38.4 Y8.4
M03
G01 X40.5 Y8.4 F4000
M05
G00 X41.2 Y8.4
M03
G01 X42.5 Y8.4 F4000
M05
G00 X43.8 Y8.4
M03
G01 X44.5 Y8.4 F4000
M05
G00 X44.8 Y8.4
M03
G01 X46.1 Y8.4 F4000
M05
G00 X46.7 Y8.4
M03
G01 X48.1 Y8.4 F4000
M05
G00 X48.5 Y8.4
M03
G01 X49.4 Y8.4 F4000
M05
G00 X50.7 Y8.4
M03
G01 X51.9 Y8.4 F4000
M05
G00 X55.2 Y8.4
M03
G01 X56.4 Y8.4 F4000
M05
G00 X57.7 Y8.4
M03
G01 X58.4 Y8.4 F4000
M05
G00 X58.6 Y8.4
M03
G01 X59.9 Y8.4 F4000
M05
G00 X60.6 Y8.4
M03
G01 X61.9 Y8.4 F4000
M05
G00 X62.3 Y8.4
M03
G01 X63.2 Y8.4 F4000
M05
G00 X63.9 Y8.4
M03
G01 X65.2 Y8.4 F4000
M05
G00 X66.0 Y8.4
M03
G01 X66.9 Y8.4 F4000
M05
G00 X67.4 Y8.4
M03
G01 X68.1 Y8.4 F4000
M05
G00 X68.4 Y8.4
M03
G01 X69.7 Y8.4 F4000
M05
G00 X71.0 Y8.4
M03
G01 X72.2 Y8.4 F4000
M05
G00 X73.4 Y8.4
M03
G01 X75.5 Y8.4 F4000
M05
G00 X77.4 Y8.4
M03
G01 X78.8 Y8.4 F4000
M05
G00 X80.3 Y8.4
M03
G01 X81.4 Y8.4 F4000
M05
G00 X82.3 Y8.4
M03
G01 X83.3 Y8.4 F4000
M05
G00 X83.8 Y8.4
M03
G01 X87.3 Y8.4 F4000
M05
G00 X93.8 Y8.4
M03
G01 X93.9 Y8.4 F4000
M05
G00 X93.9 Y8.5
M03
G01 X93.8 Y8.5 F4000
M05
G00 X87.3 Y8.5
M03
G01 X83.8 Y8.5 F4000
M05
G00 X83.4 Y8.5
M03
G01 X82.3 Y8.5 F4000
M05
G00 X81.4 Y8.5
M03
G01 X80.3 Y8.5 F4000
M05
G00 X78.8 Y8.5
M03
G01 X77.4 Y8.5 F4000
M05
G00 X75.5 Y8.5
M03
G01 X73.4 Y8.5 F4000
M05
G00 X72.2 Y8.5
M03
G01 X71.0 Y8.5 F4000
M05
G00 X69.7 Y8.5
M03
G01 X68.3 Y8.5 F4000
M05
G00 X68.1 Y8.5
M03
G01 X67.4 Y8.5 F4000
M05
G00 X66.9 Y8.5
M03
G01 X66.1 Y8.5 F4000
M05
G00 X65.2 Y8.5
M03
G01 X63.9 Y8.5 F4000
M05
G00 X63.3 Y8.5
M03
G01 X62.4 Y8.5 F4000
M05
G00 X61.9 Y8.5
M03
G01 X60.6 Y8.5 F4000
M05
G00 X59.9 Y8.5
M03
G01 X58.6 Y8.5 F4000
M05
G00 X58.4 Y8.5
M03
G01 X57.7 Y8.5 F4000
M05
G00 X56.4 Y8.5
M03
G01 X55.2 Y8.5 F4000
M05
G00 X51.9 Y8.5
M03
G01 X50.7 Y8.5 F4000
M05
G00 X49.4 Y8.5
M03
G01 X48.6 Y8.5 F4000
M05
G00 X48.1 Y8.5
M03
G01 X46.7 Y8.5 F4000
M05
G00 X46.1 Y8.5
M03
G01 X44.7 Y8.5 F4000
M05
G00 X44.5 Y8.5
M03
G01 X43.8 Y8.5 F4000
M05
G00 X42.5 Y8.5
M03
G01 X41.2 Y8.5 F4000
M05
G00 X40.6 Y8.5
M03
G01 X38.4 Y8.5 F4000
M05
G00 X38.0 Y8.5
M03
G01 X37.2 Y8.5 F4000
M05
G00 X36.4 Y8.5
M03
G01 X35.0 Y8.5 F4000
M05
G00 X34.6 Y8.5
M03
G01 X33.6 Y8.5 F4000
M05
G00 X32.6 Y8.5
M03
G01 X31.6 Y8.5 F4000
M05
G00 X31.1 Y8.5
M03
G01 X27.6 Y8.5 F4000
M05
G00 X19.8 Y8.5
M03
G01 X19.6 Y8.5 F4000
M05
G00 X8.5 Y8.5
M03
G01 X8.3 Y8.5 F4000
M05
G00 X3.6 Y8.5
M03
G01 X3.4 Y8.5 F4000
M05
G00 X3.4 Y8.6
M03
G01 X3.5 Y8.6 F4000
M05
G00 X8.2 Y8.6
M03
G01 X8.4 Y8.6 F4000
M05
G00 X19.7 Y8.6
M03
G01 X19.9 Y8.6 F4000
M05
G00 X27.6 Y8.6
M03
G01 X31.1 Y8.6 F4000
M05
G00 X31.5 Y8.6
M03
G01 X32.6 Y8.6 F4000
M05
G00 X33.6 Y8.6
M03
G01 X34.6 Y8.6 F4000
M05
G00 X35.0 Y8.6
M03
G01 X36.4 Y8.6 F4000
M05
G00 X37.2 Y8.6
M03
G01 X38.0 Y8.6 F4000
M05
G00 X38.4 Y8.6
M03
G01 X40.6 Y8.6 F4000
M05
G00 X41.1 Y8.6
M03
G01 X42.5 Y8.6 F4000
M05
G00 X43.8 Y8.6
M03
G01 X46.0 Y8.6 F4000
M05
G00 X46.7 Y8.6
M03
G01 X48.1 Y8.6 F4000
M05
G00 X48.6 Y8.6
M03
G01 X49.5 Y8.6 F4000
M05
G00 X50.7 Y8.6
M03
G01 X51.9 Y8.6 F4000
M05
G00 X55.2 Y8.6
M03
G01 X56.4 Y8.6 F4000
M05
G00 X57.7 Y8.6
M03
G01 X58.4 Y8.6 F4000
M05
G00 X58.6 Y8.6
M03
G01 X59.9 Y8.6 F4000
M05
G00 X60.6 Y8.6
M03
G01 X61.9 Y8.6 F4000
M05
G00 X62.5 Y8.6
M03
G01 X63.3 Y8.6 F4000
M05
G00 X63.9 Y8.6
M03
G01 X65.2 Y8.6 F4000
M05
G00 X66.1 Y8.6
M03
G01 X66.9 Y8.6 F4000
M05
G00 X67.5 Y8.6
M03
G01 X69.7 Y8.6 F4000
M05
G00 X71.0 Y8.6
M03
G01 X72.2 Y8.6 F4000
M05
G00 X73.4 Y8.6
M03
G01 X75.5 Y8.6 F4000
M05
G00 X77.4 Y8.6
M03
G01 X78.8 Y8.6 F4000
M05
G00 X80.3 Y8.6
M03
G01 X81.4 Y8.6 F4000
M05
G00 X82.3 Y8.6
M03
G01 X83.4 Y8.6 F4000
M05
G00 X83.8 Y8.6
M03
G01 X87.3 Y8.6 F4000
M05
G00 X93.8 Y8.6
M03
G01 X93.9 Y8.6 F4000
M05
G00 X93.9 Y8.7
M03
G01 X93.8 Y8.7 F4000
M05
G00 X87.3 Y8.7
M03
G01 X83.8 Y8.7 F4000
M05
G00 X83.4 Y8.7
M03
G01 X82.3 Y8.7 F4000
M05
G00 X81.4 Y8.7
M03
G01 X80.3 Y8.7 F4000
M05
G00 X78.8 Y8.7
M03
G01 X77.4 Y8.7 F4000
M05
G00 X75.5 Y8.7
M03
G01 X73.3 Y8.7 F4000
M05
G00 X72.2 Y8.7
M03
G01 X71.0 Y8.7 F4000
M05
G00 X69.6 Y8.7
M03
G01 X67.5 Y8.7 F4000
M05
G00 X66.9 Y8.7
M03
G01 X66.0 Y8.7 F4000
M05
G00 X65.2 Y8.7
M03
G01 X63.9 Y8.7 F4000
M05
G00 X63.4 Y8.7
M03
G01 X62.5 Y8.7 F4000
M05
G00 X61.9 Y8.7
M03
G01 X60.6 Y8.7 F4000
M05
G00 X59.9 Y8.7
M03
G01 X57.7 Y8.7 F4000
M05
G00 X56.4 Y8.7
M03
G01 X55.2 Y8.7 F4000
M05
G00 X51.9 Y8.7
M03
G01 X50.7 Y8.7 F4000
M05
G00 X49.5 Y8.7
M03
G01 X48.7 Y8.7 F4000
M05
G00 X48.1 Y8.7
M03
G01 X46.7 Y8.7 F4000
M05
G00 X46.0 Y8.7
M03
G01 X43.9 Y8.7 F4000
M05
G00 X42.5 Y8.7
M03
G01 X41.1 Y8.7 F4000
M05
G00 X40.6 Y8.7
M03
G01 X38.4 Y8.7 F4000
M05
G00 X38.0 Y8.7
M03
G01 X37.2 Y8.7 F4000
M05
G00 X36.4 Y8.7
M03
G01 X35.0 Y8.7 F4000
M05
G00 X34.6 Y8.7
M03
G01 X33.6 Y8.7 F4000
M05
G00 X32.6 Y8.7
M03
G01 X31.5 Y8.7 F4000
M05
G00 X31.1 Y8.7
M03
G01 X27.6 Y8.7 F4000
M05
G00 X20.0 Y8.7
M03
G01 X19.8 Y8.7 F4000
M05
G00 X8.3 Y8.7
M03
G01 X8.1 Y8.7 F4000
M05
G00 X3.5 Y8.7
M03
G01 X3.3 Y8.7 F4000
M05
G00 X3.3 Y8.8
M03
G01 X3.4 Y8.8 F4000
M05
G00 X8.0 Y8.8
M03
G01 X8.2 Y8.8 F4000
M05
G00 X19.9 Y8.8
M03
G01 X20.1 Y8.8 F4000
M05
G00 X27.6 Y8.8
M03
G01 X31.1 Y8.8 F4000
M05
G00 X31.5 Y8.8
M03
G01 X32.6 Y8.8 F4000
M05
G00 X33.6 Y8.8
M03
G01 X34.6 Y8.8 F4000
M05
G00 X35.0 Y8.8
M03
G01 X36.4 Y8.8 F4000
M05
G00 X37.2 Y8.8
M03
G01 X38.0 Y8.8 F4000
M05
G00 X38.4 Y8.8
M03
G01 X40.6 Y8.8 F4000
M05
G00 X41.1 Y8.8
M03
G01 X42.5 Y8.8 F4000
M05
G00 X43.9 Y8.8
M03
G01 X46.0 Y8.8 F4000
M05
G00 X46.7 Y8.8
M03
G01 X48.1 Y8.8 F4000
M05
G00 X48.7 Y8.8
M03
G01 X49.5 Y8.8 F4000
M05
G00 X50.7 Y8.8
M03
G01 X51.9 Y8.8 F4000
M05
G00 X55.2 Y8.8
M03
G01 X56.4 Y8.8 F4000
M05
G00 X57.7 Y8.8
M03
G01 X59.9 Y8.8 F4000
M05
G00 X60.6 Y8.8
M03
G01 X61.9 Y8.8 F4000
M05
G00 X62.6 Y8.8
M03
G01 X63.4 Y8.8 F4000
M05
G00 X63.9 Y8.8
M03
G01 X65.2 Y8.8 F4000
M05
G00 X66.0 Y8.8
M03
G01 X66.9 Y8.8 F4000
M05
G00 X67.5 Y8.8
M03
G01 X69.6 Y8.8 F4000
M05
G00 X71.0 Y8.8
M03
G01 X72.2 Y8.8 F4000
M05
G00 X73.3 Y8.8
M03
G01 X75.5 Y8.8 F4000
M05
G00 X77.4 Y8.8
M03
G01 X78.8 Y8.8 F4000
M05
G00 X80.3 Y8.8
M03
G01 X81.4 Y8.8 F4000
M05
G00 X82.3 Y8.8
M03
G01 X83.4 Y8.8 F4000
M05
G00 X83.8 Y8.8
M03
G01 X87.3 Y8.8 F4000
M05
G00 X93.8 Y8.8
M03
G01 X93.9 Y8.8 F4000
M05
G00 X93.9 Y8.9
M03
G01 X93.8 Y8.9 F4000
M05
G00 X87.3 Y8.9
M03
G01 X83.8 Y8.9 F4000
M05
G00 X83.4 Y8.9
M03
G01 X82.3 Y8.9 F4000
M05
G00 X81.4 Y8.9
M03
G01 X80.3 Y8.9 F4000
M05
G00 X78.9 Y8.9
M03
G01 X77.4 Y8.9 F4000
M05
G00 X75.5 Y8.9
M03
G01 X73.3 Y8.9 F4000
M05
G00 X72.2 Y8.9
M03
G01 X71.0 Y8.9 F4000
M05
G00 X69.6 Y8.9
M03
G01 X67.5 Y8.9 F4000
M05
G00 X66.9 Y8.9
M03
G01 X66.0 Y8.9 F4000
M05
G00 X65.2 Y8.9
M03
G01 X63.9 Y8.9 F4000
M05
G00 X63.4 Y8.9
M03
G01 X62.6 Y8.9 F4000
M05
G00 X61.9 Y8.9
M03
G01 X60.6 Y8.9 F4000
M05
G00 X59.9 Y8.9
M03
G01 X57.8 Y8.9 F4000
M05
G00 X56.4 Y8.9
M03
G01 X55.2 Y8.9 F4000
M05
G00 X51.9 Y8.9
M03
G01 X50.7 Y8.9 F4000
M05
G00 X49.6 Y8.9
M03
G01 X48.7 Y8.9 F4000
M05
G00 X48.1 Y8.9
M03
G01 X46.7 Y8.9 F4000
M05
G00 X46.0 Y8.9
M03
G01 X43.9 Y8.9 F4000
M05
G00 X42.5 Y8.9
M03
G01 X41.1 Y8.9 F4000
M05
G00 X40.6 Y8.9
M03
G01 X38.4 Y8.9 F4000
M05
G00 X38.0 Y8.9
M03
G01 X37.1 Y8.9 F4000
M05
G00 X36.4 Y8.9
M03
G01 X35.0 Y8.9 F4000
M05
G00 X34.6 Y8.9
M03
G01 X33.6 Y8.9 F4000
M05
G00 X32.6 Y8.9
M03
G01 X31.5 Y8.9 F4000
M05
G00 X31.1 Y8.9
M03
G01 X27.6 Y8.9 F4000
M05
G00 X20.2 Y8.9
M03
G01 X20.0 Y8.9 F4000
M05
G00 X8.1 Y8.9
M03
G01 X7.9 Y8.9 F4000
M05
G00 X3.4 Y8.9
M03
G01 X3.2 Y8.9 F4000
M05
G00 X3.2 Y9.0
M03
G01 X3.4 Y9.0 F4000
M05
G00 X7.8 Y9.0
M03
G01 X8.0 Y9.0 F4000
M05
G00 X20.1 Y9.0
M03
G01 X20.3 Y9.0 F4000
M05
G00 X27.6 Y9.0
M03
G01 X31.1 Y9.0 F4000
M05
G00 X31.5 Y9.0
M03
G01 X32.6 Y9.0 F4000
M05
G00 X33.5 Y9.0
M03
G01 X34.6 Y9.0 F4000
M05
G00 X35.0 Y9.0
M03
G01 X36.4 Y9.0 F4000
M05
G00 X37.1 Y9.0
M03
G01 X38.0 Y9.0 F4000
M05
G00 X38.4 Y9.0
M03
G01 X39.8 Y9.0 F4000
M05
G00 X41.1 Y9.0
M03
G01 X42.5 Y9.0 F4000
M05
G00 X43.9 Y9.0
M03
G01 X46.0 Y9.0 F4000
M05
G00 X46.7 Y9.0
M03
G01 X48.1 Y9.0 F4000
M05
G00 X48.7 Y9.0
M03
G01 X49.6 Y9.0 F4000
M05
G00 X50.7 Y9.0
M03
G01 X51.9 Y9.0 F4000
M05
G00 X55.2 Y9.0
M03
G01 X56.4 Y9.0 F4000
M05
G00 X57.8 Y9.0
M03
G01 X59.8 Y9.0 F4000
M05
G00 X60.6 Y9.0
M03
G01 X61.9 Y9.0 F4000
M05
G00 X62.6 Y9.0
M03
G01 X63.5 Y9.0 F4000
M05
G00 X63.9 Y9.0
M03
G01 X65.2 Y9.0 F4000
M05
G00 X66.0 Y9.0
M03
G01 X66.9 Y9.0 F4000
M05
G00 X67.5 Y9.0
M03
G01 X69.6 Y9.0 F4000
M05
G00 X71.0 Y9.0
M03
G01 X72.2 Y9.0 F4000
M05
G00 X73.3 Y9.0
M03
G01 X74.7 Y9.0 F4000
M05
G00 X77.4 Y9.0
M03
G01 X78.9 Y9.0 F4000
M05
G00 X80.3 Y9.0
M03
G01 X81.4 Y9.0 F4000
M05
G00 X82.3 Y9.0
M03
G01 X83.4 Y9.0 F4000
M05
G00 X83.8 Y9.0
M03
G01 X87.3 Y9.0 F4000
M05
G00 X93.8 Y9.0
M03
G01 X93.9 Y9.0 F4000
M05
G00 X93.9 Y9.1
M03
G01 X93.8 Y9.1 F4000
M05
G00 X87.3 Y9.1
M03
G01 X83.8 Y9.1 F4000
M05
G00 X83.4 Y9.1
M03
G01 X82.3 Y9.1 F4000
M05
G00 X81.4 Y9.1
M03
G01 X80.3 Y9.1 F4000
M05
G00 X78.9 Y9.1
M03
G01 X77.4 Y9.1 F4000
M05
G00 X74.7 Y9.1
M03
G01 X73.3 Y9.1 F4000
M05
G00 X72.2 Y9.1
M03
G01 X70.9 Y9.1 F4000
M05
G00 X69.6 Y9.1
M03
G01 X67.5 Y9.1 F4000
M05
G00 X66.9 Y9.1
M03
G01 X66.0 Y9.1 F4000
M05
G00 X65.2 Y9.1
M03
G01 X63.9 Y9.1 F4000
M05
G00 X63.5 Y9.1
M03
G01 X62.6 Y9.1 F4000
M05
G00 X61.9 Y9.1
M03
G01 X60.5 Y9.1 F4000
M05
G00 X59.8 Y9.1
M03
G01 X57.8 Y9.1 F4000
M05
G00 X56.4 Y9.1
M03
G01 X55.2 Y9.1 F4000
M05
G00 X51.9 Y9.1
M03
G01 X50.7 Y9.1 F4000
M05
G00 X49.6 Y9.1
M03
G01 X48.7 Y9.1 F4000
M05
G00 X48.1 Y9.1
M03
G01 X46.7 Y9.1 F4000
M05
G00 X46.0 Y9.1
M03
G01 X43.9 Y9.1 F4000
M05
G00 X42.5 Y9.1
M03
G01 X41.1 Y9.1 F4000
M05
G00 X39.8 Y9.1
M03
G01 X38.4 Y9.1 F4000
M05
G00 X38.0 Y9.1
M03
G01 X37.1 Y9.1 F4000
M05
G00 X36.4 Y9.1
M03
G01 X35.0 Y9.1 F4000
M05
G00 X34.6 Y9.1
M03
G01 X33.5 Y9.1 F4000
M05
G00 X32.7 Y9.1
M03
G01 X31.5 Y9.1 F4000
M05
G00 X31.1 Y9.1
M03
G01 X27.6 Y9.1 F4000
M05
G00 X20.4 Y9.1
M03
G01 X20.2 Y9.1 F4000
M05
G00 X7.9 Y9.1
M03
G01 X7.7 Y9.1 F4000
M05
G00 X3.3 Y9.1
M03
G01 X3.2 Y9.1 F4000
M05
G00 X3.1 Y9.2
M03
G01 X3.3 Y9.2 F4000
M05
G00 X7.6 Y9.2
M03
G01 X7.8 Y9.2 F4000
M05
G00 X20.3 Y9.2
M03
G01 X20.5 Y9.2 F4000
M05
G00 X27.6 Y9.2
M03
G01 X31.1 Y9.2 F4000
M05
G00 X31.5 Y9.2
M03
G01 X32.7 Y9.2 F4000
M05
G00 X33.5 Y9.2
M03
G01 X34.6 Y9.2 F4000
M05
G00 X35.0 Y9.2
M03
G01 X36.4 Y9.2 F4000
M05
G00 X37.0 Y9.2
M03
G01 X38.0 Y9.2 F4000
M05
G00 X38.4 Y9.2
M03
G01 X39.8 Y9.2 F4000
M05
G00 X41.1 Y9.2
M03
G01 X42.5 Y9.2 F4000
M05
G00 X43.9 Y9.2
M03
G01 X45.9 Y9.2 F4000
M05
G00 X46.7 Y9.2
M03
G01 X48.1 Y9.2 F4000
M05
G00 X48.7 Y9.2
M03
G01 X49.6 Y9.2 F4000
M05
G00 X50.7 Y9.2
M03
G01 X51.9 Y9.2 F4000
M05
G00 X55.2 Y9.2
M03
G01 X56.4 Y9.2 F4000
M05
G00 X57.8 Y9.2
M03
G01 X59.8 Y9.2 F4000
M05
G00 X60.5 Y9.2
M03
G01 X61.9 Y9.2 F4000
M05
G00 X62.5 Y9.2
M03
G01 X63.5 Y9.2 F4000
M05
G00 X63.9 Y9.2
M03
G01 X65.2 Y9.2 F4000
M05
G00 X65.9 Y9.2
M03
G01 X66.9 Y9.2 F4000
M05
G00 X67.6 Y9.2
M03
G01 X69.6 Y9.2 F4000
M05
G00 X70.9 Y9.2
M03
G01 X72.2 Y9.2 F4000
M05
G00 X73.3 Y9.2
M03
G01 X74.7 Y9.2 F4000
M05
G00 X77.4 Y9.2
M03
G01 X79.0 Y9.2 F4000
M05
G00 X80.3 Y9.2
M03
G01 X81.5 Y9.2 F4000
M05
G00 X82.2 Y9.2
M03
G01 X83.4 Y9.2 F4000
M05
G00 X83.8 Y9.2
M03
G01 X87.3 Y9.2 F4000
M05
G00 X93.8 Y9.2
M03
G01 X93.9 Y9.2 F4000
M05
G00 X93.9 Y9.3
M03
G01 X93.8 Y9.3 F4000
M05
G00 X87.3 Y9.3
M03
G01 X83.8 Y9.3 F4000
M05
G00 X83.4 Y9.3
M03
G01 X82.2 Y9.3 F4000
M05
G00 X81.5 Y9.3
M03
G01 X80.3 Y9.3 F4000
M05
G00 X79.1 Y9.3
M03
G01 X77.4 Y9.3 F4000
M05
G00 X74.7 Y9.3
M03
G01 X73.3 Y9.3 F4000
M05
G00 X72.2 Y9.3
M03
G01 X70.9 Y9.3 F4000
M05
G00 X69.5 Y9.3
M03
G01 X67.6 Y9.3 F4000
M05
G00 X66.9 Y9.3
M03
G01 X65.8 Y9.3 F4000
M05
G00 X65.2 Y9.3
M03
G01 X63.9 Y9.3 F4000
M05
G00 X63.5 Y9.3
M03
G01 X62.5 Y9.3 F4000
M05
G00 X61.9 Y9.3
M03
G01 X60.5 Y9.3 F4000
M05
G00 X59.8 Y9.3
M03
G01 X57.8 Y9.3 F4000
M05
G00 X56.4 Y9.3
M03
G01 X55.2 Y9.3 F4000
M05
G00 X51.9 Y9.3
M03
G01 X50.7 Y9.3 F4000
M05
G00 X49.7 Y9.3
M03
G01 X48.6 Y9.3 F4000
M05
G00 X48.1 Y9.3
M03
G01 X46.7 Y9.3 F4000
M05
G00 X45.9 Y9.3
M03
G01 X44.0 Y9.3 F4000
M05
G00 X42.5 Y9.3
M03
G01 X41.1 Y9.3 F4000
M05
G00 X39.8 Y9.3
M03
G01 X38.4 Y9.3 F4000
M05
G00 X38.0 Y9.3
M03
G01 X36.9 Y9.3 F4000
M05
G00 X36.4 Y9.3
M03
G01 X35.0 Y9.3 F4000
M05
G00 X34.6 Y9.3
M03
G01 X33.4 Y9.3 F4000
M05
G00 X32.7 Y9.3
M03
G01 X31.5 Y9.3 F4000
M05
G00 X31.2 Y9.3
M03
G01 X27.6 Y9.3 F4000
M05
G00 X20.6 Y9.3
M03
G01 X20.4 Y9.3 F4000
M05
G00 X7.7 Y9.3
M03
G01 X7.5 Y9.3 F4000
M05
G00 X3.2 Y9.3
M03
G01 X3.1 Y9.3 F4000
M05
G00 X3.0 Y9.4
M03
G01 X3.2 Y9.4 F4000
M05
G00 X7.5 Y9.4
M03
G01 X7.6 Y9.4 F4000
M05
G00 X20.5 Y9.4
M03
G01 X20.6 Y9.4 F4000
M05
G00 X27.6 Y9.4
M03
G01 X31.2 Y9.4 F4000
M05
G00 X31.5 Y9.4
M03
G01 X32.8 Y9.4 F4000
M05
G00 X33.4 Y9.4
M03
G01 X34.6 Y9.4 F4000
M05
G00 X35.0 Y9.4
M03
G01 X36.4 Y9.4 F4000
M05
G00 X36.8 Y9.4
M03
G01 X38.0 Y9.4 F4000
M05
G00 X38.4 Y9.4
M03
G01 X39.8 Y9.4 F4000
M05
G00 X41.1 Y9.4
M03
G01 X42.5 Y9.4 F4000
M05
G00 X44.0 Y9.4
M03
G01 X45.9 Y9.4 F4000
M05
G00 X46.7 Y9.4
M03
G01 X48.1 Y9.4 F4000
M05
G00 X48.5 Y9.4
M03
G01 X49.7 Y9.4 F4000
M05
G00 X50.7 Y9.4
M03
G01 X51.9 Y9.4 F4000
M05
G00 X55.2 Y9.4
M03
G01 X56.4 Y9.4 F4000
M05
G00 X57.8 Y9.4
M03
G01 X59.8 Y9.4 F4000
M05
G00 X60.5 Y9.4
M03
G01 X61.9 Y9.4 F4000
M05
G00 X62.4 Y9.4
M03
G01 X63.5 Y9.4 F4000
M05
G00 X63.9 Y9.4
M03
G01 X65.2 Y9.4 F4000
M05
G00 X65.7 Y9.4
M03
G01 X66.9 Y9.4 F4000
M05
G00 X67.6 Y9.4
M03
G01 X69.5 Y9.4 F4000
M05
G00 X70.9 Y9.4
M03
G01 X72.2 Y9.4 F4000
M05
G00 X73.3 Y9.4
M03
G01 X74.7 Y9.4 F4000
M05
G00 X77.4 Y9.4
M03
G01 X79.2 Y9.4 F4000
M05
G00 X80.3 Y9.4
M03
G01 X81.6 Y9.4 F4000
M05
G00 X82.1 Y9.4
M03
G01 X83.4 Y9.4 F4000
M05
G00 X83.8 Y9.4
M03
G01 X87.3 Y9.4 F4000
M05
G00 X93.8 Y9.4
M03
G01 X93.9 Y9.4 F4000
M05
G00 X93.9 Y9.5
M03
G01 X93.8 Y9.5 F4000
M05
G00 X87.3 Y9.5
M03
G01 X83.8 Y9.5 F4000
M05
G00 X83.4 Y9.5
M03
G01 X80.3 Y9.5 F4000
M05
G00 X79.3 Y9.5
M03
G01 X77.4 Y9.5 F4000
M05
G00 X74.7 Y9.5
M03
G01 X73.3 Y9.5 F4000
M05
G00 X72.2 Y9.5
M03
G01 X70.9 Y9.5 F4000
M05
G00 X69.5 Y9.5
M03
G01 X67.6 Y9.5 F4000
M05
G00 X66.9 Y9.5
M03
G01 X63.9 Y9.5 F4000
M05
G00 X63.5 Y9.5
M03
G01 X60.5 Y9.5 F4000
M05
G00 X59.8 Y9.5
M03
G01 X57.8 Y9.5 F4000
M05
G00 X56.4 Y9.5
M03
G01 X55.1 Y9.5 F4000
M05
G00 X51.9 Y9.5
M03
G01 X50.6 Y9.5 F4000
M05
G00 X49.7 Y9.5
M03
G01 X48.3 Y9.5 F4000
M05
G00 X48.1 Y9.5
M03
G01 X46.7 Y9.5 F4000
M05
G00 X45.9 Y9.5
M03
G01 X44.0 Y9.5 F4000
M05
G00 X42.5 Y9.5
M03
G01 X41.1 Y9.5 F4000
M05
G00 X39.8 Y9.5
M03
G01 X38.4 Y9.5 F4000
M05
G00 X38.0 Y9.5
M03
G01 X35.0 Y9.5 F4000
M05
G00 X34.6 Y9.5
M03
G01 X31.5 Y9.5 F4000
M05
G00 X31.2 Y9.5
M03
G01 X27.6 Y9.5 F4000
M05
G00 X20.7 Y9.5
M03
G01 X20.5 Y9.5 F4000
M05
G00 X7.6 Y9.5
M03
G01 X7.4 Y9.5 F4000
M05
G00 X3.1 Y9.5
M03
G01 X3.0 Y9.5 F4000
M05
G00 X2.9 Y9.6
M03
G01 X3.1 Y9.6 F4000
M05
G00 X7.4 Y9.6
M03
G01 X7.5 Y9.6 F4000
M05
G00 X20.6 Y9.6
M03
G01 X20.7 Y9.6 F4000
M05
G00 X27.6 Y9.6
M03
G01 X31.2 Y9.6 F4000
M05
G00 X31.5 Y9.6
M03
G01 X34.6 Y9.6 F4000
M05
G00 X35.0 Y9.6
M03
G01 X38.0 Y9.6 F4000
M05
G00 X38.4 Y9.6
M03
G01 X40.6 Y9.6 F4000
M05
G00 X41.1 Y9.6
M03
G01 X42.5 Y9.6 F4000
M05
G00 X44.0 Y9.6
M03
G01 X45.9 Y9.6 F4000
M05
G00 X46.7 Y9.6
M03
G01 X49.7 Y9.6 F4000
M05
G00 X49.9 Y9.6
M03
G01 X52.7 Y9.6 F4000
M05
G00 X54.4 Y9.6
M03
G01 X57.2 Y9.6 F4000
M05
G00 X57.9 Y9.6
M03
G01 X59.8 Y9.6 F4000
M05
G00 X60.5 Y9.6
M03
G01 X63.5 Y9.6 F4000
M05
G00 X63.9 Y9.6
M03
G01 X66.9 Y9.6 F4000
M05
G00 X67.6 Y9.6
M03
G01 X69.5 Y9.6 F4000
M05
G00 X70.2 Y9.6
M03
G01 X72.9 Y9.6 F4000
M05
G00 X73.3 Y9.6
M03
G01 X75.5 Y9.6 F4000
M05
G00 X77.4 Y9.6
M03
G01 X80.0 Y9.6 F4000
M05
G00 X80.3 Y9.6
M03
G01 X83.4 Y9.6 F4000
M05
G00 X83.8 Y9.6
M03
G01 X87.3 Y9.6 F4000
M05
G00 X93.8 Y9.6
M03
G01 X93.9 Y9.6 F4000
M05
G00 X93.9 Y9.7
M03
G01 X93.8 Y9.7 F4000
M05
G00 X87.3 Y9.7
M03
G01 X83.8 Y9.7 F4000
M05
G00 X83.4 Y9.7
M03
G01 X80.3 Y9.7 F4000
M05
G00 X80.0 Y9.7
M03
G01 X77.4 Y9.7 F4000
M05
G00 X75.6 Y9.7
M03
G01 X73.3 Y9.7 F4000
M05
G00 X72.9 Y9.7
M03
G01 X70.2 Y9.7 F4000
M05
G00 X69.5 Y9.7
M03
G01 X67.6 Y9.7 F4000
M05
G00 X66.9 Y9.7
M03
G01 X63.9 Y9.7 F4000
M05
G00 X63.5 Y9.7
M03
G01 X60.5 Y9.7 F4000
M05
G00 X59.7 Y9.7
M03
G01 X57.9 Y9.7 F4000
M05
G00 X57.2 Y9.7
M03
G01 X54.4 Y9.7 F4000
M05
G00 X52.7 Y9.7
M03
G01 X49.9 Y9.7 F4000
M05
G00 X49.7 Y9.7
M03
G01 X46.7 Y9.7 F4000
M05
G00 X45.9 Y9.7
M03
G01 X44.0 Y9.7 F4000
M05
G00 X42.5 Y9.7
M03
G01 X41.1 Y9.7 F4000
M05
G00 X40.6 Y9.7
M03
G01 X38.4 Y9.7 F4000
M05
G00 X38.0 Y9.7
M03
G01 X35.0 Y9.7 F4000
M05
G00 X34.6 Y9.7
M03
G01 X31.5 Y9.7 F4000
M05
G00 X31.2 Y9.7
M03
G01 X27.6 Y9.7 F4000
M05
G00 X20.8 Y9.7
M03
G01 X20.6 Y9.7 F4000
M05
G00 X7.5 Y9.7
M03
G01 X7.3 Y9.7 F4000
M05
G00 X3.1 Y9.7
M03
G01 X2.9 Y9.7 F4000
M05
G00 X2.9 Y9.8
M03
G01 X3.0 Y9.8 F4000
M05
G00 X7.2 Y9.8
M03
G01 X7.4 Y9.8 F4000
M05
G00 X20.7 Y9.8
M03
G01 X20.8 Y9.8 F4000
M05
G00 X27.6 Y9.8
M03
G01 X31.2 Y9.8 F4000
M05
G00 X31.6 Y9.8
M03
G01 X34.6 Y9.8 F4000
M05
G00 X35.0 Y9.8
M03
G01 X38.0 Y9.8 F4000
M05
G00 X38.4 Y9.8
M03
G01 X40.6 Y9.8 F4000
M05
G00 X41.1 Y9.8
M03
G01 X42.5 Y9.8 F4000
M05
G00 X44.0 Y9.8
M03
G01 X45.9 Y9.8 F4000
M05
G00 X46.7 Y9.8
M03
G01 X49.7 Y9.8 F4000
M05
G00 X49.9 Y9.8
M03
G01 X52.7 Y9.8 F4000
M05
G00 X54.4 Y9.8
M03
G01 X57.2 Y9.8 F4000
M05
G00 X57.9 Y9.8
M03
G01 X59.7 Y9.8 F4000
M05
G00 X60.5 Y9.8
M03
G01 X63.5 Y9.8 F4000
M05
G00 X63.9 Y9.8
M03
G01 X66.9 Y9.8 F4000
M05
G00 X67.6 Y9.8
M03
G01 X69.5 Y9.8 F4000
M05
G00 X70.2 Y9.8
M03
G01 X72.9 Y9.8 F4000
M05
G00 X73.3 Y9.8
M03
G01 X75.6 Y9.8 F4000
M05
G00 X77.5 Y9.8
M03
G01 X80.0 Y9.8 F4000
M05
G00 X80.3 Y9.8
M03
G01 X83.3 Y9.8 F4000
M05
G00 X83.8 Y9.8
M03
G01 X87.3 Y9.8 F4000
M05
G00 X93.8 Y9.8
M03
G01 X93.9 Y9.8 F4000
M05
G00 X93.9 Y9.9
M03
G01 X93.8 Y9.9 F4000
M05
G00 X87.3 Y9.9
M03
G01 X83.7 Y9.9 F4000
M05
G00 X83.3 Y9.9
M03
G01 X80.3 Y9.9 F4000
M05
G00 X80.0 Y9.9
M03
G01 X77.5 Y9.9 F4000
M05
G00 X75.6 Y9.9
M03
G01 X73.3 Y9.9 F4000
M05
G00 X73.0 Y9.9
M03
G01 X70.2 Y9.9 F4000
M05
G00 X69.5 Y9.9
M03
G01 X67.6 Y9.9 F4000
M05
G00 X66.9 Y9.9
M03
G01 X63.9 Y9.9 F4000
M05
G00 X63.5 Y9.9
M03
G01 X60.5 Y9.9 F4000
M05
G00 X59.7 Y9.9
M03
G01 X57.9 Y9.9 F4000
M05
G00 X57.2 Y9.9
M03
G01 X54.4 Y9.9 F4000
M05
G00 X52.7 Y9.9
M03
G01 X49.9 Y9.9 F4000
M05
G00 X49.7 Y9.9
M03
G01 X46.7 Y9.9 F4000
M05
G00 X45.9 Y9.9
M03
G01 X44.0 Y9.9 F4000
M05
G00 X42.5 Y9.9
M03
G01 X41.1 Y9.9 F4000
M05
G00 X40.6 Y9.9
M03
G01 X38.4 Y9.9 F4000
M05
G00 X38.0 Y9.9
M03
G01 X35.0 Y9.9 F4000
M05
G00 X34.6 Y9.9
M03
G01 X31.6 Y9.9 F4000
M05
G00 X31.2 Y9.9
M03
G01 X27.6 Y9.9 F4000
M05
G00 X20.9 Y9.9
M03
G01 X20.7 Y9.9 F4000
M05
G00 X7.4 Y9.9
M03
G01 X7.2 Y9.9 F4000
M05
G00 X3.0 Y9.9
M03
G01 X2.8 Y9.9 F4000
M05
G00 X2.8 Y10.0
M03
G01 X2.9 Y10.0 F4000
M05
G00 X7.1 Y10.0
M03
G01 X7.3 Y10.0 F4000
M05
G00 X20.8 Y10.0
M03
G01 X20.9 Y10.0 F4000
M05
G00 X27.6 Y10.0
M03
G01 X29.3 Y10.0 F4000
M05
G00 X29.5 Y10.0
M03
G01 X31.2 Y10.0 F4000
M05
G00 X31.6 Y10.0
M03
G01 X34.6 Y10.0 F4000
M05
G00 X35.0 Y10.0
M03
G01 X37.9 Y10.0 F4000
M05
G00 X38.4 Y10.0
M03
G01 X40.6 Y10.0 F4000
M05
G00 X41.1 Y10.0
M03
G01 X42.5 Y10.0 F4000
M05
G00 X44.1 Y10.0
M03
G01 X45.8 Y10.0 F4000
M05
G00 X46.7 Y10.0
M03
G01 X49.7 Y10.0 F4000
M05
G00 X49.9 Y10.0
M03
G01 X52.7 Y10.0 F4000
M05
G00 X54.4 Y10.0
M03
G01 X57.2 Y10.0 F4000
M05
G00 X57.9 Y10.0
M03
G01 X59.7 Y10.0 F4000
M05
G00 X60.5 Y10.0
M03
G01 X63.5 Y10.0 F4000
M05
G00 X63.9 Y10.0
M03
G01 X66.8 Y10.0 F4000
M05
G00 X67.7 Y10.0
M03
G01 X69.4 Y10.0 F4000
M05
G00 X70.2 Y10.0
M03
G01 X73.0 Y10.0 F4000
M05
G00 X73.3 Y10.0
M03
G01 X75.6 Y10.0 F4000
M05
G00 X77.5 Y10.0
M03
G01 X80.0 Y10.0 F4000
M05
G00 X80.3 Y10.0
M03
G01 X83.3 Y10.0 F4000
M05
G00 X83.7 Y10.0
M03
G01 X85.5 Y10.0 F4000
M05
G00 X85.7 Y10.0
M03
G01 X87.3 Y10.0 F4000
M05
G00 X93.8 Y10.0
M03
G01 X93.9 Y10.0 F4000
M05
G00 X93.9 Y10.1
M03
G01 X93.8 Y10.1 F4000
M05
G00 X87.3 Y10.1
M03
G01 X85.7 Y10.1 F4000
M05
G00 X85.5 Y10.1
M03
G01 X83.7 Y10.1 F4000
M05
G00 X83.3 Y10.1
M03
G01 X80.4 Y10.1 F4000
M05
G00 X80.0 Y10.1
M03
G01 X77.5 Y10.1 F4000
M05
G00 X75.6 Y10.1
M03
G01 X73.3 Y10.1 F4000
M05
G00 X73.0 Y10.1
M03
G01 X70.2 Y10.1 F4000
M05
G00 X69.4 Y10.1
M03
G01 X67.7 Y10.1 F4000
M05
G00 X66.8 Y10.1
M03
G01 X63.8 Y10.1 F4000
M05
G00 X63.5 Y10.1
M03
G01 X60.5 Y10.1 F4000
M05
G00 X59.7 Y10.1
M03
G01 X57.9 Y10.1 F4000
M05
G00 X57.2 Y10.1
M03
G01 X54.4 Y10.1 F4000
M05
G00 X52.7 Y10.1
M03
G01 X49.9 Y10.1 F4000
M05
G00 X49.7 Y10.1
M03
G01 X46.7 Y10.1 F4000
M05
G00 X45.8 Y10.1
M03
G01 X44.1 Y10.1 F4000
M05
G00 X42.5 Y10.1
M03
G01 X41.1 Y10.1 F4000
M05
G00 X40.7 Y10.1
M03
G01 X38.4 Y10.1 F4000
M05
G00 X37.9 Y10.1
M03
G01 X35.0 Y10.1 F4000
M05
G00 X34.5 Y10.1
M03
G01 X31.6 Y10.1 F4000
M05
G00 X31.2 Y10.1
M03
G01 X29.5 Y10.1 F4000
M05
G00 X29.3 Y10.1
M03
G01 X27.6 Y10.1 F4000
M05
G00 X21.0 Y10.1
M03
G01 X20.8 Y10.1 F4000
M05
G00 X7.3 Y10.1
M03
G01 X7.1 Y10.1 F4000
M05
G00 X2.9 Y10.1
M03
G01 X2.7 Y10.1 F4000
M05
G00 X2.7 Y10.2
M03
G01 X2.9 Y10.2 F4000
M05
G00 X7.0 Y10.2
M03
G01 X7.2 Y10.2 F4000
M05
G00 X20.9 Y10.2
M03
G01 X21.1 Y10.2 F4000
M05
G00 X27.6 Y10.2
M03
G01 X29.3 Y10.2 F4000
M05
G00 X29.6 Y10.2
M03
G01 X31.2 Y10.2 F4000
M05
G00 X31.6 Y10.2
M03
G01 X34.5 Y10.2 F4000
M05
G00 X35.0 Y10.2
M03
G01 X37.9 Y10.2 F4000
M05
G00 X38.4 Y10.2
M03
G01 X40.7 Y10.2 F4000
M05
G00 X41.1 Y10.2
M03
G01 X42.5 Y10.2 F4000
M05
G00 X44.1 Y10.2
M03
G01 X45.8 Y10.2 F4000
M05
G00 X46.6 Y10.2
M03
G01 X49.7 Y10.2 F4000
M05
G00 X49.9 Y10.2
M03
G01 X52.7 Y10.2 F4000
M05
G00 X54.4 Y10.2
M03
G01 X57.2 Y10.2 F4000
M05
G00 X57.9 Y10.2
M03
G01 X59.7 Y10.2 F4000
M05
G00 X60.5 Y10.2
M03
G01 X63.5 Y10.2 F4000
M05
G00 X63.8 Y10.2
M03
G01 X66.8 Y10.2 F4000
M05
G00 X67.7 Y10.2
M03
G01 X69.4 Y10.2 F4000
M05
G00 X70.2 Y10.2
M03
G01 X73.0 Y10.2 F4000
M05
G00 X73.3 Y10.2
M03
G01 X75.6 Y10.2 F4000
M05
G00 X77.5 Y10.2
M03
G01 X80.0 Y10.2 F4000
M05
G00 X80.4 Y10.2
M03
G01 X83.3 Y10.2 F4000
M05
G00 X83.7 Y10.2
M03
G01 X85.4 Y10.2 F4000
M05
G00 X85.7 Y10.2
M03
G01 X87.3 Y10.2 F4000
M05
G00 X93.8 Y10.2
M03
G01 X93.9 Y10.2 F4000
M05
G00 X93.9 Y10.3
M03
G01 X93.8 Y10.3 F4000
M05
G00 X87.3 Y10.3
M03
G01 X85.8 Y10.3 F4000
M05
G00 X85.4 Y10.3
M03
G01 X83.7 Y10.3 F4000
M05
G00 X83.3 Y10.3
M03
G01 X80.4 Y10.3 F4000
M05
G00 X80.0 Y10.3
M03
G01 X77.6 Y10.3 F4000
M05
G00 X75.6 Y10.3
M03
G01 X73.3 Y10.3 F4000
M05
G00 X73.0 Y10.3
M03
G01 X70.2 Y10.3 F4000
M05
G00 X69.4 Y10.3
M03
G01 X67.7 Y10.3 F4000
M05
G00 X66.8 Y10.3
M03
G01 X63.8 Y10.3 F4000
M05
G00 X63.5 Y10.3
M03
G01 X60.5 Y10.3 F4000
M05
G00 X59.7 Y10.3
M03
G01 X58.0 Y10.3 F4000
M05
G00 X57.2 Y10.3
M03
G01 X54.4 Y10.3 F4000
M05
G00 X52.7 Y10.3
M03
G01 X49.9 Y10.3 F4000
M05
G00 X49.6 Y10.3
M03
G01 X46.6 Y10.3 F4000
M05
G00 X45.8 Y10.3
M03
G01 X44.1 Y10.3 F4000
M05
G00 X42.5 Y10.3
M03
G01 X41.1 Y10.3 F4000
M05
G00 X40.7 Y10.3
M03
G01 X38.4 Y10.3 F4000
M05
G00 X37.9 Y10.3
M03
G01 X35.0 Y10.3 F4000
M05
G00 X34.5 Y10.3
M03
G01 X31.6 Y10.3 F4000
M05
G00 X31.2 Y10.3
M03
G01 X29.6 Y10.3 F4000
M05
G00 X29.2 Y10.3
M03
G01 X27.6 Y10.3 F4000
M05
G00 X21.1 Y10.3
M03
G01 X20.9 Y10.3 F4000
M05
G00 X7.2 Y10.3
M03
G01 X7.0 Y10.3 F4000
M05
G00 X2.8 Y10.3
M03
G01 X2.7 Y10.3 F4000
M05
G00 X2.6 Y10.4
M03
G01 X2.8 Y10.4 F4000
M05
G00 X6.9 Y10.4
M03
G01 X7.1 Y10.4 F4000
M05
G00 X21.0 Y10.4
M03
G01 X21.2 Y10.4 F4000
M05
G00 X27.6 Y10.4
M03
G01 X29.2 Y10.4 F4000
M05
G00 X29.6 Y10.4
M03
G01 X31.2 Y10.4 F4000
M05
G00 X31.7 Y10.4
M03
G01 X34.5 Y10.4 F4000
M05
G00 X35.0 Y10.4
M03
G01 X37.8 Y10.4 F4000
M05
G00 X38.4 Y10.4
M03
G01 X40.7 Y10.4 F4000
M05
G00 X41.1 Y10.4
M03
G01 X42.5 Y10.4 F4000
M05
G00 X44.1 Y10.4
M03
G01 X45.8 Y10.4 F4000
M05
G00 X46.6 Y10.4
M03
G01 X49.6 Y10.4 F4000
M05
G00 X49.9 Y10.4
M03
G01 X52.7 Y10.4 F4000
M05
G00 X54.4 Y10.4
M03
G01 X57.2 Y10.4 F4000
M05
G00 X58.0 Y10.4
M03
G01 X59.6 Y10.4 F4000
M05
G00 X60.5 Y10.4
M03
G01 X63.5 Y10.4 F4000
M05
G00 X63.8 Y10.4
M03
G01 X66.7 Y10.4 F4000
M05
G00 X67.7 Y10.4
M03
G01 X69.4 Y10.4 F4000
M05
G00 X70.2 Y10.4
M03
G01 X73.0 Y10.4 F4000
M05
G00 X73.3 Y10.4
M03
G01 X75.6 Y10.4 F4000
M05
G00 X77.6 Y10.4
M03
G01 X80.0 Y10.4 F4000
M05
G00 X80.4 Y10.4
M03
G01 X83.2 Y10.4 F4000
M05
G00 X83.7 Y10.4
M03
G01 X85.3 Y10.4 F4000
M05
G00 X85.8 Y10.4
M03
G01 X87.4 Y10.4 F4000
M05
G00 X93.8 Y10.4
M03
G01 X93.9 Y10.4 F4000
M05
G00 X93.9 Y10.5
M03
G01 X93.8 Y10.5 F4000
M05
G00 X87.4 Y10.5
M03
G01 X85.8 Y10.5 F4000
M05
G00 X85.3 Y10.5
M03
G01 X83.7 Y10.5 F4000
M05
G00 X83.2 Y10.5
M03
G01 X80.4 Y10.5 F4000
M05
G00 X80.0 Y10.5
M03
G01 X77.6 Y10.5 F4000
M05
G00 X75.6 Y10.5
M03
G01 X73.3 Y10.5 F4000
M05
G00 X73.0 Y10.5
M03
G01 X70.2 Y10.5 F4000
M05
G00 X69.4 Y10.5
M03
G01 X67.7 Y10.5 F4000
M05
G00 X66.7 Y10.5
M03
G01 X63.8 Y10.5 F4000
M05
G00 X63.5 Y10.5
M03
G01 X60.5 Y10.5 F4000
M05
G00 X59.6 Y10.5
M03
G01 X58.0 Y10.5 F4000
M05
G00 X57.2 Y10.5
M03
G01 X54.4 Y10.5 F4000
M05
G00 X52.7 Y10.5
M03
G01 X49.9 Y10.5 F4000
M05
G00 X49.6 Y10.5
M03
G01 X46.6 Y10.5 F4000
M05
G00 X45.8 Y10.5
M03
G01 X44.1 Y10.5 F4000
M05
G00 X42.5 Y10.5
M03
G01 X41.1 Y10.5 F4000
M05
G00 X40.7 Y10.5
M03
G01 X38.4 Y10.5 F4000
M05
G00 X37.8 Y10.5
M03
G01 X34.9 Y10.5 F4000
M05
G00 X34.5 Y10.5
M03
G01 X31.7 Y10.5 F4000
M05
G00 X31.2 Y10.5
M03
G01 X29.7 Y10.5 F4000
M05
G00 X29.1 Y10.5
M03
G01 X27.6 Y10.5 F4000
M05
G00 X21.2 Y10.5
M03
G01 X21.0 Y10.5 F4000
M05
G00 X7.1 Y10.5
M03
G01 X6.9 Y10.5 F4000
M05
G00 X2.7 Y10.5
M03
G01 X2.6 Y10.5 F4000
M05
G00 X2.5 Y10.6
M03
G01 X2.7 Y10.6 F4000
M05
G00 X6.8 Y10.6
M03
G01 X7.0 Y10.6 F4000
M05
G00 X21.1 Y10.6
M03
G01 X21.3 Y10.6 F4000
M05
G00 X27.6 Y10.6
M03
G01 X29.1 Y10.6 F4000
M05
G00 X29.7 Y10.6
M03
G01 X31.2 Y10.6 F4000
M05
G00 X31.7 Y10.6
M03
G01 X34.4 Y10.6 F4000
M05
G00 X34.9 Y10.6
M03
G01 X37.8 Y10.6 F4000
M05
G00 X38.4 Y10.6
M03
G01 X40.7 Y10.6 F4000
M05
G00 X41.1 Y10.6
M03
G01 X42.5 Y10.6 F4000
M05
G00 X44.1 Y10.6
M03
G01 X45.8 Y10.6 F4000
M05
G00 X46.6 Y10.6
M03
G01 X49.6 Y10.6 F4000
M05
G00 X49.9 Y10.6
M03
G01 X52.7 Y10.6 F4000
M05
G00 X54.4 Y10.6
M03
G01 X57.2 Y10.6 F4000
M05
G00 X58.0 Y10.6
M03
G01 X59.6 Y10.6 F4000
M05
G00 X60.5 Y10.6
M03
G01 X63.4 Y10.6 F4000
M05
G00 X63.8 Y10.6
M03
G01 X66.6 Y10.6 F4000
M05
G00 X67.7 Y10.6
M03
G01 X69.4 Y10.6 F4000
M05
G00 X70.2 Y10.6
M03
G01 X73.0 Y10.6 F4000
M05
G00 X73.3 Y10.6
M03
G01 X75.6 Y10.6 F4000
M05
G00 X77.7 Y10.6
M03
G01 X80.0 Y10.6 F4000
M05
G00 X80.5 Y10.6
M03
G01 X83.2 Y10.6 F4000
M05
G00 X83.7 Y10.6
M03
G01 X85.3 Y10.6 F4000
M05
G00 X85.9 Y10.6
M03
G01 X87.4 Y10.6 F4000
M05
G00 X93.8 Y10.6
M03
G01 X93.9 Y10.6 F4000
M05
G00 X93.9 Y10.7
M03
G01 X93.8 Y10.7 F4000
M05
G00 X87.4 Y10.7
M03
G01 X85.9 Y10.7 F4000
M05
G00 X85.2 Y10.7
M03
G01 X83.7 Y10.7 F4000
M05
G00 X83.2 Y10.7
M03
G01 X80.5 Y10.7 F4000
M05
G00 X80.0 Y10.7
M03
G01 X77.7 Y10.7 F4000
M05
G00 X75.6 Y10.7
M03
G01 X73.3 Y10.7 F4000
M05
G00 X73.0 Y10.7
M03
G01 X70.2 Y10.7 F4000
M05
G00 X69.3 Y10.7
M03
G01 X67.8 Y10.7 F4000
M05
G00 X66.6 Y10.7
M03
G01 X63.8 Y10.7 F4000
M05
G00 X63.4 Y10.7
M03
G01 X60.5 Y10.7 F4000
M05
G00 X59.6 Y10.7
M03
G01 X58.0 Y10.7 F4000
M05
G00 X57.2 Y10.7
M03
G01 X54.4 Y10.7 F4000
M05
G00 X52.7 Y10.7
M03
G01 X49.9 Y10.7 F4000
M05
G00 X49.5 Y10.7
M03
G01 X46.6 Y10.7 F4000
M05
G00 X45.7 Y10.7
M03
G01 X44.1 Y10.7 F4000
M05
G00 X42.5 Y10.7
M03
G01 X41.1 Y10.7 F4000
M05
G00 X40.7 Y10.7
M03
G01 X38.4 Y10.7 F4000
M05
G00 X37.7 Y10.7
M03
G01 X34.9 Y10.7 F4000
M05
G00 X34.4 Y10.7
M03
G01 X31.7 Y10.7 F4000
M05
G00 X31.2 Y10.7
M03
G01 X29.8 Y10.7 F4000
M05
G00 X29.1 Y10.7
M03
G01 X27.6 Y10.7 F4000
M05
G00 X21.3 Y10.7
M03
G01 X21.1 Y10.7 F4000
M05
G00 X7.0 Y10.7
M03
G01 X6.8 Y10.7 F4000
M05
G00 X2.6 Y10.7
M03
G01 X2.5 Y10.7 F4000
M05
G00 X2.4 Y10.8
M03
G01 X2.6 Y10.8 F4000
M05
G00 X6.7 Y10.8
M03
G01 X6.9 Y10.8 F4000
M05
G00 X21.2 Y10.8
M03
G01 X21.4 Y10.8 F4000
M05
G00 X27.5 Y10.8
M03
G01 X29.0 Y10.8 F4000
M05
G00 X29.8 Y10.8
M03
G01 X31.2 Y10.8 F4000
M05
G00 X31.8 Y10.8
M03
G01 X34.4 Y10.8 F4000
M05
G00 X34.9 Y10.8
M03
G01 X37.7 Y10.8 F4000
M05
G00 X38.4 Y10.8
M03
G01 X40.7 Y10.8 F4000
M05
G00 X41.1 Y10.8
M03
G01 X42.6 Y10.8 F4000
M05
G00 X44.2 Y10.8
M03
G01 X45.7 Y10.8 F4000
M05
G00 X46.6 Y10.8
M03
G01 X49.5 Y10.8 F4000
M05
G00 X49.9 Y10.8
M03
G01 X52.7 Y10.8 F4000
M05
G00 X54.4 Y10.8
M03
G01 X57.2 Y10.8 F4000
M05
G00 X58.0 Y10.8
M03
G01 X59.6 Y10.8 F4000
M05
G00 X60.5 Y10.8
M03
G01 X63.4 Y10.8 F4000
M05
G00 X63.8 Y10.8
M03
G01 X66.5 Y10.8 F4000
M05
G00 X67.8 Y10.8
M03
G01 X69.3 Y10.8 F4000
M05
G00 X70.2 Y10.8
M03
G01 X73.0 Y10.8 F4000
M05
G00 X73.3 Y10.8
M03
G01 X75.6 Y10.8 F4000
M05
G00 X77.8 Y10.8
M03
G01 X80.0 Y10.8 F4000
M05
G00 X80.5 Y10.8
M03
G01 X83.1 Y10.8 F4000
M05
G00 X83.7 Y10.8
M03
G01 X85.2 Y10.8 F4000
M05
G00 X86.0 Y10.8
M03
G01 X87.4 Y10.8 F4000
M05
G00 X93.8 Y10.8
M03
G01 X93.9 Y10.8 F4000
M05
G00 X93.9 Y10.9
M03
G01 X93.8 Y10.9 F4000
M05
G00 X87.4 Y10.9
M03
G01 X86.0 Y10.9 F4000
M05
G00 X85.2 Y10.9
M03
G01 X83.7 Y10.9 F4000
M05
G00 X83.1 Y10.9
M03
G01 X80.6 Y10.9 F4000
M05
G00 X79.9 Y10.9
M03
G01 X77.8 Y10.9 F4000
M05
G00 X75.6 Y10.9
M03
G01 X73.3 Y10.9 F4000
M05
G00 X73.0 Y10.9
M03
G01 X70.2 Y10.9 F4000
M05
G00 X69.3 Y10.9
M03
G01 X67.8 Y10.9 F4000
M05
G00 X66.5 Y10.9
M03
G01 X63.8 Y10.9 F4000
M05
G00 X63.3 Y10.9
M03
G01 X60.5 Y10.9 F4000
M05
G00 X59.6 Y10.9
M03
G01 X58.0 Y10.9 F4000
M05
G00 X57.2 Y10.9
M03
G01 X54.4 Y10.9 F4000
M05
G00 X52.7 Y10.9
M03
G01 X49.9 Y10.9 F4000
M05
G00 X49.5 Y10.9
M03
G01 X46.6 Y10.9 F4000
M05
G00 X45.7 Y10.9
M03
G01 X44.2 Y10.9 F4000
M05
G00 X42.6 Y10.9
M03
G01 X41.1 Y10.9 F4000
M05
G00 X40.7 Y10.9
M03
G01 X38.4 Y10.9 F4000
M05
G00 X37.6 Y10.9
M03
G01 X34.9 Y10.9 F4000
M05
G00 X34.3 Y10.9
M03
G01 X31.8 Y10.9 F4000
M05
G00 X31.2 Y10.9
M03
G01 X29.8 Y10.9 F4000
M05
G00 X29.0 Y10.9
M03
G01 X27.5 Y10.9 F4000
M05
G00 X21.4 Y10.9
M03
G01 X21.2 Y10.9 F4000
M05
G00 X6.9 Y10.9
M03
G01 X6.7 Y10.9 F4000
M05
G00 X2.6 Y10.9
M03
G01 X2.4 Y10.9 F4000
M05
G00 X2.4 Y11.0
M03
G01 X2.5 Y11.0 F4000
M05
G00 X6.6 Y11.0
M03
G01 X6.8 Y11.0 F4000
M05
G00 X21.3 Y11.0
M03
G01 X21.5 Y11.0 F4000
M05
G00 X27.5 Y11.0
M03
G01 X29.0 Y11.0 F4000
M05
G00 X29.9 Y11.0
M03
G01 X31.2 Y11.0 F4000
M05
G00 X31.9 Y11.0
M03
G01 X34.3 Y11.0 F4000
M05
G00 X34.9 Y11.0
M03
G01 X37.5 Y11.0 F4000
M05
G00 X38.4 Y11.0
M03
G01 X40.7 Y11.0 F4000
M05
G00 X41.1 Y11.0
M03
G01 X42.6 Y11.0 F4000
M05
G00 X44.2 Y11.0
M03
G01 X45.7 Y11.0 F4000
M05
G00 X46.6 Y11.0
M03
G01 X49.4 Y11.0 F4000
M05
G00 X49.9 Y11.0
M03
G01 X52.7 Y11.0 F4000
M05
G00 X54.4 Y11.0
M03
G01 X57.2 Y11.0 F4000
M05
G00 X58.0 Y11.0
M03
G01 X59.6 Y11.0 F4000
M05
G00 X60.5 Y11.0
M03
G01 X63.3 Y11.0 F4000
M05
G00 X63.8 Y11.0
M03
G01 X66.4 Y11.0 F4000
M05
G00 X67.8 Y11.0
M03
G01 X69.3 Y11.0 F4000
M05
G00 X70.2 Y11.0
M03
G01 X73.0 Y11.0 F4000
M05
G00 X73.3 Y11.0
M03
G01 X75.6 Y11.0 F4000
M05
G00 X77.9 Y11.0
M03
G01 X79.9 Y11.0 F4000
M05
G00 X80.6 Y11.0
M03
G01 X83.0 Y11.0 F4000
M05
G00 X83.7 Y11.0
M03
G01 X85.1 Y11.0 F4000
M05
G00 X86.0 Y11.0
M03
G01 X87.4 Y11.0 F4000
M05
G00 X93.8 Y11.0
M03
G01 X93.9 Y11.0 F4000
M05
G00 X93.9 Y11.1
M03
G01 X93.8 Y11.1 F4000
M05
G00 X87.4 Y11.1
M03
G01 X86.1 Y11.1 F4000
M05
G00 X85.1 Y11.1
M03
G01 X83.7 Y11.1 F4000
M05
G00 X83.0 Y11.1
M03
G01 X80.7 Y11.1 F4000
M05
G00 X79.9 Y11.1
M03
G01 X78.0 Y11.1 F4000
M05
G00 X75.6 Y11.1
M03
G01 X73.3 Y11.1 F4000
M05
G00 X73.0 Y11.1
M03
G01 X70.2 Y11.1 F4000
M05
G00 X69.3 Y11.1
M03
G01 X67.8 Y11.1 F4000
M05
G00 X66.4 Y11.1
M03
G01 X63.8 Y11.1 F4000
M05
G00 X63.2 Y11.1
M03
G01 X60.5 Y11.1 F4000
M05
G00 X59.5 Y11.1
M03
G01 X58.1 Y11.1 F4000
M05
G00 X57.2 Y11.1
M03
G01 X54.4 Y11.1 F4000
M05
G00 X52.7 Y11.1
M03
G01 X49.9 Y11.1 F4000
M05
G00 X49.3 Y11.1
M03
G01 X46.6 Y11.1 F4000
M05
G00 X45.7 Y11.1
M03
G01 X44.2 Y11.1 F4000
M05
G00 X42.6 Y11.1
M03
G01 X41.1 Y11.1 F4000
M05
G00 X40.7 Y11.1
M03
G01 X38.4 Y11.1 F4000
M05
G00 X37.5 Y11.1
M03
G01 X34.9 Y11.1 F4000
M05
G00 X34.2 Y11.1
M03
G01 X31.9 Y11.1 F4000
M05
G00 X31.2 Y11.1
M03
G01 X29.9 Y11.1 F4000
M05
G00 X28.9 Y11.1
M03
G01 X27.5 Y11.1 F4000
M05
G00 X21.5 Y11.1
M03
G01 X21.3 Y11.1 F4000
M05
G00 X6.8 Y11.1
M03
G01 X6.6 Y11.1 F4000
M05
G00 X2.5 Y11.1
M03
G01 X2.4 Y11.1 F4000
M05
G00 X2.4 Y11.2
M03
G01 X2.5 Y11.2 F4000
M05
G00 X6.5 Y11.2
M03
G01 X6.7 Y11.2 F4000
M05
G00 X21.4 Y11.2
M03
G01 X21.6 Y11.2 F4000
M05
G00 X27.5 Y11.2
M03
G01 X28.9 Y11.2 F4000
M05
G00 X29.9 Y11.2
M03
G01 X31.2 Y11.2 F4000
M05
G00 X32.0 Y11.2
M03
G01 X34.2 Y11.2 F4000
M05
G00 X34.9 Y11.2
M03
G01 X37.4 Y11.2 F4000
M05
G00 X38.3 Y11.2
M03
G01 X40.7 Y11.2 F4000
M05
G00 X41.1 Y11.2
M03
G01 X42.6 Y11.2 F4000
M05
G00 X44.2 Y11.2
M03
G01 X45.7 Y11.2 F4000
M05
G00 X46.6 Y11.2
M03
G01 X49.3 Y11.2 F4000
M05
G00 X49.9 Y11.2
M03
G01 X52.7 Y11.2 F4000
M05
G00 X54.4 Y11.2
M03
G01 X57.2 Y11.2 F4000
M05
G00 X58.1 Y11.2
M03
G01 X59.5 Y11.2 F4000
M05
G00 X60.5 Y11.2
M03
G01 X63.1 Y11.2 F4000
M05
G00 X63.8 Y11.2
M03
G01 X66.3 Y11.2 F4000
M05
G00 X67.8 Y11.2
M03
G01 X69.3 Y11.2 F4000
M05
G00 X70.2 Y11.2
M03
G01 X73.0 Y11.2 F4000
M05
G00 X73.3 Y11.2
M03
G01 X75.6 Y11.2 F4000
M05
G00 X78.0 Y11.2
M03
G01 X79.9 Y11.2 F4000
M05
G00 X80.7 Y11.2
M03
G01 X82.9 Y11.2 F4000
M05
G00 X83.7 Y11.2
M03
G01 X85.1 Y11.2 F4000
M05
G00 X86.1 Y11.2
M03
G01 X87.4 Y11.2 F4000
M05
G00 X93.8 Y11.2
M03
G01 X93.9 Y11.2 F4000
M05
G00 X93.9 Y11.3
M03
G01 X93.8 Y11.3 F4000
M05
G00 X87.4 Y11.3
M03
G01 X86.1 Y11.3 F4000
M05
G00 X85.1 Y11.3
M03
G01 X83.7 Y11.3 F4000
M05
G00 X82.9 Y11.3
M03
G01 X80.8 Y11.3 F4000
M05
G00 X79.9 Y11.3
M03
G01 X78.1 Y11.3 F4000
M05
G00 X75.6 Y11.3
M03
G01 X73.3 Y11.3 F4000
M05
G00 X73.0 Y11.3
M03
G01 X70.2 Y11.3 F4000
M05
G00 X69.3 Y11.3
M03
G01 X67.8 Y11.3 F4000
M05
G00 X66.2 Y11.3
M03
G01 X63.8 Y11.3 F4000
M05
G00 X63.1 Y11.3
M03
G01 X60.5 Y11.3 F4000
M05
G00 X59.5 Y11.3
M03
G01 X58.1 Y11.3 F4000
M05
G00 X57.2 Y11.3
M03
G01 X54.4 Y11.3 F4000
M05
G00 X52.7 Y11.3
M03
G01 X49.9 Y11.3 F4000
M05
G00 X49.2 Y11.3
M03
G01 X46.6 Y11.3 F4000
M05
G00 X45.7 Y11.3
M03
G01 X44.2 Y11.3 F4000
M05
G00 X42.6 Y11.3
M03
G01 X41.0 Y11.3 F4000
M05
G00 X40.7 Y11.3
M03
G01 X38.3 Y11.3 F4000
M05
G00 X37.3 Y11.3
M03
G01 X34.9 Y11.3 F4000
M05
G00 X34.1 Y11.3
M03
G01 X32.0 Y11.3 F4000
M05
G00 X31.2 Y11.3
M03
G01 X30.0 Y11.3 F4000
M05
G00 X28.9 Y11.3
M03
G01 X27.5 Y11.3 F4000
M05
G00 X21.6 Y11.3
M03
G01 X21.4 Y11.3 F4000
M05
G00 X6.6 Y11.3
M03
G01 X6.5 Y11.3 F4000
M05
G00 X2.5 Y11.3
M03
G01 X2.4 Y11.3 F4000
M05
G00 X2.4 Y11.4
M03
G01 X2.5 Y11.4 F4000
M05
G00 X6.4 Y11.4
M03
G01 X6.6 Y11.4 F4000
M05
G00 X21.5 Y11.4
M03
G01 X21.7 Y11.4 F4000
M05
G00 X27.5 Y11.4
M03
G01 X28.9 Y11.4 F4000
M05
G00 X30.0 Y11.4
M03
G01 X31.2 Y11.4 F4000
M05
G00 X32.1 Y11.4
M03
G01 X34.0 Y11.4 F4000
M05
G00 X34.9 Y11.4
M03
G01 X37.2 Y11.4 F4000
M05
G00 X38.3 Y11.4
M03
G01 X40.7 Y11.4 F4000
M05
G00 X41.0 Y11.4
M03
G01 X42.6 Y11.4 F4000
M05
G00 X44.2 Y11.4
M03
G01 X45.6 Y11.4 F4000
M05
G00 X46.6 Y11.4
M03
G01 X49.1 Y11.4 F4000
M05
G00 X49.9 Y11.4
M03
G01 X52.7 Y11.4 F4000
M05
G00 X54.4 Y11.4
M03
G01 X57.2 Y11.4 F4000
M05
G00 X58.1 Y11.4
M03
G01 X59.5 Y11.4 F4000
M05
G00 X60.5 Y11.4
M03
G01 X63.0 Y11.4 F4000
M05
G00 X63.8 Y11.4
M03
G01 X66.1 Y11.4 F4000
M05
G00 X67.8 Y11.4
M03
G01 X69.3 Y11.4 F4000
M05
G00 X70.2 Y11.4
M03
G01 X73.0 Y11.4 F4000
M05
G00 X73.3 Y11.4
M03
G01 X75.6 Y11.4 F4000
M05
G00 X78.2 Y11.4
M03
G01 X79.9 Y11.4 F4000
M05
G00 X80.9 Y11.4
M03
G01 X82.8 Y11.4 F4000
M05
G00 X83.7 Y11.4
M03
G01 X85.0 Y11.4 F4000
M05
G00 X86.2 Y11.4
M03
G01 X87.4 Y11.4 F4000
M05
G00 X93.8 Y11.4
M03
G01 X93.9 Y11.4 F4000
M05
G00 X93.9 Y11.5
M03
G01 X93.8 Y11.5 F4000
M05
G00 X87.4 Y11.5
M03
G01 X86.2 Y11.5 F4000
M05
G00 X85.0 Y11.5
M03
G01 X83.7 Y11.5 F4000
M05
G00 X82.7 Y11.5
M03
G01 X80.9 Y11.5 F4000
M05
G00 X79.9 Y11.5
M03
G01 X78.4 Y11.5 F4000
M05
G00 X75.6 Y11.5
M03
G01 X73.3 Y11.5 F4000
M05
G00 X73.0 Y11.5
M03
G01 X70.2 Y11.5 F4000
M05
G00 X69.2 Y11.5
M03
G01 X67.8 Y11.5 F4000
M05
G00 X65.9 Y11.5
M03
G01 X63.8 Y11.5 F4000
M05
G00 X62.8 Y11.5
M03
G01 X60.5 Y11.5 F4000
M05
G00 X59.5 Y11.5
M03
G01 X58.1 Y11.5 F4000
M05
G00 X57.2 Y11.5
M03
G01 X54.4 Y11.5 F4000
M05
G00 X52.7 Y11.5
M03
G01 X49.9 Y11.5 F4000
M05
G00 X49.0 Y11.5
M03
G01 X46.6 Y11.5 F4000
M05
G00 X45.6 Y11.5
M03
G01 X44.2 Y11.5 F4000
M05
G00 X42.6 Y11.5
M03
G01 X41.0 Y11.5 F4000
M05
G00 X40.7 Y11.5
M03
G01 X38.3 Y11.5 F4000
M05
G00 X37.1 Y11.5
M03
G01 X34.9 Y11.5 F4000
M05
G00 X34.0 Y11.5
M03
G01 X32.2 Y11.5 F4000
M05
G00 X31.2 Y11.5
M03
G01 X30.0 Y11.5 F4000
M05
G00 X28.8 Y11.5
M03
G01 X27.5 Y11.5 F4000
M05
G00 X21.7 Y11.5
M03
G01 X21.5 Y11.5 F4000
M05
G00 X6.5 Y11.5
M03
G01 X6.4 Y11.5 F4000
M05
G00 X2.5 Y11.5
M03
G01 X2.3 Y11.5 F4000
M05
G00 X2.3 Y11.6
M03
G01 X2.5 Y11.6 F4000
M05
G00 X6.4 Y11.6
M03
G01 X6.5 Y11.6 F4000
M05
G00 X21.6 Y11.6
M03
G01 X21.7 Y11.6 F4000
M05
G00 X27.5 Y11.6
M03
G01 X28.8 Y11.6 F4000
M05
G00 X30.1 Y11.6
M03
G01 X31.2 Y11.6 F4000
M05
G00 X32.3 Y11.6
M03
G01 X33.9 Y11.6 F4000
M05
G00 X34.9 Y11.6
M03
G01 X36.9 Y11.6 F4000
M05
G00 X38.3 Y11.6
M03
G01 X40.7 Y11.6 F4000
M05
G00 X41.0 Y11.6
M03
G01 X42.6 Y11.6 F4000
M05
G00 X44.2 Y11.6
M03
G01 X45.6 Y11.6 F4000
M05
G00 X46.6 Y11.6
M03
G01 X48.8 Y11.6 F4000
M05
G00 X49.9 Y11.6
M03
G01 X52.7 Y11.6 F4000
M05
G00 X54.4 Y11.6
M03
G01 X57.2 Y11.6 F4000
M05
G00 X58.1 Y11.6
M03
G01 X59.5 Y11.6 F4000
M05
G00 X60.5 Y11.6
M03
G01 X62.7 Y11.6 F4000
M05
G00 X63.8 Y11.6
M03
G01 X65.8 Y11.6 F4000
M05
G00 X67.9 Y11.6
M03
G01 X69.2 Y11.6 F4000
M05
G00 X70.2 Y11.6
M03
G01 X73.0 Y11.6 F4000
M05
G00 X73.3 Y11.6
M03
G01 X75.6 Y11.6 F4000
M05
G00 X78.5 Y11.6
M03
G01 X79.9 Y11.6 F4000
M05
G00 X81.0 Y11.6
M03
G01 X82.6 Y11.6 F4000
M05
G00 X83.7 Y11.6
M03
G01 X85.0 Y11.6 F4000
M05
G00 X86.2 Y11.6
M03
G01 X87.4 Y11.6 F4000
M05
G00 X93.8 Y11.6
M03
G01 X93.9 Y11.6 F4000
M05
G00 X93.9 Y11.7
M03
G01 X93.8 Y11.7 F4000
M05
G00 X87.4 Y11.7
M03
G01 X86.2 Y11.7 F4000
M05
G00 X84.9 Y11.7
M03
G01 X83.7 Y11.7 F4000
M05
G00 X82.5 Y11.7
M03
G01 X81.2 Y11.7 F4000
M05
G00 X79.9 Y11.7
M03
G01 X78.7 Y11.7 F4000
M05
G00 X75.6 Y11.7
M03
G01 X73.3 Y11.7 F4000
M05
G00 X73.0 Y11.7
M03
G01 X70.2 Y11.7 F4000
M05
G00 X69.2 Y11.7
M03
G01 X67.9 Y11.7 F4000
M05
G00 X65.6 Y11.7
M03
G01 X63.8 Y11.7 F4000
M05
G00 X62.4 Y11.7
M03
G01 X60.5 Y11.7 F4000
M05
G00 X59.5 Y11.7
M03
G01 X58.1 Y11.7 F4000
M05
G00 X57.2 Y11.7
M03
G01 X54.4 Y11.7 F4000
M05
G00 X52.7 Y11.7
M03
G01 X49.9 Y11.7 F4000
M05
G00 X48.6 Y11.7
M03
G01 X46.6 Y11.7 F4000
M05
G00 X45.6 Y11.7
M03
G01 X44.3 Y11.7 F4000
M05
G00 X42.6 Y11.7
M03
G01 X41.0 Y11.7 F4000
M05
G00 X40.7 Y11.7
M03
G01 X38.3 Y11.7 F4000
M05
G00 X36.7 Y11.7
M03
G01 X34.9 Y11.7 F4000
M05
G00 X33.8 Y11.7
M03
G01 X32.4 Y11.7 F4000
M05
G00 X31.2 Y11.7
M03
G01 X30.1 Y11.7 F4000
M05
G00 X28.8 Y11.7
M03
G01 X27.5 Y11.7 F4000
M05
G00 X21.7 Y11.7
M03
G01 X21.6 Y11.7 F4000
M05
G00 X6.5 Y11.7
M03
G01 X6.4 Y11.7 F4000
M05
G00 X2.5 Y11.7
M03
G01 X2.3 Y11.7 F4000
M05
G00 X2.3 Y11.8
M03
G01 X2.4 Y11.8 F4000
M05
G00 X6.3 Y11.8
M03
G01 X6.5 Y11.8 F4000
M05
G00 X21.6 Y11.8
M03
G01 X21.8 Y11.8 F4000
M05
G00 X32.5 Y11.8
M03
G01 X33.6 Y11.8 F4000
M05
G00 X35.4 Y11.8
M03
G01 X36.3 Y11.8 F4000
M05
G00 X47.1 Y11.8
M03
G01 X48.2 Y11.8 F4000
M05
G00 X60.9 Y11.8
M03
G01 X62.1 Y11.8 F4000
M05
G00 X64.3 Y11.8
M03
G01 X65.2 Y11.8 F4000
M05
G00 X79.1 Y11.8
M03
G01 X79.5 Y11.8 F4000
M05
G00 X81.3 Y11.8
M03
G01 X82.4 Y11.8 F4000
M05
G00 X93.8 Y11.8
M03
G01 X93.9 Y11.8 F4000
M05
G00 X93.9 Y11.9
M03
G01 X93.8 Y11.9 F4000
M05
G00 X82.1 Y11.9
M03
G01 X81.5 Y11.9 F4000
M05
G00 X33.4 Y11.9
M03
G01 X32.8 Y11.9 F4000
M05
G00 X21.8 Y11.9
M03
G01 X21.6 Y11.9 F4000
M05
G00 X6.5 Y11.9
M03
G01 X6.3 Y11.9 F4000
M05
G00 X2.4 Y11.9
M03
G01 X2.3 Y11.9 F4000
M05
G00 X2.3 Y12.0
M03
G01 X2.4 Y12.0 F4000
M05
G00 X6.3 Y12.0
M03
G01 X6.4 Y12.0 F4000
M05
G00 X21.6 Y12.0
M03
G01 X21.8 Y12.0 F4000
M05
G00 X93.8 Y12.0
M03
G01 X93.9 Y12.0 F4000
M05
G00 X93.9 Y12.1
M03
G01 X93.8 Y12.1 F4000
M05
G00 X21.8 Y12.1
M03
G01 X21.7 Y12.1 F4000
M05
G00 X6.4 Y12.1
M03
G01 X6.3 Y12.1 F4000
M05
G00 X2.4 Y12.1
M03
G01 X2.3 Y12.1 F4000
M05
G00 X2.2 Y12.2
M03
G01 X2.4 Y12.2 F4000
M05
G00 X6.3 Y12.2
M03
G01 X6.4 Y12.2 F4000
M05
G00 X21.7 Y12.2
M03
G01 X21.8 Y12.2 F4000
M05
G00 X93.8 Y12.2
M03
G01 X93.9 Y12.2 F4000
M05
G00 X93.9 Y12.3
M03
G01 X93.8 Y12.3 F4000
M05
G00 X21.8 Y12.3
M03
G01 X21.7 Y12.3 F4000
M05
G00 X6.4 Y12.3
M03
G01 X6.3 Y12.3 F4000
M05
G00 X2.4 Y12.3
M03
G01 X2.2 Y12.3 F4000
M05
G00 X2.2 Y12.4
M03
G01 X2.4 Y12.4 F4000
M05
G00 X6.2 Y12.4
M03
G01 X6.4 Y12.4 F4000
M05
G00 X21.7 Y12.4
M03
G01 X21.9 Y12.4 F4000
M05
G00 X93.8 Y12.4
M03
G01 X93.9 Y12.4 F4000
M05
G00 X93.9 Y12.5
M03
G01 X93.8 Y12.5 F4000
M05
G00 X21.9 Y12.5
M03
G01 X21.7 Y12.5 F4000
M05
G00 X6.4 Y12.5
M03
G01 X6.2 Y12.5 F4000
M05
G00 X2.3 Y12.5
M03
G01 X2.2 Y12.5 F4000
M05
G00 X2.2 Y12.6
M03
G01 X2.3 Y12.6 F4000
M05
G00 X6.2 Y12.6
M03
G01 X6.4 Y12.6 F4000
M05
G00 X21.7 Y12.6
M03
G01 X21.9 Y12.6 F4000
M05
G00 X93.8 Y12.6
M03
G01 X93.9 Y12.6 F4000
M05
G00 X93.9 Y12.7
M03
G01 X93.8 Y12.7 F4000
M05
G00 X21.9 Y12.7
M03
G01 X21.8 Y12.7 F4000
M05
G00 X6.3 Y12.7
M03
G01 X6.2 Y12.7 F4000
M05
G00 X2.3 Y12.7
M03
G01 X2.2 Y12.7 F4000
M05
G00 X2.2 Y12.8
M03
G01 X2.3 Y12.8 F4000
M05
G00 X6.2 Y12.8
M03
G01 X6.3 Y12.8 F4000
M05
G00 X21.8 Y12.8
M03
G01 X21.9 Y12.8 F4000
M05
G00 X93.8 Y12.8
M03
G01 X93.9 Y12.8 F4000
M05
G00 X93.9 Y12.9
M03
G01 X93.8 Y12.9 F4000
M05
G00 X21.9 Y12.9
M03
G01 X21.8 Y12.9 F4000
M05
G00 X6.3 Y12.9
M03
G01 X6.2 Y12.9 F4000
M05
G00 X2.3 Y12.9
M03
G01 X2.2 Y12.9 F4000
M05
G00 X2.1 Y13.0
M03
G01 X2.3 Y13.0 F4000
M05
G00 X6.1 Y13.0
M03
G01 X6.3 Y13.0 F4000
M05
G00 X21.8 Y13.0
M03
G01 X21.9 Y13.0 F4000
M05
G00 X93.8 Y13.0
M03
G01 X93.9 Y13.0 F4000
M05
G00 X93.9 Y13.1
M03
G01 X93.8 Y13.1 F4000
M05
G00 X22.0 Y13.1
M03
G01 X21.8 Y13.1 F4000
M05
G00 X6.3 Y13.1
M03
G01 X6.1 Y13.1 F4000
M05
G00 X2.3 Y13.1
M03
G01 X2.1 Y13.1 F4000
M05
G00 X2.1 Y13.2
M03
G01 X2.3 Y13.2 F4000
M05
G00 X6.1 Y13.2
M03
G01 X6.3 Y13.2 F4000
M05
G00 X21.8 Y13.2
M03
G01 X22.0 Y13.2 F4000
M05
G00 X93.8 Y13.2
M03
G01 X93.9 Y13.2 F4000
M05
G00 X93.9 Y13.3
M03
G01 X93.8 Y13.3 F4000
M05
G00 X22.0 Y13.3
M03
G01 X21.9 Y13.3 F4000
M05
G00 X6.2 Y13.3
M03
G01 X6.1 Y13.3 F4000
M05
G00 X2.2 Y13.3
M03
G01 X2.1 Y13.3 F4000
M05
G00 X2.1 Y13.4
M03
G01 X2.2 Y13.4 F4000
M05
G00 X6.1 Y13.4
M03
G01 X6.2 Y13.4 F4000
M05
G00 X21.9 Y13.4
M03
G01 X22.0 Y13.4 F4000
M05
G00 X93.8 Y13.4
M03
G01 X93.9 Y13.4 F4000
M05
G00 X93.9 Y13.5
M03
G01 X93.8 Y13.5 F4000
M05
G00 X22.0 Y13.5
M03
G01 X21.9 Y13.5 F4000
M05
G00 X6.2 Y13.5
M03
G01 X6.1 Y13.5 F4000
M05
G00 X2.2 Y13.5
M03
G01 X2.1 Y13.5 F4000
M05
G00 X2.1 Y13.6
M03
G01 X2.2 Y13.6 F4000
M05
G00 X6.1 Y13.6
M03
G01 X6.2 Y13.6 F4000
M05
G00 X21.9 Y13.6
M03
G01 X22.0 Y13.6 F4000
M05
G00 X93.8 Y13.6
M03
G01 X93.9 Y13.6 F4000
M05
G00 X93.9 Y13.7
M03
G01 X93.8 Y13.7 F4000
M05
G00 X22.1 Y13.7
M03
G01 X21.9 Y13.7 F4000
M05
G00 X6.2 Y13.7
M03
G01 X6.0 Y13.7 F4000
M05
G00 X2.2 Y13.7
M03
G01 X2.0 Y13.7 F4000
M05
G00 X2.0 Y13.8
M03
G01 X2.2 Y13.8 F4000
M05
G00 X6.0 Y13.8
M03
G01 X6.2 Y13.8 F4000
M05
G00 X21.9 Y13.8
M03
G01 X22.1 Y13.8 F4000
M05
G00 X93.8 Y13.8
M03
G01 X93.9 Y13.8 F4000
M05
G00 X93.9 Y13.9
M03
G01 X93.8 Y13.9 F4000
M05
G00 X22.1 Y13.9
M03
G01 X21.9 Y13.9 F4000
M05
G00 X6.1 Y13.9
M03
G01 X6.0 Y13.9 F4000
M05
G00 X2.2 Y13.9
M03
G01 X2.0 Y13.9 F4000
M05
G00 X2.0 Y14.0
M03
G01 X2.2 Y14.0 F4000
M05
G00 X6.0 Y14.0
M03
G01 X6.1 Y14.0 F4000
M05
G00 X21.9 Y14.0
M03
G01 X22.1 Y14.0 F4000
M05
G00 X65.8 Y14.0
M03
G01 X69.6 Y14.0 F4000
M05
G00 X93.8 Y14.0
M03
G01 X93.9 Y14.0 F4000
M05
G00 X93.9 Y14.1
M03
G01 X93.8 Y14.1 F4000
M05
G00 X71.2 Y14.1
M03
G01 X64.5 Y14.1 F4000
M05
G00 X48.3 Y14.1
M03
G01 X48.1 Y14.1 F4000
M05
G00 X22.1 Y14.1
M03
G01 X21.9 Y14.1 F4000
M05
G00 X6.2 Y14.1
M03
G01 X6.0 Y14.1 F4000
M05
G00 X2.2 Y14.1
M03
G01 X2.0 Y14.1 F4000
M05
G00 X2.0 Y14.2
M03
G01 X2.2 Y14.2 F4000
M05
G00 X6.0 Y14.2
M03
G01 X6.2 Y14.2 F4000
M05
G00 X21.9 Y14.2
M03
G01 X22.1 Y14.2 F4000
M05
G00 X28.3 Y14.2
M03
G01 X34.7 Y14.2 F4000
M05
G00 X42.9 Y14.2
M03
G01 X46.2 Y14.2 F4000
M05
G00 X48.0 Y14.2
M03
G01 X48.6 Y14.2 F4000
M05
G00 X51.5 Y14.2
M03
G01 X57.8 Y14.2 F4000
M05
G00 X63.7 Y14.2
M03
G01 X72.2 Y14.2 F4000
M05
G00 X76.1 Y14.2
M03
G01 X86.7 Y14.2 F4000
M05
G00 X93.8 Y14.2
M03
G01 X93.9 Y14.2 F4000
M05
G00 X93.9 Y14.3
M03
G01 X93.8 Y14.3 F4000
M05
G00 X86.7 Y14.3
M03
G01 X76.1 Y14.3 F4000
M05
G00 X73.0 Y14.3
M03
G01 X63.1 Y14.3 F4000
M05
G00 X57.8 Y14.3
M03
G01 X51.4 Y14.3 F4000
M05
G00 X48.9 Y14.3
M03
G01 X47.9 Y14.3 F4000
M05
G00 X46.3 Y14.3
M03
G01 X43.0 Y14.3 F4000
M05
G00 X34.7 Y14.3
M03
G01 X28.3 Y14.3 F4000
M05
G00 X22.0 Y14.3
M03
G01 X21.9 Y14.3 F4000
M05
G00 X6.2 Y14.3
M03
G01 X6.1 Y14.3 F4000
M05
G00 X2.2 Y14.3
M03
G01 X2.1 Y14.3 F4000
M05
G00 X2.1 Y14.4
M03
G01 X2.2 Y14.4 F4000
M05
G00 X6.1 Y14.4
M03
G01 X6.2 Y14.4 F4000
M05
G00 X21.9 Y14.4
M03
G01 X22.0 Y14.4 F4000
M05
G00 X28.3 Y14.4
M03
G01 X34.7 Y14.4 F4000
M05
G00 X43.0 Y14.4
M03
G01 X46.4 Y14.4 F4000
M05
G00 X47.7 Y14.4
M03
G01 X49.2 Y14.4 F4000
M05
G00 X51.3 Y14.4
M03
G01 X57.7 Y14.4 F4000
M05
G00 X62.7 Y14.4
M03
G01 X73.8 Y14.4 F4000
M05
G00 X76.1 Y14.4
M03
G01 X86.8 Y14.4 F4000
M05
G00 X93.8 Y14.4
M03
G01 X93.9 Y14.4 F4000
M05
G00 X93.9 Y14.5
M03
G01 X93.8 Y14.5 F4000
M05
G00 X86.8 Y14.5
M03
G01 X76.1 Y14.5 F4000
M05
G00 X73.8 Y14.5
M03
G01 X62.3 Y14.5 F4000
M05
G00 X57.7 Y14.5
M03
G01 X51.3 Y14.5 F4000
M05
G00 X49.6 Y14.5
M03
G01 X47.6 Y14.5 F4000
M05
G00 X46.4 Y14.5
M03
G01 X43.1 Y14.5 F4000
M05
G00 X34.7 Y14.5
M03
G01 X28.3 Y14.5 F4000
M05
G00 X22.0 Y14.5
M03
G01 X21.9 Y14.5 F4000
M05
G00 X6.2 Y14.5
M03
G01 X6.1 Y14.5 F4000
M05
G00 X2.2 Y14.5
M03
G01 X2.1 Y14.5 F4000
M05
G00 X2.1 Y14.6
M03
G01 X2.2 Y14.6 F4000
M05
G00 X6.1 Y14.6
M03
G01 X6.2 Y14.6 F4000
M05
G00 X21.9 Y14.6
M03
G01 X22.0 Y14.6 F4000
M05
G00 X28.3 Y14.6
M03
G01 X34.8 Y14.6 F4000
M05
G00 X43.1 Y14.6
M03
G01 X46.5 Y14.6 F4000
M05
G00 X47.5 Y14.6
M03
G01 X50.0 Y14.6 F4000
M05
G00 X51.2 Y14.6
M03
G01 X57.6 Y14.6 F4000
M05
G00 X61.9 Y14.6
M03
G01 X73.8 Y14.6 F4000
M05
G00 X76.1 Y14.6
M03
G01 X86.8 Y14.6 F4000
M05
G00 X93.8 Y14.6
M03
G01 X93.9 Y14.6 F4000
M05
G00 X93.9 Y14.7
M03
G01 X93.8 Y14.7 F4000
M05
G00 X86.9 Y14.7
M03
G01 X76.1 Y14.7 F4000
M05
G00 X73.8 Y14.7
M03
G01 X61.6 Y14.7 F4000
M05
G00 X57.5 Y14.7
M03
G01 X51.1 Y14.7 F4000
M05
G00 X50.4 Y14.7
M03
G01 X47.4 Y14.7 F4000
M05
G00 X46.6 Y14.7
M03
G01 X43.2 Y14.7 F4000
M05
G00 X34.8 Y14.7
M03
G01 X28.3 Y14.7 F4000
M05
G00 X22.0 Y14.7
M03
G01 X21.8 Y14.7 F4000
M05
G00 X6.3 Y14.7
M03
G01 X6.1 Y14.7 F4000
M05
G00 X2.3 Y14.7
M03
G01 X2.1 Y14.7 F4000
M05
G00 X2.1 Y14.8
M03
G01 X2.3 Y14.8 F4000
M05
G00 X6.1 Y14.8
M03
G01 X6.3 Y14.8 F4000
M05
G00 X21.8 Y14.8
M03
G01 X22.0 Y14.8 F4000
M05
G00 X28.3 Y14.8
M03
G01 X34.8 Y14.8 F4000
M05
G00 X43.3 Y14.8
M03
G01 X46.6 Y14.8 F4000
M05
G00 X47.3 Y14.8
M03
G01 X50.9 Y14.8 F4000
M05
G00 X51.1 Y14.8
M03
G01 X57.5 Y14.8 F4000
M05
G00 X61.4 Y14.8
M03
G01 X73.8 Y14.8 F4000
M05
G00 X76.1 Y14.8
M03
G01 X86.9 Y14.8 F4000
M05
G00 X93.8 Y14.8
M03
G01 X93.9 Y14.8 F4000
M05
G00 X93.9 Y14.9
M03
G01 X93.8 Y14.9 F4000
M05
G00 X87.0 Y14.9
M03
G01 X76.1 Y14.9 F4000
M05
G00 X73.8 Y14.9
M03
G01 X61.2 Y14.9 F4000
M05
G00 X57.4 Y14.9
M03
G01 X47.2 Y14.9 F4000
M05
G00 X46.7 Y14.9
M03
G01 X43.3 Y14.9 F4000
M05
G00 X34.8 Y14.9
M03
G01 X28.3 Y14.9 F4000
M05
G00 X21.9 Y14.9
M03
G01 X21.8 Y14.9 F4000
M05
G00 X6.3 Y14.9
M03
G01 X6.1 Y14.9 F4000
M05
G00 X2.3 Y14.9
M03
G01 X2.1 Y14.9 F4000
M05
G00 X2.2 Y15.0
M03
G01 X2.3 Y15.0 F4000
M05
G00 X6.2 Y15.0
M03
G01 X6.3 Y15.0 F4000
M05
G00 X21.8 Y15.0
M03
G01 X21.9 Y15.0 F4000
M05
G00 X28.2 Y15.0
M03
G01 X34.8 Y15.0 F4000
M05
G00 X43.4 Y15.0
M03
G01 X46.8 Y15.0 F4000
M05
G00 X47.1 Y15.0
M03
G01 X57.4 Y15.0 F4000
M05
G00 X61.0 Y15.0
M03
G01 X73.8 Y15.0 F4000
M05
G00 X76.1 Y15.0
M03
G01 X87.0 Y15.0 F4000
M05
G00 X93.8 Y15.0
M03
G01 X93.9 Y15.0 F4000
M05
G00 X93.9 Y15.1
M03
G01 X93.8 Y15.1 F4000
M05
G00 X87.1 Y15.1
M03
G01 X76.1 Y15.1 F4000
M05
G00 X73.8 Y15.1
M03
G01 X60.8 Y15.1 F4000
M05
G00 X57.3 Y15.1
M03
G01 X43.4 Y15.1 F4000
M05
G00 X34.8 Y15.1
M03
G01 X28.2 Y15.1 F4000
M05
G00 X21.9 Y15.1
M03
G01 X21.8 Y15.1 F4000
M05
G00 X6.3 Y15.1
M03
G01 X6.2 Y15.1 F4000
M05
G00 X2.3 Y15.1
M03
G01 X2.2 Y15.1 F4000
M05
G00 X2.2 Y15.2
M03
G01 X2.3 Y15.2 F4000
M05
G00 X6.2 Y15.2
M03
G01 X6.3 Y15.2 F4000
M05
G00 X21.8 Y15.2
M03
G01 X21.9 Y15.2 F4000
M05
G00 X28.2 Y15.2
M03
G01 X34.8 Y15.2 F4000
M05
G00 X43.5 Y15.2
M03
G01 X57.3 Y15.2 F4000
M05
G00 X60.6 Y15.2
M03
G01 X73.8 Y15.2 F4000
M05
G00 X76.1 Y15.2
M03
G01 X87.1 Y15.2 F4000
M05
G00 X93.8 Y15.2
M03
G01 X93.9 Y15.2 F4000
M05
G00 X93.9 Y15.3
M03
G01 X93.8 Y15.3 F4000
M05
G00 X87.2 Y15.3
M03
G01 X76.1 Y15.3 F4000
M05
G00 X73.8 Y15.3
M03
G01 X60.5 Y15.3 F4000
M05
G00 X57.2 Y15.3
M03
G01 X43.6 Y15.3 F4000
M05
G00 X34.8 Y15.3
M03
G01 X28.2 Y15.3 F4000
M05
G00 X21.9 Y15.3
M03
G01 X21.7 Y15.3 F4000
M05
G00 X6.4 Y15.3
M03
G01 X6.2 Y15.3 F4000
M05
G00 X2.3 Y15.3
M03
G01 X2.2 Y15.3 F4000
M05
G00 X2.2 Y15.4
M03
G01 X2.3 Y15.4 F4000
M05
G00 X6.2 Y15.4
M03
G01 X6.4 Y15.4 F4000
M05
G00 X21.7 Y15.4
M03
G01 X21.9 Y15.4 F4000
M05
G00 X28.2 Y15.4
M03
G01 X34.8 Y15.4 F4000
M05
G00 X43.6 Y15.4
M03
G01 X57.1 Y15.4 F4000
M05
G00 X60.3 Y15.4
M03
G01 X67.1 Y15.4 F4000
M05
G00 X68.9 Y15.4
M03
G01 X73.8 Y15.4 F4000
M05
G00 X76.0 Y15.4
M03
G01 X87.2 Y15.4 F4000
M05
G00 X93.8 Y15.4
M03
G01 X93.9 Y15.4 F4000
M05
G00 X93.9 Y15.5
M03
G01 X93.8 Y15.5 F4000
M05
G00 X87.3 Y15.5
M03
G01 X84.6 Y15.5 F4000
M05
G00 X82.7 Y15.5
M03
G01 X76.0 Y15.5 F4000
M05
G00 X73.8 Y15.5
M03
G01 X69.1 Y15.5 F4000
M05
G00 X66.6 Y15.5
M03
G01 X60.2 Y15.5 F4000
M05
G00 X57.1 Y15.5
M03
G01 X43.7 Y15.5 F4000
M05
G00 X34.8 Y15.5
M03
G01 X28.2 Y15.5 F4000
M05
G00 X21.9 Y15.5
M03
G01 X21.7 Y15.5 F4000
M05
G00 X6.4 Y15.5
M03
G01 X6.2 Y15.5 F4000
M05
G00 X2.4 Y15.5
M03
G01 X2.2 Y15.5 F4000
M05
G00 X2.2 Y15.6
M03
G01 X2.4 Y15.6 F4000
M05
G00 X6.3 Y15.6
M03
G01 X6.4 Y15.6 F4000
M05
G00 X21.7 Y15.6
M03
G01 X21.8 Y15.6 F4000
M05
G00 X28.2 Y15.6
M03
G01 X34.8 Y15.6 F4000
M05
G00 X43.7 Y15.6
M03
G01 X47.2 Y15.6 F4000
M05
G00 X48.0 Y15.6
M03
G01 X57.0 Y15.6 F4000
M05
G00 X60.1 Y15.6
M03
G01 X66.4 Y15.6 F4000
M05
G00 X69.1 Y15.6
M03
G01 X73.8 Y15.6 F4000
M05
G00 X76.0 Y15.6
M03
G01 X82.7 Y15.6 F4000
M05
G00 X86.8 Y15.6
M03
G01 X87.4 Y15.6 F4000
M05
G00 X93.8 Y15.6
M03
G01 X93.9 Y15.6 F4000
M05
G00 X93.9 Y15.7
M03
G01 X93.8 Y15.7 F4000
M05
G00 X82.7 Y15.7
M03
G01 X76.0 Y15.7 F4000
M05
G00 X73.8 Y15.7
M03
G01 X69.1 Y15.7 F4000
M05
G00 X66.2 Y15.7
M03
G01 X60.0 Y15.7 F4000
M05
G00 X57.0 Y15.7
M03
G01 X49.7 Y15.7 F4000
M05
G00 X47.3 Y15.7
M03
G01 X43.8 Y15.7 F4000
M05
G00 X36.0 Y15.7
M03
G01 X28.2 Y15.7 F4000
M05
G00 X21.8 Y15.7
M03
G01 X21.7 Y15.7 F4000
M05
G00 X6.4 Y15.7
M03
G01 X6.3 Y15.7 F4000
M05
G00 X2.4 Y15.7
M03
G01 X2.2 Y15.7 F4000
M05
G00 X2.3 Y15.8
M03
G01 X2.4 Y15.8 F4000
M05
G00 X6.3 Y15.8
M03
G01 X6.4 Y15.8 F4000
M05
G00 X21.7 Y15.8
M03
G01 X21.8 Y15.8 F4000
M05
G00 X28.2 Y15.8
M03
G01 X37.4 Y15.8 F4000
M05
G00 X43.9 Y15.8
M03
G01 X47.3 Y15.8 F4000
M05
G00 X50.5 Y15.8
M03
G01 X56.9 Y15.8 F4000
M05
G00 X59.9 Y15.8
M03
G01 X66.1 Y15.8 F4000
M05
G00 X69.1 Y15.8
M03
G01 X73.8 Y15.8 F4000
M05
G00 X76.0 Y15.8
M03
G01 X82.7 Y15.8 F4000
M05
G00 X93.8 Y15.8
M03
G01 X93.9 Y15.8 F4000
M05
G00 X93.9 Y15.9
M03
G01 X93.8 Y15.9 F4000
M05
G00 X82.7 Y15.9
M03
G01 X76.0 Y15.9 F4000
M05
G00 X73.8 Y15.9
M03
G01 X69.1 Y15.9 F4000
M05
G00 X66.0 Y15.9
M03
G01 X59.8 Y15.9 F4000
M05
G00 X56.9 Y15.9
M03
G01 X50.4 Y15.9 F4000
M05
G00 X47.4 Y15.9
M03
G01 X43.9 Y15.9 F4000
M05
G00 X38.1 Y15.9
M03
G01 X28.2 Y15.9 F4000
M05
G00 X21.8 Y15.9
M03
G01 X21.6 Y15.9 F4000
M05
G00 X6.4 Y15.9
M03
G01 X6.3 Y15.9 F4000
M05
G00 X2.4 Y15.9
M03
G01 X2.3 Y15.9 F4000
M05
G00 X2.3 Y16.0
M03
G01 X2.4 Y16.0 F4000
M05
G00 X6.3 Y16.0
M03
G01 X6.5 Y16.0 F4000
M05
G00 X21.6 Y16.0
M03
G01 X21.8 Y16.0 F4000
M05
G00 X28.2 Y16.0
M03
G01 X38.7 Y16.0 F4000
M05
G00 X44.0 Y16.0
M03
G01 X47.5 Y16.0 F4000
M05
G00 X50.3 Y16.0
M03
G01 X56.8 Y16.0 F4000
M05
G00 X59.7 Y16.0
M03
G01 X65.9 Y16.0 F4000
M05
G00 X69.1 Y16.0
M03
G01 X73.8 Y16.0 F4000
M05
G00 X76.0 Y16.0
M03
G01 X82.7 Y16.0 F4000
M05
G00 X93.8 Y16.0
M03
G01 X93.9 Y16.0 F4000
M05
G00 X93.9 Y16.1
M03
G01 X93.8 Y16.1 F4000
M05
G00 X82.7 Y16.1
M03
G01 X76.0 Y16.1 F4000
M05
G00 X73.8 Y16.1
M03
G01 X69.1 Y16.1 F4000
M05
G00 X65.9 Y16.1
M03
G01 X59.7 Y16.1 F4000
M05
G00 X56.7 Y16.1
M03
G01 X50.3 Y16.1 F4000
M05
G00 X47.6 Y16.1
M03
G01 X44.0 Y16.1 F4000
M05
G00 X39.2 Y16.1
M03
G01 X28.1 Y16.1 F4000
M05
G00 X21.8 Y16.1
M03
G01 X21.6 Y16.1 F4000
M05
G00 X6.5 Y16.1
M03
G01 X6.3 Y16.1 F4000
M05
G00 X2.4 Y16.1
M03
G01 X2.3 Y16.1 F4000
M05
G00 X2.3 Y16.2
M03
G01 X2.5 Y16.2 F4000
M05
G00 X6.4 Y16.2
M03
G01 X6.5 Y16.2 F4000
M05
G00 X21.6 Y16.2
M03
G01 X21.7 Y16.2 F4000
M05
G00 X28.1 Y16.2
M03
G01 X39.5 Y16.2 F4000
M05
G00 X44.1 Y16.2
M03
G01 X47.6 Y16.2 F4000
M05
G00 X50.2 Y16.2
M03
G01 X56.7 Y16.2 F4000
M05
G00 X59.6 Y16.2
M03
G01 X65.8 Y16.2 F4000
M05
G00 X69.1 Y16.2
M03
G01 X73.8 Y16.2 F4000
M05
G00 X76.0 Y16.2
M03
G01 X82.8 Y16.2 F4000
M05
G00 X93.8 Y16.2
M03
G01 X93.9 Y16.2 F4000
M05
G00 X93.9 Y16.3
M03
G01 X93.8 Y16.3 F4000
M05
G00 X82.8 Y16.3
M03
G01 X76.0 Y16.3 F4000
M05
G00 X73.8 Y16.3
M03
G01 X69.1 Y16.3 F4000
M05
G00 X65.8 Y16.3
M03
G01 X59.5 Y16.3 F4000
M05
G00 X56.6 Y16.3
M03
G01 X50.1 Y16.3 F4000
M05
G00 X47.7 Y16.3
M03
G01 X44.1 Y16.3 F4000
M05
G00 X39.9 Y16.3
M03
G01 X28.1 Y16.3 F4000
M05
G00 X21.7 Y16.3
M03
G01 X21.6 Y16.3 F4000
M05
G00 X6.5 Y16.3
M03
G01 X6.4 Y16.3 F4000
M05
G00 X2.5 Y16.3
M03
G01 X2.3 Y16.3 F4000
M05
G00 X2.3 Y16.4
M03
G01 X2.5 Y16.4 F4000
M05
G00 X6.4 Y16.4
M03
G01 X6.5 Y16.4 F4000
M05
G00 X21.5 Y16.4
M03
G01 X21.7 Y16.4 F4000
M05
G00 X28.1 Y16.4
M03
G01 X40.2 Y16.4 F4000
M05
G00 X44.2 Y16.4
M03
G01 X47.8 Y16.4 F4000
M05
G00 X50.0 Y16.4
M03
G01 X56.6 Y16.4 F4000
M05
G00 X59.5 Y16.4
M03
G01 X65.8 Y16.4 F4000
M05
G00 X69.1 Y16.4
M03
G01 X73.9 Y16.4 F4000
M05
G00 X76.0 Y16.4
M03
G01 X82.8 Y16.4 F4000
M05
G00 X93.8 Y16.4
M03
G01 X93.9 Y16.4 F4000
M05
G00 X93.9 Y16.5
M03
G01 X93.8 Y16.5 F4000
M05
G00 X82.8 Y16.5
M03
G01 X76.0 Y16.5 F4000
M05
G00 X73.9 Y16.5
M03
G01 X69.1 Y16.5 F4000
M05
G00 X65.7 Y16.5
M03
G01 X59.4 Y16.5 F4000
M05
G00 X56.5 Y16.5
M03
G01 X49.9 Y16.5 F4000
M05
G00 X47.9 Y16.5
M03
G01 X44.2 Y16.5 F4000
M05
G00 X40.5 Y16.5
M03
G01 X28.1 Y16.5 F4000
M05
G00 X21.7 Y16.5
M03
G01 X21.5 Y16.5 F4000
M05
G00 X6.6 Y16.5
M03
G01 X6.4 Y16.5 F4000
M05
G00 X2.5 Y16.5
M03
G01 X2.4 Y16.5 F4000
M05
G00 X2.4 Y16.6
M03
G01 X2.5 Y16.6 F4000
M05
G00 X6.5 Y16.6
M03
G01 X6.6 Y16.6 F4000
M05
G00 X21.4 Y16.6
M03
G01 X21.6 Y16.6 F4000
M05
G00 X28.1 Y16.6
M03
G01 X40.7 Y16.6 F4000
M05
G00 X44.3 Y16.6
M03
G01 X47.9 Y16.6 F4000
M05
G00 X49.8 Y16.6
M03
G01 X56.5 Y16.6 F4000
M05
G00 X59.4 Y16.6
M03
G01 X65.7 Y16.6 F4000
M05
G00 X69.0 Y16.6
M03
G01 X73.9 Y16.6 F4000
M05
G00 X76.0 Y16.6
M03
G01 X82.8 Y16.6 F4000
M05
G00 X93.8 Y16.6
M03
G01 X93.9 Y16.6 F4000
M05
G00 X93.9 Y16.7
M03
G01 X93.8 Y16.7 F4000
M05
G00 X82.8 Y16.7
M03
G01 X75.9 Y16.7 F4000
M05
G00 X73.9 Y16.7
M03
G01 X69.0 Y16.7 F4000
M05
G00 X65.7 Y16.7
M03
G01 X59.3 Y16.7 F4000
M05
G00 X56.4 Y16.7
M03
G01 X49.8 Y16.7 F4000
M05
G00 X48.0 Y16.7
M03
G01 X44.4 Y16.7 F4000
M05
G00 X40.9 Y16.7
M03
G01 X28.1 Y16.7 F4000
M05
G00 X21.6 Y16.7
M03
G01 X21.4 Y16.7 F4000
M05
G00 X6.7 Y16.7
M03
G01 X6.5 Y16.7 F4000
M05
G00 X2.5 Y16.7
M03
G01 X2.4 Y16.7 F4000
M05
G00 X2.4 Y16.8
M03
G01 X2.5 Y16.8 F4000
M05
G00 X6.6 Y16.8
M03
G01 X6.8 Y16.8 F4000
M05
G00 X21.3 Y16.8
M03
G01 X21.5 Y16.8 F4000
M05
G00 X28.1 Y16.8
M03
G01 X41.1 Y16.8 F4000
M05
G00 X44.4 Y16.8
M03
G01 X48.1 Y16.8 F4000
M05
G00 X49.7 Y16.8
M03
G01 X56.4 Y16.8 F4000
M05
G00 X59.3 Y16.8
M03
G01 X65.7 Y16.8 F4000
M05
G00 X69.0 Y16.8
M03
G01 X73.9 Y16.8 F4000
M05
G00 X75.9 Y16.8
M03
G01 X82.8 Y16.8 F4000
M05
G00 X93.8 Y16.8
M03
G01 X93.9 Y16.8 F4000
M05
G00 X93.9 Y16.9
M03
G01 X93.8 Y16.9 F4000
M05
G00 X82.8 Y16.9
M03
G01 X75.9 Y16.9 F4000
M05
G00 X73.9 Y16.9
M03
G01 X69.0 Y16.9 F4000
M05
G00 X65.7 Y16.9
M03
G01 X59.2 Y16.9 F4000
M05
G00 X56.3 Y16.9
M03
G01 X49.6 Y16.9 F4000
M05
G00 X48.2 Y16.9
M03
G01 X44.5 Y16.9 F4000
M05
G00 X41.3 Y16.9
M03
G01 X28.1 Y16.9 F4000
M05
G00 X21.5 Y16.9
M03
G01 X21.3 Y16.9 F4000
M05
G00 X6.8 Y16.9
M03
G01 X6.6 Y16.9 F4000
M05
G00 X2.5 Y16.9
M03
G01 X2.4 Y16.9 F4000
M05
G00 X2.4 Y17.0
M03
G01 X2.6 Y17.0 F4000
M05
G00 X6.7 Y17.0
M03
G01 X6.9 Y17.0 F4000
M05
G00 X21.2 Y17.0
M03
G01 X21.4 Y17.0 F4000
M05
G00 X28.1 Y17.0
M03
G01 X35.0 Y17.0 F4000
M05
G00 X35.8 Y17.0
M03
G01 X41.5 Y17.0 F4000
M05
G00 X44.5 Y17.0
M03
G01 X48.3 Y17.0 F4000
M05
G00 X49.5 Y17.0
M03
G01 X56.2 Y17.0 F4000
M05
G00 X59.2 Y17.0
M03
G01 X65.7 Y17.0 F4000
M05
G00 X69.0 Y17.0
M03
G01 X73.9 Y17.0 F4000
M05
G00 X75.9 Y17.0
M03
G01 X82.8 Y17.0 F4000
M05
G00 X93.8 Y17.0
M03
G01 X93.9 Y17.0 F4000
M05
G00 X93.9 Y17.1
M03
G01 X93.8 Y17.1 F4000
M05
G00 X82.9 Y17.1
M03
G01 X75.9 Y17.1 F4000
M05
G00 X73.9 Y17.1
M03
G01 X69.0 Y17.1 F4000
M05
G00 X65.7 Y17.1
M03
G01 X59.2 Y17.1 F4000
M05
G00 X56.2 Y17.1
M03
G01 X49.4 Y17.1 F4000
M05
G00 X48.4 Y17.1
M03
G01 X44.6 Y17.1 F4000
M05
G00 X41.6 Y17.1
M03
G01 X36.6 Y17.1 F4000
M05
G00 X35.0 Y17.1
M03
G01 X28.1 Y17.1 F4000
M05
G00 X21.4 Y17.1
M03
G01 X21.2 Y17.1 F4000
M05
G00 X6.9 Y17.1
M03
G01 X6.7 Y17.1 F4000
M05
G00 X2.6 Y17.1
M03
G01 X2.4 Y17.1 F4000
M05
G00 X2.5 Y17.2
M03
G01 X2.6 Y17.2 F4000
M05
G00 X6.8 Y17.2
M03
G01 X7.0 Y17.2 F4000
M05
G00 X21.1 Y17.2
M03
G01 X21.3 Y17.2 F4000
M05
G00 X28.0 Y17.2
M03
G01 X35.0 Y17.2 F4000
M05
G00 X37.0 Y17.2
M03
G01 X41.8 Y17.2 F4000
M05
G00 X44.6 Y17.2
M03
G01 X48.5 Y17.2 F4000
M05
G00 X49.3 Y17.2
M03
G01 X56.1 Y17.2 F4000
M05
G00 X59.1 Y17.2
M03
G01 X65.7 Y17.2 F4000
M05
G00 X69.0 Y17.2
M03
G01 X73.9 Y17.2 F4000
M05
G00 X75.9 Y17.2
M03
G01 X82.9 Y17.2 F4000
M05
