; Generated with:
; "Raster 2 Laser Gcode generator"
; by 305 Engineering
;
;
;
G28; home all axes
G21; Set units to millimeters
G90; Use absolute coordinates
G92; Coordinate Offset
G00 X189.4 Y28.7
M03
G01 X189.4 Y28.7 F4000
M05
G00 X188.2 Y28.7
M03
G01 X188.1 Y28.7 F4000
M05
G00 X186.8 Y28.7
M03
G01 X186.5 Y28.7 F4000
M05
G00 X185.5 Y28.7
M03
G01 X185.4 Y28.7 F4000
M05
G00 X184.3 Y28.7
M03
G01 X184.0 Y28.7 F4000
M05
G00 X181.9 Y28.8
M03
G01 X183.2 Y28.8 F4000
M05
G00 X183.8 Y28.8
M03
G01 X184.5 Y28.8 F4000
M05
G00 X185.3 Y28.8
M03
G01 X185.6 Y28.8 F4000
M05
G00 X186.3 Y28.8
M03
G01 X187.1 Y28.8 F4000
M05
G00 X188.1 Y28.8
M03
G01 X188.2 Y28.8 F4000
M05
G00 X189.2 Y28.8
M03
G01 X189.6 Y28.8 F4000
M05
G00 X189.7 Y28.9
M03
G01 X189.5 Y28.9 F4000
M05
G00 X189.3 Y28.9
M03
G01 X189.1 Y28.9 F4000
M05
G00 X188.3 Y28.9
M03
G01 X188.2 Y28.9 F4000
M05
G00 X187.2 Y28.9
M03
G01 X186.2 Y28.9 F4000
M05
G00 X185.6 Y28.9
M03
G01 X185.3 Y28.9 F4000
M05
G00 X184.6 Y28.9
M03
G01 X183.7 Y28.9 F4000
M05
G00 X183.2 Y28.9
M03
G01 X181.9 Y28.9 F4000
M05
G00 X181.9 Y29.0
M03
G01 X183.2 Y29.0 F4000
M05
G00 X183.7 Y29.0
M03
G01 X184.0 Y29.0 F4000
M05
G00 X184.3 Y29.0
M03
G01 X184.7 Y29.0 F4000
M05
G00 X185.3 Y29.0
M03
G01 X185.5 Y29.0 F4000
M05
G00 X186.1 Y29.0
M03
G01 X186.5 Y29.0 F4000
M05
G00 X186.9 Y29.0
M03
G01 X187.2 Y29.0 F4000
M05
G00 X188.2 Y29.0
M03
G01 X188.3 Y29.0 F4000
M05
G00 X189.1 Y29.0
M03
G01 X189.2 Y29.0 F4000
M05
G00 X189.6 Y29.0
M03
G01 X189.7 Y29.0 F4000
M05
G00 X189.8 Y29.1
M03
G01 X189.6 Y29.1 F4000
M05
G00 X189.2 Y29.1
M03
G01 X189.0 Y29.1 F4000
M05
G00 X188.4 Y29.1
M03
G01 X188.3 Y29.1 F4000
M05
G00 X187.3 Y29.1
M03
G01 X187.0 Y29.1 F4000
M05
G00 X186.4 Y29.1
M03
G01 X186.1 Y29.1 F4000
M05
G00 X184.7 Y29.1
M03
G01 X184.4 Y29.1 F4000
M05
G00 X183.9 Y29.1
M03
G01 X183.6 Y29.1 F4000
M05
G00 X183.6 Y29.2
M03
G01 X183.9 Y29.2 F4000
M05
G00 X184.5 Y29.2
M03
G01 X184.8 Y29.2 F4000
M05
G00 X186.1 Y29.2
M03
G01 X186.3 Y29.2 F4000
M05
G00 X187.1 Y29.2
M03
G01 X187.3 Y29.2 F4000
M05
G00 X188.3 Y29.2
M03
G01 X188.5 Y29.2 F4000
M05
G00 X189.0 Y29.2
M03
G01 X189.2 Y29.2 F4000
M05
G00 X189.6 Y29.2
M03
G01 X189.8 Y29.2 F4000
M05
G00 X189.8 Y29.3
M03
G01 X189.6 Y29.3 F4000
M05
G00 X189.2 Y29.3
M03
G01 X189.0 Y29.3 F4000
M05
G00 X188.5 Y29.3
M03
G01 X188.4 Y29.3 F4000
M05
G00 X187.4 Y29.3
M03
G01 X187.1 Y29.3 F4000
M05
G00 X186.2 Y29.3
M03
G01 X186.1 Y29.3 F4000
M05
G00 X184.8 Y29.3
M03
G01 X184.5 Y29.3 F4000
M05
G00 X183.8 Y29.3
M03
G01 X183.6 Y29.3 F4000
M05
G00 X182.7 Y29.3
M03
G01 X182.4 Y29.3 F4000
M05
G00 X182.4 Y29.4
M03
G01 X182.7 Y29.4 F4000
M05
G00 X183.5 Y29.4
M03
G01 X183.8 Y29.4 F4000
M05
G00 X184.5 Y29.4
M03
G01 X184.8 Y29.4 F4000
M05
G00 X187.1 Y29.4
M03
G01 X187.4 Y29.4 F4000
M05
G00 X188.5 Y29.4
M03
G01 X188.6 Y29.4 F4000
M05
G00 X189.0 Y29.4
M03
G01 X189.2 Y29.4 F4000
M05
G00 X189.6 Y29.4
M03
G01 X189.8 Y29.4 F4000
M05
G00 X189.7 Y29.5
M03
G01 X189.6 Y29.5 F4000
M05
G00 X189.2 Y29.5
M03
G01 X189.1 Y29.5 F4000
M05
G00 X188.6 Y29.5
M03
G01 X188.5 Y29.5 F4000
M05
G00 X187.4 Y29.5
M03
G01 X187.1 Y29.5 F4000
M05
G00 X184.8 Y29.5
M03
G01 X184.5 Y29.5 F4000
M05
G00 X183.8 Y29.5
M03
G01 X183.5 Y29.5 F4000
M05
G00 X182.7 Y29.5
M03
G01 X182.4 Y29.5 F4000
M05
G00 X182.4 Y29.6
M03
G01 X182.7 Y29.6 F4000
M05
G00 X183.5 Y29.6
M03
G01 X183.8 Y29.6 F4000
M05
G00 X184.5 Y29.6
M03
G01 X184.8 Y29.6 F4000
M05
G00 X186.2 Y29.6
M03
G01 X186.2 Y29.6 F4000
M05
G00 X187.0 Y29.6
M03
G01 X187.3 Y29.6 F4000
M05
G00 X188.6 Y29.6
M03
G01 X188.7 Y29.6 F4000
M05
G00 X189.1 Y29.6
M03
G01 X189.7 Y29.6 F4000
M05
G00 X189.6 Y29.7
M03
G01 X189.2 Y29.7 F4000
M05
G00 X188.8 Y29.7
M03
G01 X188.6 Y29.7 F4000
M05
G00 X187.3 Y29.7
M03
G01 X187.0 Y29.7 F4000
M05
G00 X186.4 Y29.7
M03
G01 X186.1 Y29.7 F4000
M05
G00 X184.8 Y29.7
M03
G01 X184.5 Y29.7 F4000
M05
G00 X183.8 Y29.7
M03
G01 X183.5 Y29.7 F4000
M05
G00 X182.7 Y29.7
M03
G01 X182.4 Y29.7 F4000
M05
G00 X181.9 Y29.8
M03
G01 X183.2 Y29.8 F4000
M05
G00 X183.5 Y29.8
M03
G01 X183.8 Y29.8 F4000
M05
G00 X184.5 Y29.8
M03
G01 X184.8 Y29.8 F4000
M05
G00 X186.1 Y29.8
M03
G01 X187.2 Y29.8 F4000
M05
G00 X187.8 Y29.8
M03
G01 X188.2 Y29.8 F4000
M05
G00 X188.7 Y29.8
M03
G01 X188.8 Y29.8 F4000
M05
G00 X188.9 Y29.9
M03
G01 X188.8 Y29.9 F4000
M05
G00 X188.3 Y29.9
M03
G01 X188.1 Y29.9 F4000
M05
G00 X187.9 Y29.9
M03
G01 X187.7 Y29.9 F4000
M05
G00 X187.2 Y29.9
M03
G01 X186.1 Y29.9 F4000
M05
G00 X184.8 Y29.9
M03
G01 X184.5 Y29.9 F4000
M05
G00 X183.8 Y29.9
M03
G01 X183.5 Y29.9 F4000
M05
G00 X183.2 Y29.9
M03
G01 X181.9 Y29.9 F4000
M05
G00 X181.9 Y30.0
M03
G01 X183.2 Y30.0 F4000
M05
G00 X183.5 Y30.0
M03
G01 X183.8 Y30.0 F4000
M05
G00 X184.5 Y30.0
M03
G01 X184.8 Y30.0 F4000
M05
G00 X186.1 Y30.0
M03
G01 X186.4 Y30.0 F4000
M05
G00 X186.6 Y30.0
M03
G01 X187.0 Y30.0 F4000
M05
G00 X187.7 Y30.0
M03
G01 X187.8 Y30.0 F4000
M05
G00 X188.2 Y30.0
M03
G01 X188.4 Y30.0 F4000
M05
G00 X188.8 Y30.0
M03
G01 X188.9 Y30.0 F4000
M05
G00 X189.0 Y30.1
M03
G01 X188.9 Y30.1 F4000
M05
G00 X188.4 Y30.1
M03
G01 X188.2 Y30.1 F4000
M05
G00 X187.8 Y30.1
M03
G01 X187.6 Y30.1 F4000
M05
G00 X186.4 Y30.1
M03
G01 X186.2 Y30.1 F4000
M05
G00 X184.8 Y30.1
M03
G01 X184.5 Y30.1 F4000
M05
G00 X183.8 Y30.1
M03
G01 X183.5 Y30.1 F4000
M05
G00 X183.1 Y30.1
M03
G01 X181.9 Y30.1 F4000
M05
G00 X182.4 Y30.2
M03
G01 X182.7 Y30.2 F4000
M05
G00 X183.6 Y30.2
M03
G01 X183.8 Y30.2 F4000
M05
G00 X184.5 Y30.2
M03
G01 X184.8 Y30.2 F4000
M05
G00 X186.2 Y30.2
M03
G01 X186.4 Y30.2 F4000
M05
G00 X187.6 Y30.2
M03
G01 X187.8 Y30.2 F4000
M05
G00 X188.2 Y30.2
M03
G01 X188.4 Y30.2 F4000
M05
G00 X188.9 Y30.2
M03
G01 X189.1 Y30.2 F4000
M05
G00 X189.1 Y30.3
M03
G01 X189.0 Y30.3 F4000
M05
G00 X188.4 Y30.3
M03
G01 X188.2 Y30.3 F4000
M05
G00 X187.8 Y30.3
M03
G01 X187.6 Y30.3 F4000
M05
G00 X186.4 Y30.3
M03
G01 X186.2 Y30.3 F4000
M05
G00 X184.7 Y30.3
M03
G01 X184.5 Y30.3 F4000
M05
G00 X183.9 Y30.3
M03
G01 X183.6 Y30.3 F4000
M05
G00 X182.7 Y30.3
M03
G01 X182.4 Y30.3 F4000
M05
G00 X182.4 Y30.4
M03
G01 X182.7 Y30.4 F4000
M05
G00 X183.6 Y30.4
M03
G01 X183.9 Y30.4 F4000
M05
G00 X184.4 Y30.4
M03
G01 X184.7 Y30.4 F4000
M05
G00 X186.2 Y30.4
M03
G01 X186.5 Y30.4 F4000
M05
G00 X187.6 Y30.4
M03
G01 X187.8 Y30.4 F4000
M05
G00 X188.2 Y30.4
M03
G01 X188.4 Y30.4 F4000
M05
G00 X189.1 Y30.4
M03
G01 X189.2 Y30.4 F4000
M05
G00 X189.2 Y30.5
M03
G01 X189.1 Y30.5 F4000
M05
G00 X188.3 Y30.5
M03
G01 X188.2 Y30.5 F4000
M05
G00 X187.8 Y30.5
M03
G01 X187.7 Y30.5 F4000
M05
G00 X187.3 Y30.5
M03
G01 X186.2 Y30.5 F4000
M05
G00 X184.6 Y30.5
M03
G01 X183.7 Y30.5 F4000
M05
G00 X182.7 Y30.5
M03
G01 X182.4 Y30.5 F4000
M05
G00 X182.4 Y30.6
M03
G01 X182.7 Y30.6 F4000
M05
G00 X183.8 Y30.6
M03
G01 X184.6 Y30.6 F4000
M05
G00 X186.3 Y30.6
M03
G01 X187.3 Y30.6 F4000
M05
G00 X187.7 Y30.6
M03
G01 X188.3 Y30.6 F4000
M05
G00 X189.2 Y30.6
M03
G01 X189.3 Y30.6 F4000
M05
G00 X189.3 Y30.7
M03
G01 X189.2 Y30.7 F4000
M05
G00 X188.2 Y30.7
M03
G01 X187.8 Y30.7 F4000
M05
G00 X187.3 Y30.7
M03
G01 X186.3 Y30.7 F4000
M05
G00 X184.4 Y30.7
M03
G01 X183.9 Y30.7 F4000
M05
G00 X192.0 Y32.5
M03
G01 X191.6 Y32.5 F4000
M05
G00 X190.5 Y32.5
M03
G01 X190.1 Y32.5 F4000
M05
G00 X188.5 Y32.5
M03
G01 X188.4 Y32.5 F4000
M05
G00 X187.2 Y32.5
M03
G01 X187.1 Y32.5 F4000
M05
G00 X186.6 Y32.5
M03
G01 X186.5 Y32.5 F4000
M05
G00 X184.9 Y32.5
M03
G01 X184.7 Y32.5 F4000
M05
G00 X184.2 Y32.5
M03
G01 X184.1 Y32.5 F4000
M05
G00 X182.7 Y32.5
M03
G01 X182.6 Y32.5 F4000
M05
G00 X182.1 Y32.5
M03
G01 X181.0 Y32.5 F4000
M05
G00 X180.3 Y32.5
M03
G01 X179.3 Y32.5 F4000
M05
G00 X179.1 Y32.6
M03
G01 X180.4 Y32.6 F4000
M05
G00 X180.8 Y32.6
M03
G01 X182.2 Y32.6 F4000
M05
G00 X182.5 Y32.6
M03
G01 X182.8 Y32.6 F4000
M05
G00 X184.0 Y32.6
M03
G01 X184.3 Y32.6 F4000
M05
G00 X184.7 Y32.6
M03
G01 X184.9 Y32.6 F4000
M05
G00 X186.4 Y32.6
M03
G01 X186.6 Y32.6 F4000
M05
G00 X187.0 Y32.6
M03
G01 X187.2 Y32.6 F4000
M05
G00 X188.4 Y32.6
M03
G01 X188.6 Y32.6 F4000
M05
G00 X189.9 Y32.6
M03
G01 X190.7 Y32.6 F4000
M05
G00 X191.5 Y32.6
M03
G01 X192.2 Y32.6 F4000
M05
G00 X192.3 Y32.7
M03
G01 X191.4 Y32.7 F4000
M05
G00 X190.8 Y32.7
M03
G01 X189.8 Y32.7 F4000
M05
G00 X188.6 Y32.7
M03
G01 X188.3 Y32.7 F4000
M05
G00 X187.3 Y32.7
M03
G01 X187.1 Y32.7 F4000
M05
G00 X186.7 Y32.7
M03
G01 X186.4 Y32.7 F4000
M05
G00 X185.0 Y32.7
M03
G01 X184.7 Y32.7 F4000
M05
G00 X184.3 Y32.7
M03
G01 X183.9 Y32.7 F4000
M05
G00 X182.8 Y32.7
M03
G01 X182.5 Y32.7 F4000
M05
G00 X182.2 Y32.7
M03
G01 X180.8 Y32.7 F4000
M05
G00 X180.4 Y32.7
M03
G01 X179.1 Y32.7 F4000
M05
G00 X179.1 Y32.8
M03
G01 X180.4 Y32.8 F4000
M05
G00 X180.8 Y32.8
M03
G01 X182.1 Y32.8 F4000
M05
G00 X182.6 Y32.8
M03
G01 X182.9 Y32.8 F4000
M05
G00 X183.9 Y32.8
M03
G01 X184.2 Y32.8 F4000
M05
G00 X184.7 Y32.8
M03
G01 X185.0 Y32.8 F4000
M05
G00 X186.5 Y32.8
M03
G01 X186.7 Y32.8 F4000
M05
G00 X187.1 Y32.8
M03
G01 X187.3 Y32.8 F4000
M05
G00 X188.4 Y32.8
M03
G01 X188.7 Y32.8 F4000
M05
G00 X189.8 Y32.8
M03
G01 X190.1 Y32.8 F4000
M05
G00 X190.5 Y32.8
M03
G01 X190.8 Y32.8 F4000
M05
G00 X191.3 Y32.8
M03
G01 X191.6 Y32.8 F4000
M05
G00 X192.1 Y32.8
M03
G01 X192.4 Y32.8 F4000
M05
G00 X192.4 Y32.9
M03
G01 X192.2 Y32.9 F4000
M05
G00 X191.5 Y32.9
M03
G01 X191.3 Y32.9 F4000
M05
G00 X190.9 Y32.9
M03
G01 X190.6 Y32.9 F4000
M05
G00 X190.0 Y32.9
M03
G01 X189.7 Y32.9 F4000
M05
G00 X188.7 Y32.9
M03
G01 X188.4 Y32.9 F4000
M05
G00 X187.3 Y32.9
M03
G01 X187.1 Y32.9 F4000
M05
G00 X186.7 Y32.9
M03
G01 X186.5 Y32.9 F4000
M05
G00 X185.0 Y32.9
M03
G01 X184.7 Y32.9 F4000
M05
G00 X184.2 Y32.9
M03
G01 X183.9 Y32.9 F4000
M05
G00 X182.9 Y32.9
M03
G01 X182.6 Y32.9 F4000
M05
G00 X181.1 Y32.9
M03
G01 X180.8 Y32.9 F4000
M05
G00 X179.4 Y32.9
M03
G01 X179.1 Y32.9 F4000
M05
G00 X179.1 Y33.0
M03
G01 X179.4 Y33.0 F4000
M05
G00 X180.8 Y33.0
M03
G01 X181.1 Y33.0 F4000
M05
G00 X182.6 Y33.0
M03
G01 X184.2 Y33.0 F4000
M05
G00 X184.7 Y33.0
M03
G01 X185.0 Y33.0 F4000
M05
G00 X186.5 Y33.0
M03
G01 X186.8 Y33.0 F4000
M05
G00 X187.1 Y33.0
M03
G01 X187.4 Y33.0 F4000
M05
G00 X188.4 Y33.0
M03
G01 X188.7 Y33.0 F4000
M05
G00 X189.7 Y33.0
M03
G01 X190.0 Y33.0 F4000
M05
G00 X190.7 Y33.0
M03
G01 X190.9 Y33.0 F4000
M05
G00 X191.4 Y33.0
M03
G01 X191.5 Y33.0 F4000
M05
G00 X192.2 Y33.0
M03
G01 X192.5 Y33.0 F4000
M05
G00 X192.5 Y33.1
M03
G01 X192.2 Y33.1 F4000
M05
G00 X190.9 Y33.1
M03
G01 X190.7 Y33.1 F4000
M05
G00 X189.9 Y33.1
M03
G01 X189.7 Y33.1 F4000
M05
G00 X188.7 Y33.1
M03
G01 X188.4 Y33.1 F4000
M05
G00 X187.7 Y33.1
M03
G01 X186.3 Y33.1 F4000
M05
G00 X185.0 Y33.1
M03
G01 X184.7 Y33.1 F4000
M05
G00 X184.1 Y33.1
M03
G01 X182.7 Y33.1 F4000
M05
G00 X181.1 Y33.1
M03
G01 X180.8 Y33.1 F4000
M05
G00 X179.4 Y33.1
M03
G01 X179.1 Y33.1 F4000
M05
G00 X179.1 Y33.2
M03
G01 X179.4 Y33.2 F4000
M05
G00 X180.8 Y33.2
M03
G01 X181.1 Y33.2 F4000
M05
G00 X182.7 Y33.2
M03
G01 X184.1 Y33.2 F4000
M05
G00 X184.7 Y33.2
M03
G01 X185.0 Y33.2 F4000
M05
G00 X186.3 Y33.2
M03
G01 X187.7 Y33.2 F4000
M05
G00 X188.5 Y33.2
M03
G01 X188.7 Y33.2 F4000
M05
G00 X189.6 Y33.2
M03
G01 X189.9 Y33.2 F4000
M05
G00 X190.7 Y33.2
M03
G01 X190.9 Y33.2 F4000
M05
G00 X191.7 Y33.2
M03
G01 X191.8 Y33.2 F4000
M05
G00 X192.2 Y33.2
M03
G01 X192.5 Y33.2 F4000
M05
G00 X192.5 Y33.3
M03
G01 X192.3 Y33.3 F4000
M05
G00 X192.1 Y33.3
M03
G01 X191.5 Y33.3 F4000
M05
G00 X190.9 Y33.3
M03
G01 X190.7 Y33.3 F4000
M05
G00 X189.9 Y33.3
M03
G01 X189.6 Y33.3 F4000
M05
G00 X188.8 Y33.3
M03
G01 X188.5 Y33.3 F4000
M05
G00 X187.6 Y33.3
M03
G01 X186.4 Y33.3 F4000
M05
G00 X185.5 Y33.3
M03
G01 X184.7 Y33.3 F4000
M05
G00 X184.0 Y33.3
M03
G01 X183.7 Y33.3 F4000
M05
G00 X183.1 Y33.3
M03
G01 X182.7 Y33.3 F4000
M05
G00 X181.1 Y33.3
M03
G01 X180.8 Y33.3 F4000
M05
G00 X179.4 Y33.3
M03
G01 X179.1 Y33.3 F4000
M05
G00 X179.1 Y33.4
M03
G01 X179.4 Y33.4 F4000
M05
G00 X180.8 Y33.4
M03
G01 X181.1 Y33.4 F4000
M05
G00 X182.8 Y33.4
M03
G01 X183.1 Y33.4 F4000
M05
G00 X183.7 Y33.4
M03
G01 X184.0 Y33.4 F4000
M05
G00 X184.7 Y33.4
M03
G01 X185.8 Y33.4 F4000
M05
G00 X186.6 Y33.4
M03
G01 X186.8 Y33.4 F4000
M05
G00 X187.2 Y33.4
M03
G01 X187.4 Y33.4 F4000
M05
G00 X188.5 Y33.4
M03
G01 X188.8 Y33.4 F4000
M05
G00 X189.6 Y33.4
M03
G01 X190.0 Y33.4 F4000
M05
G00 X190.6 Y33.4
M03
G01 X190.9 Y33.4 F4000
M05
G00 X191.4 Y33.4
M03
G01 X192.5 Y33.4 F4000
M05
G00 X192.5 Y33.5
M03
G01 X192.0 Y33.5 F4000
M05
G00 X191.7 Y33.5
M03
G01 X191.3 Y33.5 F4000
M05
G00 X190.9 Y33.5
M03
G01 X190.5 Y33.5 F4000
M05
G00 X190.1 Y33.5
M03
G01 X189.6 Y33.5 F4000
M05
G00 X188.8 Y33.5
M03
G01 X188.6 Y33.5 F4000
M05
G00 X187.4 Y33.5
M03
G01 X187.2 Y33.5 F4000
M05
G00 X186.8 Y33.5
M03
G01 X186.6 Y33.5 F4000
M05
G00 X185.9 Y33.5
M03
G01 X184.7 Y33.5 F4000
M05
G00 X184.0 Y33.5
M03
G01 X183.7 Y33.5 F4000
M05
G00 X183.1 Y33.5
M03
G01 X182.8 Y33.5 F4000
M05
G00 X182.1 Y33.5
M03
G01 X180.8 Y33.5 F4000
M05
G00 X179.4 Y33.5
M03
G01 X179.1 Y33.5 F4000
M05
G00 X179.1 Y33.6
M03
G01 X179.4 Y33.6 F4000
M05
G00 X180.8 Y33.6
M03
G01 X182.1 Y33.6 F4000
M05
G00 X182.9 Y33.6
M03
G01 X183.1 Y33.6 F4000
M05
G00 X183.6 Y33.6
M03
G01 X183.9 Y33.6 F4000
M05
G00 X184.7 Y33.6
M03
G01 X186.0 Y33.6 F4000
M05
G00 X186.6 Y33.6
M03
G01 X186.8 Y33.6 F4000
M05
G00 X187.2 Y33.6
M03
G01 X187.4 Y33.6 F4000
M05
G00 X188.6 Y33.6
M03
G01 X188.9 Y33.6 F4000
M05
G00 X189.6 Y33.6
M03
G01 X190.8 Y33.6 F4000
M05
G00 X191.3 Y33.6
M03
G01 X191.6 Y33.6 F4000
M05
G00 X192.2 Y33.6
M03
G01 X192.5 Y33.6 F4000
M05
G00 X192.5 Y33.7
M03
G01 X192.2 Y33.7 F4000
M05
G00 X191.5 Y33.7
M03
G01 X191.2 Y33.7 F4000
M05
G00 X190.7 Y33.7
M03
G01 X190.1 Y33.7 F4000
M05
G00 X189.9 Y33.7
M03
G01 X189.6 Y33.7 F4000
M05
G00 X188.9 Y33.7
M03
G01 X188.7 Y33.7 F4000
M05
G00 X187.5 Y33.7
M03
G01 X187.2 Y33.7 F4000
M05
G00 X186.9 Y33.7
M03
G01 X186.6 Y33.7 F4000
M05
G00 X186.0 Y33.7
M03
G01 X185.7 Y33.7 F4000
M05
G00 X185.0 Y33.7
M03
G01 X184.7 Y33.7 F4000
M05
G00 X183.9 Y33.7
M03
G01 X183.6 Y33.7 F4000
M05
G00 X183.2 Y33.7
M03
G01 X182.9 Y33.7 F4000
M05
G00 X182.0 Y33.7
M03
G01 X180.8 Y33.7 F4000
M05
G00 X179.4 Y33.7
M03
G01 X179.1 Y33.7 F4000
M05
G00 X179.1 Y33.8
M03
G01 X179.4 Y33.8 F4000
M05
G00 X180.8 Y33.8
M03
G01 X181.1 Y33.8 F4000
M05
G00 X182.9 Y33.8
M03
G01 X183.2 Y33.8 F4000
M05
G00 X183.5 Y33.8
M03
G01 X183.8 Y33.8 F4000
M05
G00 X184.7 Y33.8
M03
G01 X185.0 Y33.8 F4000
M05
G00 X185.7 Y33.8
M03
G01 X186.1 Y33.8 F4000
M05
G00 X186.4 Y33.8
M03
G01 X187.7 Y33.8 F4000
M05
G00 X188.7 Y33.8
M03
G01 X189.0 Y33.8 F4000
M05
G00 X189.6 Y33.8
M03
G01 X189.9 Y33.8 F4000
M05
G00 X190.3 Y33.8
M03
G01 X190.5 Y33.8 F4000
M05
G00 X191.2 Y33.8
M03
G01 X191.5 Y33.8 F4000
M05
G00 X192.2 Y33.8
M03
G01 X192.5 Y33.8 F4000
M05
G00 X192.5 Y33.9
M03
G01 X192.2 Y33.9 F4000
M05
G00 X191.5 Y33.9
M03
G01 X191.2 Y33.9 F4000
M05
G00 X189.9 Y33.9
M03
G01 X189.7 Y33.9 F4000
M05
G00 X189.0 Y33.9
M03
G01 X188.8 Y33.9 F4000
M05
G00 X187.7 Y33.9
M03
G01 X186.3 Y33.9 F4000
M05
G00 X186.1 Y33.9
M03
G01 X185.8 Y33.9 F4000
M05
G00 X185.0 Y33.9
M03
G01 X184.7 Y33.9 F4000
M05
G00 X183.8 Y33.9
M03
G01 X183.5 Y33.9 F4000
M05
G00 X183.2 Y33.9
M03
G01 X183.0 Y33.9 F4000
M05
G00 X181.1 Y33.9
M03
G01 X180.8 Y33.9 F4000
M05
G00 X179.4 Y33.9
M03
G01 X179.1 Y33.9 F4000
M05
G00 X179.1 Y34.0
M03
G01 X179.4 Y34.0 F4000
M05
G00 X180.8 Y34.0
M03
G01 X181.1 Y34.0 F4000
M05
G00 X183.0 Y34.0
M03
G01 X183.3 Y34.0 F4000
M05
G00 X183.5 Y34.0
M03
G01 X183.8 Y34.0 F4000
M05
G00 X184.7 Y34.0
M03
G01 X185.0 Y34.0 F4000
M05
G00 X185.8 Y34.0
M03
G01 X186.1 Y34.0 F4000
M05
G00 X186.4 Y34.0
M03
G01 X187.6 Y34.0 F4000
M05
G00 X188.9 Y34.0
M03
G01 X189.1 Y34.0 F4000
M05
G00 X189.7 Y34.0
M03
G01 X190.0 Y34.0 F4000
M05
G00 X190.7 Y34.0
M03
G01 X190.8 Y34.0 F4000
M05
G00 X191.2 Y34.0
M03
G01 X191.5 Y34.0 F4000
M05
G00 X192.2 Y34.0
M03
G01 X192.5 Y34.0 F4000
M05
G00 X192.5 Y34.1
M03
G01 X192.2 Y34.1 F4000
M05
G00 X191.5 Y34.1
M03
G01 X191.3 Y34.1 F4000
M05
G00 X190.9 Y34.1
M03
G01 X190.6 Y34.1 F4000
M05
G00 X190.0 Y34.1
M03
G01 X189.7 Y34.1 F4000
M05
G00 X189.2 Y34.1
M03
G01 X188.9 Y34.1 F4000
M05
G00 X187.5 Y34.1
M03
G01 X187.3 Y34.1 F4000
M05
G00 X186.9 Y34.1
M03
G01 X186.7 Y34.1 F4000
M05
G00 X186.1 Y34.1
M03
G01 X185.7 Y34.1 F4000
M05
G00 X185.0 Y34.1
M03
G01 X184.7 Y34.1 F4000
M05
G00 X183.7 Y34.1
M03
G01 X183.0 Y34.1 F4000
M05
G00 X181.1 Y34.1
M03
G01 X180.8 Y34.1 F4000
M05
G00 X179.4 Y34.1
M03
G01 X179.1 Y34.1 F4000
M05
G00 X179.1 Y34.2
M03
G01 X179.4 Y34.2 F4000
M05
G00 X180.8 Y34.2
M03
G01 X181.1 Y34.2 F4000
M05
G00 X183.1 Y34.2
M03
G01 X183.7 Y34.2 F4000
M05
G00 X184.7 Y34.2
M03
G01 X185.0 Y34.2 F4000
M05
G00 X185.6 Y34.2
M03
G01 X186.0 Y34.2 F4000
M05
G00 X186.7 Y34.2
M03
G01 X186.9 Y34.2 F4000
M05
G00 X187.3 Y34.2
M03
G01 X187.5 Y34.2 F4000
M05
G00 X188.9 Y34.2
M03
G01 X189.3 Y34.2 F4000
M05
G00 X189.8 Y34.2
M03
G01 X190.1 Y34.2 F4000
M05
G00 X190.6 Y34.2
M03
G01 X190.8 Y34.2 F4000
M05
G00 X191.3 Y34.2
M03
G01 X191.6 Y34.2 F4000
M05
G00 X192.1 Y34.2
M03
G01 X192.4 Y34.2 F4000
M05
G00 X192.4 Y34.3
M03
G01 X191.4 Y34.3 F4000
M05
G00 X190.8 Y34.3
M03
G01 X189.8 Y34.3 F4000
M05
G00 X189.3 Y34.3
M03
G01 X188.1 Y34.3 F4000
M05
G00 X187.6 Y34.3
M03
G01 X187.4 Y34.3 F4000
M05
G00 X187.0 Y34.3
M03
G01 X186.8 Y34.3 F4000
M05
G00 X186.0 Y34.3
M03
G01 X184.7 Y34.3 F4000
M05
G00 X183.6 Y34.3
M03
G01 X183.1 Y34.3 F4000
M05
G00 X182.2 Y34.3
M03
G01 X180.8 Y34.3 F4000
M05
G00 X179.4 Y34.3
M03
G01 X179.1 Y34.3 F4000
M05
G00 X179.1 Y34.4
M03
G01 X179.4 Y34.4 F4000
M05
G00 X180.8 Y34.4
M03
G01 X182.2 Y34.4 F4000
M05
G00 X183.2 Y34.4
M03
G01 X183.6 Y34.4 F4000
M05
G00 X184.7 Y34.4
M03
G01 X185.9 Y34.4 F4000
M05
G00 X186.8 Y34.4
M03
G01 X187.0 Y34.4 F4000
M05
G00 X187.4 Y34.4
M03
G01 X187.6 Y34.4 F4000
M05
G00 X188.0 Y34.4
M03
G01 X189.3 Y34.4 F4000
M05
G00 X189.9 Y34.4
M03
G01 X190.7 Y34.4 F4000
M05
G00 X191.5 Y34.4
M03
G01 X192.3 Y34.4 F4000
M05
G00 X192.1 Y34.5
M03
G01 X191.6 Y34.5 F4000
M05
G00 X190.6 Y34.5
M03
G01 X190.1 Y34.5 F4000
M05
G00 X189.2 Y34.5
M03
G01 X188.1 Y34.5 F4000
M05
G00 X187.6 Y34.5
M03
G01 X187.4 Y34.5 F4000
M05
G00 X187.0 Y34.5
M03
G01 X186.8 Y34.5 F4000
M05
G00 X185.7 Y34.5
M03
G01 X184.7 Y34.5 F4000
M05
G00 X183.5 Y34.5
M03
G01 X183.2 Y34.5 F4000
M05
G00 X182.2 Y34.5
M03
G01 X180.9 Y34.5 F4000
M05
G00 X179.4 Y34.5
M03
G01 X179.2 Y34.5 F4000
M05
G00 X235.2 Y35.7
M03
G01 X235.0 Y35.7 F4000
M05
G00 X212.4 Y35.7
M03
G01 X212.2 Y35.7 F4000
M05
G00 X212.1 Y35.8
M03
G01 X212.4 Y35.8 F4000
M05
G00 X235.0 Y35.8
M03
G01 X235.2 Y35.8 F4000
M05
G00 X235.2 Y35.9
M03
G01 X235.0 Y35.9 F4000
M05
G00 X212.4 Y35.9
M03
G01 X212.1 Y35.9 F4000
M05
G00 X212.1 Y36.0
M03
G01 X212.4 Y36.0 F4000
M05
G00 X235.0 Y36.0
M03
G01 X235.2 Y36.0 F4000
M05
G00 X235.2 Y36.1
M03
G01 X235.0 Y36.1 F4000
M05
G00 X212.4 Y36.1
M03
G01 X212.1 Y36.1 F4000
M05
G00 X212.1 Y36.2
M03
G01 X212.4 Y36.2 F4000
M05
G00 X235.0 Y36.2
M03
G01 X235.2 Y36.2 F4000
M05
G00 X238.2 Y36.3
M03
G01 X238.1 Y36.3 F4000
M05
G00 X236.8 Y36.3
M03
G01 X236.6 Y36.3 F4000
M05
G00 X236.2 Y36.3
M03
G01 X235.9 Y36.3 F4000
M05
G00 X235.7 Y36.3
M03
G01 X235.5 Y36.3 F4000
M05
G00 X235.2 Y36.3
M03
G01 X235.0 Y36.3 F4000
M05
G00 X234.1 Y36.3
M03
G01 X233.7 Y36.3 F4000
M05
G00 X232.4 Y36.3
M03
G01 X232.0 Y36.3 F4000
M05
G00 X231.0 Y36.3
M03
G01 X230.8 Y36.3 F4000
M05
G00 X215.4 Y36.3
M03
G01 X215.2 Y36.3 F4000
M05
G00 X214.0 Y36.3
M03
G01 X213.8 Y36.3 F4000
M05
G00 X213.4 Y36.3
M03
G01 X213.1 Y36.3 F4000
M05
G00 X212.9 Y36.3
M03
G01 X212.6 Y36.3 F4000
M05
G00 X212.4 Y36.3
M03
G01 X212.1 Y36.3 F4000
M05
G00 X211.3 Y36.3
M03
G01 X210.8 Y36.3 F4000
M05
G00 X209.6 Y36.3
M03
G01 X209.2 Y36.3 F4000
M05
G00 X208.0 Y36.3
M03
G01 X207.8 Y36.3 F4000
M05
G00 X207.8 Y36.4
M03
G01 X208.0 Y36.4 F4000
M05
G00 X209.1 Y36.4
M03
G01 X209.8 Y36.4 F4000
M05
G00 X210.7 Y36.4
M03
G01 X211.4 Y36.4 F4000
M05
G00 X212.1 Y36.4
M03
G01 X213.4 Y36.4 F4000
M05
G00 X213.7 Y36.4
M03
G01 X214.0 Y36.4 F4000
M05
G00 X215.2 Y36.4
M03
G01 X215.5 Y36.4 F4000
M05
G00 X230.8 Y36.4
M03
G01 X231.0 Y36.4 F4000
M05
G00 X231.9 Y36.4
M03
G01 X232.6 Y36.4 F4000
M05
G00 X233.5 Y36.4
M03
G01 X234.2 Y36.4 F4000
M05
G00 X235.0 Y36.4
M03
G01 X236.2 Y36.4 F4000
M05
G00 X236.5 Y36.4
M03
G01 X236.8 Y36.4 F4000
M05
G00 X238.0 Y36.4
M03
G01 X238.3 Y36.4 F4000
M05
G00 X238.3 Y36.5
M03
G01 X238.0 Y36.5 F4000
M05
G00 X236.9 Y36.5
M03
G01 X236.6 Y36.5 F4000
M05
G00 X236.2 Y36.5
M03
G01 X235.0 Y36.5 F4000
M05
G00 X234.3 Y36.5
M03
G01 X233.4 Y36.5 F4000
M05
G00 X232.7 Y36.5
M03
G01 X231.8 Y36.5 F4000
M05
G00 X231.0 Y36.5
M03
G01 X230.8 Y36.5 F4000
M05
G00 X215.5 Y36.5
M03
G01 X215.1 Y36.5 F4000
M05
G00 X214.0 Y36.5
M03
G01 X213.7 Y36.5 F4000
M05
G00 X213.4 Y36.5
M03
G01 X212.1 Y36.5 F4000
M05
G00 X211.5 Y36.5
M03
G01 X210.6 Y36.5 F4000
M05
G00 X209.9 Y36.5
M03
G01 X209.0 Y36.5 F4000
M05
G00 X208.0 Y36.5
M03
G01 X207.8 Y36.5 F4000
M05
G00 X207.8 Y36.6
M03
G01 X208.0 Y36.6 F4000
M05
G00 X208.9 Y36.6
M03
G01 X209.2 Y36.6 F4000
M05
G00 X209.6 Y36.6
M03
G01 X209.9 Y36.6 F4000
M05
G00 X210.6 Y36.6
M03
G01 X210.8 Y36.6 F4000
M05
G00 X211.3 Y36.6
M03
G01 X211.6 Y36.6 F4000
M05
G00 X212.1 Y36.6
M03
G01 X212.6 Y36.6 F4000
M05
G00 X212.9 Y36.6
M03
G01 X213.4 Y36.6 F4000
M05
G00 X213.8 Y36.6
M03
G01 X214.1 Y36.6 F4000
M05
G00 X215.1 Y36.6
M03
G01 X215.4 Y36.6 F4000
M05
G00 X230.8 Y36.6
M03
G01 X231.0 Y36.6 F4000
M05
G00 X231.7 Y36.6
M03
G01 X232.0 Y36.6 F4000
M05
G00 X232.5 Y36.6
M03
G01 X232.8 Y36.6 F4000
M05
G00 X233.4 Y36.6
M03
G01 X233.7 Y36.6 F4000
M05
G00 X234.1 Y36.6
M03
G01 X234.4 Y36.6 F4000
M05
G00 X235.0 Y36.6
M03
G01 X235.4 Y36.6 F4000
M05
G00 X235.7 Y36.6
M03
G01 X236.2 Y36.6 F4000
M05
G00 X236.6 Y36.6
M03
G01 X236.9 Y36.6 F4000
M05
G00 X237.9 Y36.6
M03
G01 X238.2 Y36.6 F4000
M05
G00 X238.2 Y36.7
M03
G01 X237.9 Y36.7 F4000
M05
G00 X236.9 Y36.7
M03
G01 X236.6 Y36.7 F4000
M05
G00 X236.2 Y36.7
M03
G01 X235.8 Y36.7 F4000
M05
G00 X235.3 Y36.7
M03
G01 X235.0 Y36.7 F4000
M05
G00 X234.4 Y36.7
M03
G01 X234.2 Y36.7 F4000
M05
G00 X233.6 Y36.7
M03
G01 X233.3 Y36.7 F4000
M05
G00 X232.8 Y36.7
M03
G01 X232.5 Y36.7 F4000
M05
G00 X231.9 Y36.7
M03
G01 X231.7 Y36.7 F4000
M05
G00 X231.0 Y36.7
M03
G01 X230.7 Y36.7 F4000
M05
G00 X215.4 Y36.7
M03
G01 X215.1 Y36.7 F4000
M05
G00 X214.1 Y36.7
M03
G01 X213.8 Y36.7 F4000
M05
G00 X213.4 Y36.7
M03
G01 X213.0 Y36.7 F4000
M05
G00 X212.5 Y36.7
M03
G01 X212.1 Y36.7 F4000
M05
G00 X211.6 Y36.7
M03
G01 X211.4 Y36.7 F4000
M05
G00 X210.8 Y36.7
M03
G01 X210.5 Y36.7 F4000
M05
G00 X210.0 Y36.7
M03
G01 X209.7 Y36.7 F4000
M05
G00 X209.1 Y36.7
M03
G01 X208.9 Y36.7 F4000
M05
G00 X208.0 Y36.7
M03
G01 X207.8 Y36.7 F4000
M05
G00 X207.8 Y36.8
M03
G01 X208.0 Y36.8 F4000
M05
G00 X208.8 Y36.8
M03
G01 X209.1 Y36.8 F4000
M05
G00 X209.7 Y36.8
M03
G01 X210.0 Y36.8 F4000
M05
G00 X210.5 Y36.8
M03
G01 X210.7 Y36.8 F4000
M05
G00 X211.4 Y36.8
M03
G01 X211.7 Y36.8 F4000
M05
G00 X212.1 Y36.8
M03
G01 X212.5 Y36.8 F4000
M05
G00 X213.1 Y36.8
M03
G01 X213.4 Y36.8 F4000
M05
G00 X213.9 Y36.8
M03
G01 X215.4 Y36.8 F4000
M05
G00 X229.9 Y36.8
M03
G01 X231.3 Y36.8 F4000
M05
G00 X231.6 Y36.8
M03
G01 X231.9 Y36.8 F4000
M05
G00 X232.6 Y36.8
M03
G01 X232.8 Y36.8 F4000
M05
G00 X233.3 Y36.8
M03
G01 X233.6 Y36.8 F4000
M05
G00 X234.2 Y36.8
M03
G01 X234.5 Y36.8 F4000
M05
G00 X235.0 Y36.8
M03
G01 X235.3 Y36.8 F4000
M05
G00 X235.9 Y36.8
M03
G01 X236.2 Y36.8 F4000
M05
G00 X236.7 Y36.8
M03
G01 X238.2 Y36.8 F4000
M05
G00 X238.1 Y36.9
M03
G01 X236.7 Y36.9 F4000
M05
G00 X236.2 Y36.9
M03
G01 X235.9 Y36.9 F4000
M05
G00 X235.3 Y36.9
M03
G01 X235.0 Y36.9 F4000
M05
G00 X234.5 Y36.9
M03
G01 X234.2 Y36.9 F4000
M05
G00 X233.5 Y36.9
M03
G01 X233.3 Y36.9 F4000
M05
G00 X232.8 Y36.9
M03
G01 X232.6 Y36.9 F4000
M05
G00 X231.9 Y36.9
M03
G01 X231.6 Y36.9 F4000
M05
G00 X231.3 Y36.9
M03
G01 X229.8 Y36.9 F4000
M05
G00 X215.3 Y36.9
M03
G01 X213.9 Y36.9 F4000
M05
G00 X213.4 Y36.9
M03
G01 X213.1 Y36.9 F4000
M05
G00 X212.4 Y36.9
M03
G01 X212.1 Y36.9 F4000
M05
G00 X211.7 Y36.9
M03
G01 X211.4 Y36.9 F4000
M05
G00 X210.7 Y36.9
M03
G01 X210.5 Y36.9 F4000
M05
G00 X210.0 Y36.9
M03
G01 X209.8 Y36.9 F4000
M05
G00 X209.1 Y36.9
M03
G01 X208.8 Y36.9 F4000
M05
G00 X208.0 Y36.9
M03
G01 X207.8 Y36.9 F4000
M05
G00 X207.8 Y37.0
M03
G01 X208.0 Y37.0 F4000
M05
G00 X208.8 Y37.0
M03
G01 X209.1 Y37.0 F4000
M05
G00 X209.8 Y37.0
M03
G01 X210.0 Y37.0 F4000
M05
G00 X210.4 Y37.0
M03
G01 X210.7 Y37.0 F4000
M05
G00 X211.4 Y37.0
M03
G01 X211.7 Y37.0 F4000
M05
G00 X212.1 Y37.0
M03
G01 X212.4 Y37.0 F4000
M05
G00 X213.1 Y37.0
M03
G01 X213.4 Y37.0 F4000
M05
G00 X213.9 Y37.0
M03
G01 X215.3 Y37.0 F4000
M05
G00 X229.9 Y37.0
M03
G01 X231.2 Y37.0 F4000
M05
G00 X231.6 Y37.0
M03
G01 X231.9 Y37.0 F4000
M05
G00 X232.6 Y37.0
M03
G01 X232.9 Y37.0 F4000
M05
G00 X233.3 Y37.0
M03
G01 X233.5 Y37.0 F4000
M05
G00 X234.2 Y37.0
M03
G01 X234.5 Y37.0 F4000
M05
G00 X235.0 Y37.0
M03
G01 X235.2 Y37.0 F4000
M05
G00 X235.9 Y37.0
M03
G01 X236.2 Y37.0 F4000
M05
G00 X236.7 Y37.0
M03
G01 X238.1 Y37.0 F4000
M05
G00 X238.1 Y37.1
M03
G01 X237.7 Y37.1 F4000
M05
G00 X237.1 Y37.1
M03
G01 X236.8 Y37.1 F4000
M05
G00 X236.2 Y37.1
M03
G01 X235.9 Y37.1 F4000
M05
G00 X235.2 Y37.1
M03
G01 X235.0 Y37.1 F4000
M05
G00 X234.5 Y37.1
M03
G01 X234.2 Y37.1 F4000
M05
G00 X233.5 Y37.1
M03
G01 X233.2 Y37.1 F4000
M05
G00 X232.9 Y37.1
M03
G01 X232.6 Y37.1 F4000
M05
G00 X231.9 Y37.1
M03
G01 X231.6 Y37.1 F4000
M05
G00 X231.0 Y37.1
M03
G01 X230.8 Y37.1 F4000
M05
G00 X230.1 Y37.1
M03
G01 X229.9 Y37.1 F4000
M05
G00 X215.2 Y37.1
M03
G01 X214.9 Y37.1 F4000
M05
G00 X214.3 Y37.1
M03
G01 X214.0 Y37.1 F4000
M05
G00 X213.4 Y37.1
M03
G01 X213.1 Y37.1 F4000
M05
G00 X212.4 Y37.1
M03
G01 X212.1 Y37.1 F4000
M05
G00 X211.7 Y37.1
M03
G01 X211.4 Y37.1 F4000
M05
G00 X210.7 Y37.1
M03
G01 X210.4 Y37.1 F4000
M05
G00 X210.1 Y37.1
M03
G01 X209.8 Y37.1 F4000
M05
G00 X209.1 Y37.1
M03
G01 X208.8 Y37.1 F4000
M05
G00 X208.0 Y37.1
M03
G01 X207.8 Y37.1 F4000
M05
G00 X207.8 Y37.2
M03
G01 X208.0 Y37.2 F4000
M05
G00 X208.8 Y37.2
M03
G01 X209.0 Y37.2 F4000
M05
G00 X209.8 Y37.2
M03
G01 X210.1 Y37.2 F4000
M05
G00 X210.4 Y37.2
M03
G01 X210.7 Y37.2 F4000
M05
G00 X211.4 Y37.2
M03
G01 X211.7 Y37.2 F4000
M05
G00 X212.1 Y37.2
M03
G01 X212.4 Y37.2 F4000
M05
G00 X213.1 Y37.2
M03
G01 X213.4 Y37.2 F4000
M05
G00 X214.0 Y37.2
M03
G01 X214.3 Y37.2 F4000
M05
G00 X214.9 Y37.2
M03
G01 X215.2 Y37.2 F4000
M05
G00 X230.0 Y37.2
M03
G01 X230.2 Y37.2 F4000
M05
G00 X230.8 Y37.2
M03
G01 X231.0 Y37.2 F4000
M05
G00 X231.6 Y37.2
M03
G01 X231.9 Y37.2 F4000
M05
G00 X232.6 Y37.2
M03
G01 X232.9 Y37.2 F4000
M05
G00 X233.2 Y37.2
M03
G01 X233.5 Y37.2 F4000
M05
G00 X234.2 Y37.2
M03
G01 X234.5 Y37.2 F4000
M05
G00 X235.0 Y37.2
M03
G01 X235.2 Y37.2 F4000
M05
G00 X235.9 Y37.2
M03
G01 X236.2 Y37.2 F4000
M05
G00 X236.8 Y37.2
M03
G01 X237.1 Y37.2 F4000
M05
G00 X237.7 Y37.2
M03
G01 X238.0 Y37.2 F4000
M05
G00 X238.0 Y37.3
M03
G01 X237.7 Y37.3 F4000
M05
G00 X237.1 Y37.3
M03
G01 X236.9 Y37.3 F4000
M05
G00 X236.2 Y37.3
M03
G01 X235.9 Y37.3 F4000
M05
G00 X235.2 Y37.3
M03
G01 X235.0 Y37.3 F4000
M05
G00 X234.5 Y37.3
M03
G01 X234.3 Y37.3 F4000
M05
G00 X233.5 Y37.3
M03
G01 X233.2 Y37.3 F4000
M05
G00 X232.9 Y37.3
M03
G01 X232.6 Y37.3 F4000
M05
G00 X231.9 Y37.3
M03
G01 X231.6 Y37.3 F4000
M05
G00 X231.0 Y37.3
M03
G01 X230.8 Y37.3 F4000
M05
G00 X230.3 Y37.3
M03
G01 X230.1 Y37.3 F4000
M05
G00 X215.2 Y37.3
M03
G01 X214.9 Y37.3 F4000
M05
G00 X214.3 Y37.3
M03
G01 X214.0 Y37.3 F4000
M05
G00 X213.4 Y37.3
M03
G01 X213.1 Y37.3 F4000
M05
G00 X212.4 Y37.3
M03
G01 X212.1 Y37.3 F4000
M05
G00 X211.7 Y37.3
M03
G01 X211.4 Y37.3 F4000
M05
G00 X210.7 Y37.3
M03
G01 X210.4 Y37.3 F4000
M05
G00 X210.1 Y37.3
M03
G01 X209.8 Y37.3 F4000
M05
G00 X209.0 Y37.3
M03
G01 X208.8 Y37.3 F4000
M05
G00 X208.0 Y37.3
M03
G01 X207.8 Y37.3 F4000
M05
G00 X207.8 Y37.4
M03
G01 X208.0 Y37.4 F4000
M05
G00 X208.8 Y37.4
M03
G01 X209.1 Y37.4 F4000
M05
G00 X209.8 Y37.4
M03
G01 X210.1 Y37.4 F4000
M05
G00 X210.4 Y37.4
M03
G01 X210.7 Y37.4 F4000
M05
G00 X211.4 Y37.4
M03
G01 X211.7 Y37.4 F4000
M05
G00 X212.1 Y37.4
M03
G01 X212.4 Y37.4 F4000
M05
G00 X213.1 Y37.4
M03
G01 X213.4 Y37.4 F4000
M05
G00 X214.1 Y37.4
M03
G01 X214.4 Y37.4 F4000
M05
G00 X214.8 Y37.4
M03
G01 X215.1 Y37.4 F4000
M05
G00 X230.1 Y37.4
M03
G01 X230.4 Y37.4 F4000
M05
G00 X230.8 Y37.4
M03
G01 X231.0 Y37.4 F4000
M05
G00 X231.6 Y37.4
M03
G01 X231.9 Y37.4 F4000
M05
G00 X232.6 Y37.4
M03
G01 X232.9 Y37.4 F4000
M05
G00 X233.2 Y37.4
M03
G01 X233.5 Y37.4 F4000
M05
G00 X234.2 Y37.4
M03
G01 X234.5 Y37.4 F4000
M05
G00 X235.0 Y37.4
M03
G01 X235.2 Y37.4 F4000
M05
G00 X235.9 Y37.4
M03
G01 X236.2 Y37.4 F4000
M05
G00 X236.9 Y37.4
M03
G01 X237.2 Y37.4 F4000
M05
G00 X237.6 Y37.4
M03
G01 X237.9 Y37.4 F4000
M05
G00 X237.9 Y37.5
M03
G01 X237.6 Y37.5 F4000
M05
G00 X237.2 Y37.5
M03
G01 X236.9 Y37.5 F4000
M05
G00 X236.2 Y37.5
M03
G01 X235.9 Y37.5 F4000
M05
G00 X235.2 Y37.5
M03
G01 X235.0 Y37.5 F4000
M05
G00 X234.5 Y37.5
M03
G01 X234.2 Y37.5 F4000
M05
G00 X233.5 Y37.5
M03
G01 X233.2 Y37.5 F4000
M05
G00 X232.9 Y37.5
M03
G01 X232.6 Y37.5 F4000
M05
G00 X231.9 Y37.5
M03
G01 X231.6 Y37.5 F4000
M05
G00 X231.0 Y37.5
M03
G01 X230.8 Y37.5 F4000
M05
G00 X230.4 Y37.5
M03
G01 X230.2 Y37.5 F4000
M05
G00 X215.1 Y37.5
M03
G01 X214.8 Y37.5 F4000
M05
G00 X214.4 Y37.5
M03
G01 X214.1 Y37.5 F4000
M05
G00 X213.4 Y37.5
M03
G01 X213.1 Y37.5 F4000
M05
G00 X212.4 Y37.5
M03
G01 X212.1 Y37.5 F4000
M05
G00 X211.7 Y37.5
M03
G01 X211.4 Y37.5 F4000
M05
G00 X210.7 Y37.5
M03
G01 X210.4 Y37.5 F4000
M05
G00 X210.0 Y37.5
M03
G01 X209.8 Y37.5 F4000
M05
G00 X209.1 Y37.5
M03
G01 X208.8 Y37.5 F4000
M05
G00 X208.0 Y37.5
M03
G01 X207.8 Y37.5 F4000
M05
G00 X207.3 Y37.5
M03
G01 X207.2 Y37.5 F4000
M05
G00 X207.2 Y37.6
M03
G01 X207.5 Y37.6 F4000
M05
G00 X207.8 Y37.6
M03
G01 X208.0 Y37.6 F4000
M05
G00 X208.8 Y37.6
M03
G01 X209.1 Y37.6 F4000
M05
G00 X209.8 Y37.6
M03
G01 X210.0 Y37.6 F4000
M05
G00 X210.4 Y37.6
M03
G01 X210.7 Y37.6 F4000
M05
G00 X211.4 Y37.6
M03
G01 X211.7 Y37.6 F4000
M05
G00 X212.1 Y37.6
M03
G01 X212.4 Y37.6 F4000
M05
G00 X213.1 Y37.6
M03
G01 X213.4 Y37.6 F4000
M05
G00 X214.2 Y37.6
M03
G01 X214.4 Y37.6 F4000
M05
G00 X214.8 Y37.6
M03
G01 X215.0 Y37.6 F4000
M05
G00 X230.3 Y37.6
M03
G01 X230.5 Y37.6 F4000
M05
G00 X230.8 Y37.6
M03
G01 X231.0 Y37.6 F4000
M05
G00 X231.6 Y37.6
M03
G01 X231.9 Y37.6 F4000
M05
G00 X232.6 Y37.6
M03
G01 X232.9 Y37.6 F4000
M05
G00 X233.3 Y37.6
M03
G01 X233.5 Y37.6 F4000
M05
G00 X234.2 Y37.6
M03
G01 X234.5 Y37.6 F4000
M05
G00 X235.0 Y37.6
M03
G01 X235.2 Y37.6 F4000
M05
G00 X235.9 Y37.6
M03
G01 X236.2 Y37.6 F4000
M05
G00 X237.0 Y37.6
M03
G01 X237.2 Y37.6 F4000
M05
G00 X237.6 Y37.6
M03
G01 X237.9 Y37.6 F4000
M05
G00 X237.8 Y37.7
M03
G01 X237.5 Y37.7 F4000
M05
G00 X237.3 Y37.7
M03
G01 X237.0 Y37.7 F4000
M05
G00 X236.2 Y37.7
M03
G01 X235.9 Y37.7 F4000
M05
G00 X235.2 Y37.7
M03
G01 X235.0 Y37.7 F4000
M05
G00 X234.5 Y37.7
M03
G01 X234.2 Y37.7 F4000
M05
G00 X233.5 Y37.7
M03
G01 X233.3 Y37.7 F4000
M05
G00 X232.8 Y37.7
M03
G01 X232.6 Y37.7 F4000
M05
G00 X231.9 Y37.7
M03
G01 X231.6 Y37.7 F4000
M05
G00 X231.0 Y37.7
M03
G01 X230.8 Y37.7 F4000
M05
G00 X230.6 Y37.7
M03
G01 X230.3 Y37.7 F4000
M05
G00 X215.0 Y37.7
M03
G01 X214.7 Y37.7 F4000
M05
G00 X214.5 Y37.7
M03
G01 X214.2 Y37.7 F4000
M05
G00 X213.4 Y37.7
M03
G01 X213.1 Y37.7 F4000
M05
G00 X212.4 Y37.7
M03
G01 X212.1 Y37.7 F4000
M05
G00 X211.7 Y37.7
M03
G01 X211.4 Y37.7 F4000
M05
G00 X210.7 Y37.7
M03
G01 X210.5 Y37.7 F4000
M05
G00 X210.0 Y37.7
M03
G01 X209.8 Y37.7 F4000
M05
G00 X209.1 Y37.7
M03
G01 X208.8 Y37.7 F4000
M05
G00 X208.0 Y37.7
M03
G01 X207.2 Y37.7 F4000
M05
G00 X207.3 Y37.8
M03
G01 X208.0 Y37.8 F4000
M05
G00 X208.8 Y37.8
M03
G01 X209.1 Y37.8 F4000
M05
G00 X209.7 Y37.8
M03
G01 X210.0 Y37.8 F4000
M05
G00 X210.5 Y37.8
M03
G01 X210.7 Y37.8 F4000
M05
G00 X211.4 Y37.8
M03
G01 X211.7 Y37.8 F4000
M05
G00 X214.2 Y37.8
M03
G01 X214.5 Y37.8 F4000
M05
G00 X214.7 Y37.8
M03
G01 X215.0 Y37.8 F4000
M05
G00 X230.4 Y37.8
M03
G01 X231.0 Y37.8 F4000
M05
G00 X231.6 Y37.8
M03
G01 X231.9 Y37.8 F4000
M05
G00 X232.6 Y37.8
M03
G01 X232.8 Y37.8 F4000
M05
G00 X233.3 Y37.8
M03
G01 X233.6 Y37.8 F4000
M05
G00 X234.2 Y37.8
M03
G01 X234.5 Y37.8 F4000
M05
G00 X237.0 Y37.8
M03
G01 X237.3 Y37.8 F4000
M05
G00 X237.5 Y37.8
M03
G01 X237.8 Y37.8 F4000
M05
G00 X237.7 Y37.9
M03
G01 X237.1 Y37.9 F4000
M05
G00 X234.4 Y37.9
M03
G01 X234.2 Y37.9 F4000
M05
G00 X233.6 Y37.9
M03
G01 X233.3 Y37.9 F4000
M05
G00 X232.8 Y37.9
M03
G01 X232.5 Y37.9 F4000
M05
G00 X231.9 Y37.9
M03
G01 X231.7 Y37.9 F4000
M05
G00 X231.0 Y37.9
M03
G01 X230.5 Y37.9 F4000
M05
G00 X214.9 Y37.9
M03
G01 X214.3 Y37.9 F4000
M05
G00 X211.6 Y37.9
M03
G01 X211.4 Y37.9 F4000
M05
G00 X210.8 Y37.9
M03
G01 X210.5 Y37.9 F4000
M05
G00 X210.0 Y37.9
M03
G01 X209.7 Y37.9 F4000
M05
G00 X209.1 Y37.9
M03
G01 X208.9 Y37.9 F4000
M05
G00 X208.0 Y37.9
M03
G01 X207.5 Y37.9 F4000
M05
G00 X207.6 Y38.0
M03
G01 X208.0 Y38.0 F4000
M05
G00 X208.9 Y38.0
M03
G01 X209.2 Y38.0 F4000
M05
G00 X209.6 Y38.0
M03
G01 X209.9 Y38.0 F4000
M05
G00 X210.5 Y38.0
M03
G01 X210.9 Y38.0 F4000
M05
G00 X211.3 Y38.0
M03
G01 X211.6 Y38.0 F4000
M05
G00 X214.3 Y38.0
M03
G01 X214.9 Y38.0 F4000
M05
G00 X230.6 Y38.0
M03
G01 X231.0 Y38.0 F4000
M05
G00 X231.7 Y38.0
M03
G01 X232.0 Y38.0 F4000
M05
G00 X232.4 Y38.0
M03
G01 X232.7 Y38.0 F4000
M05
G00 X233.4 Y38.0
M03
G01 X233.7 Y38.0 F4000
M05
G00 X234.1 Y38.0
M03
G01 X234.4 Y38.0 F4000
M05
G00 X237.1 Y38.0
M03
G01 X237.7 Y38.0 F4000
M05
G00 X237.7 Y38.1
M03
G01 X237.2 Y38.1 F4000
M05
G00 X234.3 Y38.1
M03
G01 X233.4 Y38.1 F4000
M05
G00 X232.7 Y38.1
M03
G01 X231.8 Y38.1 F4000
M05
G00 X231.0 Y38.1
M03
G01 X230.6 Y38.1 F4000
M05
G00 X214.8 Y38.1
M03
G01 X214.3 Y38.1 F4000
M05
G00 X211.5 Y38.1
M03
G01 X210.6 Y38.1 F4000
M05
G00 X209.9 Y38.1
M03
G01 X209.0 Y38.1 F4000
M05
G00 X208.0 Y38.1
M03
G01 X207.7 Y38.1 F4000
M05
G00 X207.8 Y38.2
M03
G01 X208.0 Y38.2 F4000
M05
G00 X209.1 Y38.2
M03
G01 X209.8 Y38.2 F4000
M05
G00 X210.7 Y38.2
M03
G01 X211.4 Y38.2 F4000
M05
G00 X214.4 Y38.2
M03
G01 X214.8 Y38.2 F4000
M05
G00 X230.7 Y38.2
M03
G01 X231.0 Y38.2 F4000
M05
G00 X231.9 Y38.2
M03
G01 X232.6 Y38.2 F4000
M05
G00 X233.5 Y38.2
M03
G01 X234.2 Y38.2 F4000
M05
G00 X237.2 Y38.2
M03
G01 X237.6 Y38.2 F4000
M05
G00 X237.5 Y38.3
M03
G01 X237.3 Y38.3 F4000
M05
G00 X234.1 Y38.3
M03
G01 X233.7 Y38.3 F4000
M05
G00 X232.4 Y38.3
M03
G01 X232.0 Y38.3 F4000
M05
G00 X231.0 Y38.3
M03
G01 X230.8 Y38.3 F4000
M05
G00 X214.7 Y38.3
M03
G01 X214.5 Y38.3 F4000
M05
G00 X211.3 Y38.3
M03
G01 X210.9 Y38.3 F4000
M05
G00 X209.6 Y38.3
M03
G01 X209.2 Y38.3 F4000
M05
G00 X208.0 Y38.3
M03
G01 X207.9 Y38.3 F4000
M05
G00 X218.1 Y40.4
M03
G01 X218.4 Y40.4 F4000
M05
G00 X228.9 Y40.4
M03
G01 X229.2 Y40.4 F4000
M05
G00 X229.2 Y40.5
M03
G01 X228.9 Y40.5 F4000
M05
G00 X218.4 Y40.5
M03
G01 X218.1 Y40.5 F4000
M05
G00 X218.1 Y40.6
M03
G01 X218.4 Y40.6 F4000
M05
G00 X228.9 Y40.6
M03
G01 X229.2 Y40.6 F4000
M05
G00 X229.2 Y40.7
M03
G01 X228.9 Y40.7 F4000
M05
G00 X218.4 Y40.7
M03
G01 X218.1 Y40.7 F4000
M05
G00 X218.1 Y40.8
M03
G01 X218.4 Y40.8 F4000
M05
G00 X228.9 Y40.8
M03
G01 X229.2 Y40.8 F4000
M05
G00 X232.2 Y40.9
M03
G01 X232.1 Y40.9 F4000
M05
G00 X230.7 Y40.9
M03
G01 X230.6 Y40.9 F4000
M05
G00 X230.1 Y40.9
M03
G01 X229.9 Y40.9 F4000
M05
G00 X229.7 Y40.9
M03
G01 X229.4 Y40.9 F4000
M05
G00 X229.2 Y40.9
M03
G01 X228.9 Y40.9 F4000
M05
G00 X228.1 Y40.9
M03
G01 X227.7 Y40.9 F4000
M05
G00 X226.4 Y40.9
M03
G01 X226.0 Y40.9 F4000
M05
G00 X224.8 Y40.9
M03
G01 X224.3 Y40.9 F4000
M05
G00 X221.3 Y40.9
M03
G01 X221.2 Y40.9 F4000
M05
G00 X219.9 Y40.9
M03
G01 X219.7 Y40.9 F4000
M05
G00 X219.3 Y40.9
M03
G01 X219.1 Y40.9 F4000
M05
G00 X218.8 Y40.9
M03
G01 X218.6 Y40.9 F4000
M05
G00 X218.4 Y40.9
M03
G01 X218.1 Y40.9 F4000
M05
G00 X217.2 Y40.9
M03
G01 X216.8 Y40.9 F4000
M05
G00 X215.6 Y40.9
M03
G01 X215.1 Y40.9 F4000
M05
G00 X214.3 Y40.9
M03
G01 X213.2 Y40.9 F4000
M05
G00 X213.1 Y41.0
M03
G01 X214.4 Y41.0 F4000
M05
G00 X215.0 Y41.0
M03
G01 X215.7 Y41.0 F4000
M05
G00 X216.6 Y41.0
M03
G01 X217.4 Y41.0 F4000
M05
G00 X218.1 Y41.0
M03
G01 X219.3 Y41.0 F4000
M05
G00 X219.7 Y41.0
M03
G01 X219.9 Y41.0 F4000
M05
G00 X221.1 Y41.0
M03
G01 X221.4 Y41.0 F4000
M05
G00 X224.1 Y41.0
M03
G01 X225.0 Y41.0 F4000
M05
G00 X225.9 Y41.0
M03
G01 X226.6 Y41.0 F4000
M05
G00 X227.5 Y41.0
M03
G01 X228.2 Y41.0 F4000
M05
G00 X228.9 Y41.0
M03
G01 X230.2 Y41.0 F4000
M05
G00 X230.5 Y41.0
M03
G01 X230.8 Y41.0 F4000
M05
G00 X232.0 Y41.0
M03
G01 X232.3 Y41.0 F4000
M05
G00 X232.3 Y41.1
M03
G01 X231.9 Y41.1 F4000
M05
G00 X230.8 Y41.1
M03
G01 X230.5 Y41.1 F4000
M05
G00 X230.2 Y41.1
M03
G01 X228.9 Y41.1 F4000
M05
G00 X228.3 Y41.1
M03
G01 X227.4 Y41.1 F4000
M05
G00 X226.7 Y41.1
M03
G01 X225.8 Y41.1 F4000
M05
G00 X225.1 Y41.1
M03
G01 X224.1 Y41.1 F4000
M05
G00 X221.4 Y41.1
M03
G01 X221.1 Y41.1 F4000
M05
G00 X220.0 Y41.1
M03
G01 X219.7 Y41.1 F4000
M05
G00 X219.3 Y41.1
M03
G01 X218.1 Y41.1 F4000
M05
G00 X217.5 Y41.1
M03
G01 X216.6 Y41.1 F4000
M05
G00 X215.8 Y41.1
M03
G01 X214.9 Y41.1 F4000
M05
G00 X214.4 Y41.1
M03
G01 X213.1 Y41.1 F4000
M05
G00 X213.1 Y41.2
M03
G01 X214.2 Y41.2 F4000
M05
G00 X214.8 Y41.2
M03
G01 X215.1 Y41.2 F4000
M05
G00 X215.6 Y41.2
M03
G01 X215.9 Y41.2 F4000
M05
G00 X216.5 Y41.2
M03
G01 X216.8 Y41.2 F4000
M05
G00 X217.2 Y41.2
M03
G01 X217.5 Y41.2 F4000
M05
G00 X218.1 Y41.2
M03
G01 X218.5 Y41.2 F4000
M05
G00 X218.9 Y41.2
M03
G01 X219.3 Y41.2 F4000
M05
G00 X219.7 Y41.2
M03
G01 X220.0 Y41.2 F4000
M05
G00 X221.0 Y41.2
M03
G01 X221.4 Y41.2 F4000
M05
G00 X224.0 Y41.2
M03
G01 X224.3 Y41.2 F4000
M05
G00 X224.8 Y41.2
M03
G01 X225.1 Y41.2 F4000
M05
G00 X225.7 Y41.2
M03
G01 X226.0 Y41.2 F4000
M05
G00 X226.4 Y41.2
M03
G01 X226.7 Y41.2 F4000
M05
G00 X227.4 Y41.2
M03
G01 X227.6 Y41.2 F4000
M05
G00 X228.1 Y41.2
M03
G01 X228.4 Y41.2 F4000
M05
G00 X228.9 Y41.2
M03
G01 X229.4 Y41.2 F4000
M05
G00 X229.7 Y41.2
M03
G01 X230.2 Y41.2 F4000
M05
G00 X230.6 Y41.2
M03
G01 X230.9 Y41.2 F4000
M05
G00 X231.9 Y41.2
M03
G01 X232.2 Y41.2 F4000
M05
G00 X232.2 Y41.3
M03
G01 X231.9 Y41.3 F4000
M05
G00 X230.9 Y41.3
M03
G01 X230.6 Y41.3 F4000
M05
G00 X230.2 Y41.3
M03
G01 X229.8 Y41.3 F4000
M05
G00 X229.3 Y41.3
M03
G01 X228.9 Y41.3 F4000
M05
G00 X228.4 Y41.3
M03
G01 X228.2 Y41.3 F4000
M05
G00 X227.6 Y41.3
M03
G01 X227.3 Y41.3 F4000
M05
G00 X226.8 Y41.3
M03
G01 X226.5 Y41.3 F4000
M05
G00 X225.9 Y41.3
M03
G01 X225.7 Y41.3 F4000
M05
G00 X225.2 Y41.3
M03
G01 X224.9 Y41.3 F4000
M05
G00 X224.2 Y41.3
M03
G01 X223.9 Y41.3 F4000
M05
G00 X221.3 Y41.3
M03
G01 X221.0 Y41.3 F4000
M05
G00 X220.1 Y41.3
M03
G01 X219.7 Y41.3 F4000
M05
G00 X219.3 Y41.3
M03
G01 X218.9 Y41.3 F4000
M05
G00 X218.4 Y41.3
M03
G01 X218.1 Y41.3 F4000
M05
G00 X217.6 Y41.3
M03
G01 X217.3 Y41.3 F4000
M05
G00 X216.7 Y41.3
M03
G01 X216.4 Y41.3 F4000
M05
G00 X215.9 Y41.3
M03
G01 X215.6 Y41.3 F4000
M05
G00 X215.1 Y41.3
M03
G01 X214.8 Y41.3 F4000
M05
G00 X213.5 Y41.3
M03
G01 X213.2 Y41.3 F4000
M05
G00 X213.3 Y41.4
M03
G01 X213.6 Y41.4 F4000
M05
G00 X214.8 Y41.4
M03
G01 X215.0 Y41.4 F4000
M05
G00 X215.7 Y41.4
M03
G01 X215.9 Y41.4 F4000
M05
G00 X216.4 Y41.4
M03
G01 X216.7 Y41.4 F4000
M05
G00 X217.3 Y41.4
M03
G01 X217.6 Y41.4 F4000
M05
G00 X218.1 Y41.4
M03
G01 X218.4 Y41.4 F4000
M05
G00 X219.0 Y41.4
M03
G01 X219.3 Y41.4 F4000
M05
G00 X219.8 Y41.4
M03
G01 X221.3 Y41.4 F4000
M05
G00 X223.9 Y41.4
M03
G01 X224.2 Y41.4 F4000
M05
G00 X224.9 Y41.4
M03
G01 X225.2 Y41.4 F4000
M05
G00 X225.6 Y41.4
M03
G01 X225.9 Y41.4 F4000
M05
G00 X226.5 Y41.4
M03
G01 X226.8 Y41.4 F4000
M05
G00 X227.3 Y41.4
M03
G01 X227.5 Y41.4 F4000
M05
G00 X228.2 Y41.4
M03
G01 X228.5 Y41.4 F4000
M05
G00 X228.9 Y41.4
M03
G01 X229.2 Y41.4 F4000
M05
G00 X229.8 Y41.4
M03
G01 X230.2 Y41.4 F4000
M05
G00 X230.6 Y41.4
M03
G01 X232.2 Y41.4 F4000
M05
G00 X232.1 Y41.5
M03
G01 X230.7 Y41.5 F4000
M05
G00 X230.2 Y41.5
M03
G01 X229.9 Y41.5 F4000
M05
G00 X229.2 Y41.5
M03
G01 X228.9 Y41.5 F4000
M05
G00 X228.5 Y41.5
M03
G01 X228.2 Y41.5 F4000
M05
G00 X227.5 Y41.5
M03
G01 X227.3 Y41.5 F4000
M05
G00 X226.8 Y41.5
M03
G01 X226.6 Y41.5 F4000
M05
G00 X225.9 Y41.5
M03
G01 X225.6 Y41.5 F4000
M05
G00 X225.2 Y41.5
M03
G01 X224.9 Y41.5 F4000
M05
G00 X224.1 Y41.5
M03
G01 X224.0 Y41.5 F4000
M05
G00 X221.3 Y41.5
M03
G01 X219.8 Y41.5 F4000
M05
G00 X219.3 Y41.5
M03
G01 X219.0 Y41.5 F4000
M05
G00 X218.4 Y41.5
M03
G01 X218.1 Y41.5 F4000
M05
G00 X217.6 Y41.5
M03
G01 X217.4 Y41.5 F4000
M05
G00 X216.7 Y41.5
M03
G01 X216.4 Y41.5 F4000
M05
G00 X216.0 Y41.5
M03
G01 X215.7 Y41.5 F4000
M05
G00 X215.0 Y41.5
M03
G01 X214.7 Y41.5 F4000
M05
G00 X213.7 Y41.5
M03
G01 X213.4 Y41.5 F4000
M05
G00 X213.5 Y41.6
M03
G01 X213.8 Y41.6 F4000
M05
G00 X214.7 Y41.6
M03
G01 X215.0 Y41.6 F4000
M05
G00 X215.7 Y41.6
M03
G01 X216.0 Y41.6 F4000
M05
G00 X216.4 Y41.6
M03
G01 X216.6 Y41.6 F4000
M05
G00 X217.4 Y41.6
M03
G01 X217.6 Y41.6 F4000
M05
G00 X218.1 Y41.6
M03
G01 X218.4 Y41.6 F4000
M05
G00 X219.0 Y41.6
M03
G01 X219.3 Y41.6 F4000
M05
G00 X219.9 Y41.6
M03
G01 X221.2 Y41.6 F4000
M05
G00 X224.9 Y41.6
M03
G01 X225.2 Y41.6 F4000
M05
G00 X225.6 Y41.6
M03
G01 X225.9 Y41.6 F4000
M05
G00 X226.6 Y41.6
M03
G01 X226.8 Y41.6 F4000
M05
G00 X227.2 Y41.6
M03
G01 X227.5 Y41.6 F4000
M05
G00 X228.2 Y41.6
M03
G01 X228.5 Y41.6 F4000
M05
G00 X228.9 Y41.6
M03
G01 X229.2 Y41.6 F4000
M05
G00 X229.9 Y41.6
M03
G01 X230.2 Y41.6 F4000
M05
G00 X230.7 Y41.6
M03
G01 X232.1 Y41.6 F4000
M05
G00 X232.0 Y41.7
M03
G01 X231.7 Y41.7 F4000
M05
G00 X231.1 Y41.7
M03
G01 X230.8 Y41.7 F4000
M05
G00 X230.2 Y41.7
M03
G01 X229.9 Y41.7 F4000
M05
G00 X229.2 Y41.7
M03
G01 X228.9 Y41.7 F4000
M05
G00 X228.5 Y41.7
M03
G01 X228.2 Y41.7 F4000
M05
G00 X227.5 Y41.7
M03
G01 X227.2 Y41.7 F4000
M05
G00 X226.9 Y41.7
M03
G01 X226.6 Y41.7 F4000
M05
G00 X225.8 Y41.7
M03
G01 X225.6 Y41.7 F4000
M05
G00 X225.2 Y41.7
M03
G01 X224.9 Y41.7 F4000
M05
G00 X221.2 Y41.7
M03
G01 X220.8 Y41.7 F4000
M05
G00 X220.2 Y41.7
M03
G01 X219.9 Y41.7 F4000
M05
G00 X219.3 Y41.7
M03
G01 X219.0 Y41.7 F4000
M05
G00 X218.4 Y41.7
M03
G01 X218.1 Y41.7 F4000
M05
G00 X217.6 Y41.7
M03
G01 X217.4 Y41.7 F4000
M05
G00 X216.6 Y41.7
M03
G01 X216.4 Y41.7 F4000
M05
G00 X216.0 Y41.7
M03
G01 X215.7 Y41.7 F4000
M05
G00 X215.0 Y41.7
M03
G01 X214.7 Y41.7 F4000
M05
G00 X213.9 Y41.7
M03
G01 X213.6 Y41.7 F4000
M05
G00 X213.7 Y41.8
M03
G01 X214.1 Y41.8 F4000
M05
G00 X214.7 Y41.8
M03
G01 X215.0 Y41.8 F4000
M05
G00 X215.7 Y41.8
M03
G01 X216.0 Y41.8 F4000
M05
G00 X216.4 Y41.8
M03
G01 X216.6 Y41.8 F4000
M05
G00 X217.4 Y41.8
M03
G01 X217.6 Y41.8 F4000
M05
G00 X218.1 Y41.8
M03
G01 X218.4 Y41.8 F4000
M05
G00 X219.0 Y41.8
M03
G01 X219.3 Y41.8 F4000
M05
G00 X219.9 Y41.8
M03
G01 X220.2 Y41.8 F4000
M05
G00 X220.8 Y41.8
M03
G01 X221.1 Y41.8 F4000
M05
G00 X224.8 Y41.8
M03
G01 X225.1 Y41.8 F4000
M05
G00 X225.6 Y41.8
M03
G01 X225.8 Y41.8 F4000
M05
G00 X226.6 Y41.8
M03
G01 X226.9 Y41.8 F4000
M05
G00 X227.2 Y41.8
M03
G01 X227.5 Y41.8 F4000
M05
G00 X228.2 Y41.8
M03
G01 X228.5 Y41.8 F4000
M05
G00 X228.9 Y41.8
M03
G01 X229.2 Y41.8 F4000
M05
G00 X229.9 Y41.8
M03
G01 X230.2 Y41.8 F4000
M05
G00 X230.8 Y41.8
M03
G01 X231.1 Y41.8 F4000
M05
G00 X231.7 Y41.8
M03
G01 X232.0 Y41.8 F4000
M05
G00 X232.0 Y41.9
M03
G01 X231.7 Y41.9 F4000
M05
G00 X231.1 Y41.9
M03
G01 X230.8 Y41.9 F4000
M05
G00 X230.2 Y41.9
M03
G01 X229.9 Y41.9 F4000
M05
G00 X229.2 Y41.9
M03
G01 X228.9 Y41.9 F4000
M05
G00 X228.5 Y41.9
M03
G01 X228.2 Y41.9 F4000
M05
G00 X227.5 Y41.9
M03
G01 X227.2 Y41.9 F4000
M05
G00 X226.9 Y41.9
M03
G01 X226.6 Y41.9 F4000
M05
G00 X225.8 Y41.9
M03
G01 X225.6 Y41.9 F4000
M05
G00 X225.0 Y41.9
M03
G01 X224.3 Y41.9 F4000
M05
G00 X221.1 Y41.9
M03
G01 X220.8 Y41.9 F4000
M05
G00 X220.3 Y41.9
M03
G01 X220.0 Y41.9 F4000
M05
G00 X219.3 Y41.9
M03
G01 X219.0 Y41.9 F4000
M05
G00 X218.4 Y41.9
M03
G01 X218.1 Y41.9 F4000
M05
G00 X217.6 Y41.9
M03
G01 X217.4 Y41.9 F4000
M05
G00 X216.6 Y41.9
M03
G01 X216.4 Y41.9 F4000
M05
G00 X216.0 Y41.9
M03
G01 X215.7 Y41.9 F4000
M05
G00 X215.0 Y41.9
M03
G01 X214.7 Y41.9 F4000
M05
G00 X214.2 Y41.9
M03
G01 X213.8 Y41.9 F4000
M05
G00 X213.9 Y42.0
M03
G01 X214.2 Y42.0 F4000
M05
G00 X214.7 Y42.0
M03
G01 X215.0 Y42.0 F4000
M05
G00 X215.7 Y42.0
M03
G01 X216.0 Y42.0 F4000
M05
G00 X216.4 Y42.0
M03
G01 X216.6 Y42.0 F4000
M05
G00 X217.4 Y42.0
M03
G01 X217.6 Y42.0 F4000
M05
G00 X218.1 Y42.0
M03
G01 X218.4 Y42.0 F4000
M05
G00 X219.0 Y42.0
M03
G01 X219.3 Y42.0 F4000
M05
G00 X220.0 Y42.0
M03
G01 X220.3 Y42.0 F4000
M05
G00 X220.8 Y42.0
M03
G01 X221.1 Y42.0 F4000
M05
G00 X224.3 Y42.0
M03
G01 X224.9 Y42.0 F4000
M05
G00 X225.6 Y42.0
M03
G01 X225.8 Y42.0 F4000
M05
G00 X226.6 Y42.0
M03
G01 X226.9 Y42.0 F4000
M05
G00 X227.2 Y42.0
M03
G01 X227.5 Y42.0 F4000
M05
G00 X228.2 Y42.0
M03
G01 X228.5 Y42.0 F4000
M05
G00 X228.9 Y42.0
M03
G01 X229.2 Y42.0 F4000
M05
G00 X229.9 Y42.0
M03
G01 X230.2 Y42.0 F4000
M05
G00 X230.9 Y42.0
M03
G01 X231.2 Y42.0 F4000
M05
G00 X231.6 Y42.0
M03
G01 X231.9 Y42.0 F4000
M05
G00 X231.9 Y42.1
M03
G01 X231.6 Y42.1 F4000
M05
G00 X231.2 Y42.1
M03
G01 X230.9 Y42.1 F4000
M05
G00 X230.2 Y42.1
M03
G01 X229.9 Y42.1 F4000
M05
G00 X229.2 Y42.1
M03
G01 X228.9 Y42.1 F4000
M05
G00 X228.5 Y42.1
M03
G01 X228.2 Y42.1 F4000
M05
G00 X227.5 Y42.1
M03
G01 X227.2 Y42.1 F4000
M05
G00 X226.8 Y42.1
M03
G01 X226.6 Y42.1 F4000
M05
G00 X225.9 Y42.1
M03
G01 X225.6 Y42.1 F4000
M05
G00 X225.0 Y42.1
M03
G01 X224.4 Y42.1 F4000
M05
G00 X221.0 Y42.1
M03
G01 X220.7 Y42.1 F4000
M05
G00 X220.3 Y42.1
M03
G01 X220.1 Y42.1 F4000
M05
G00 X219.3 Y42.1
M03
G01 X219.0 Y42.1 F4000
M05
G00 X218.4 Y42.1
M03
G01 X218.1 Y42.1 F4000
M05
G00 X217.6 Y42.1
M03
G01 X217.4 Y42.1 F4000
M05
G00 X216.6 Y42.1
M03
G01 X216.4 Y42.1 F4000
M05
G00 X216.0 Y42.1
M03
G01 X215.7 Y42.1 F4000
M05
G00 X215.0 Y42.1
M03
G01 X214.7 Y42.1 F4000
M05
G00 X214.3 Y42.1
M03
G01 X214.0 Y42.1 F4000
M05
G00 X213.2 Y42.2
M03
G01 X213.2 Y42.2 F4000
M05
G00 X214.0 Y42.2
M03
G01 X214.3 Y42.2 F4000
M05
G00 X214.7 Y42.2
M03
G01 X215.0 Y42.2 F4000
M05
G00 X215.7 Y42.2
M03
G01 X216.0 Y42.2 F4000
M05
G00 X216.4 Y42.2
M03
G01 X216.6 Y42.2 F4000
M05
G00 X217.4 Y42.2
M03
G01 X217.6 Y42.2 F4000
M05
G00 X218.1 Y42.2
M03
G01 X218.4 Y42.2 F4000
M05
G00 X219.0 Y42.2
M03
G01 X219.3 Y42.2 F4000
M05
G00 X220.1 Y42.2
M03
G01 X220.4 Y42.2 F4000
M05
G00 X220.7 Y42.2
M03
G01 X221.0 Y42.2 F4000
M05
G00 X224.8 Y42.2
M03
G01 X225.1 Y42.2 F4000
M05
G00 X225.6 Y42.2
M03
G01 X225.9 Y42.2 F4000
M05
G00 X226.6 Y42.2
M03
G01 X226.8 Y42.2 F4000
M05
G00 X227.2 Y42.2
M03
G01 X227.5 Y42.2 F4000
M05
G00 X228.2 Y42.2
M03
G01 X228.5 Y42.2 F4000
M05
G00 X228.9 Y42.2
M03
G01 X229.2 Y42.2 F4000
M05
G00 X229.9 Y42.2
M03
G01 X230.2 Y42.2 F4000
M05
G00 X230.9 Y42.2
M03
G01 X231.2 Y42.2 F4000
M05
G00 X231.6 Y42.2
M03
G01 X231.8 Y42.2 F4000
M05
G00 X231.8 Y42.3
M03
G01 X231.5 Y42.3 F4000
M05
G00 X231.3 Y42.3
M03
G01 X231.0 Y42.3 F4000
M05
G00 X230.2 Y42.3
M03
G01 X229.9 Y42.3 F4000
M05
G00 X229.2 Y42.3
M03
G01 X228.9 Y42.3 F4000
M05
G00 X228.5 Y42.3
M03
G01 X228.2 Y42.3 F4000
M05
G00 X227.5 Y42.3
M03
G01 X227.2 Y42.3 F4000
M05
G00 X226.8 Y42.3
M03
G01 X226.6 Y42.3 F4000
M05
G00 X225.9 Y42.3
M03
G01 X225.6 Y42.3 F4000
M05
G00 X225.1 Y42.3
M03
G01 X224.8 Y42.3 F4000
M05
G00 X220.9 Y42.3
M03
G01 X220.7 Y42.3 F4000
M05
G00 X220.4 Y42.3
M03
G01 X220.1 Y42.3 F4000
M05
G00 X219.3 Y42.3
M03
G01 X219.0 Y42.3 F4000
M05
G00 X218.4 Y42.3
M03
G01 X218.1 Y42.3 F4000
M05
G00 X217.6 Y42.3
M03
G01 X217.4 Y42.3 F4000
M05
G00 X216.7 Y42.3
M03
G01 X216.4 Y42.3 F4000
M05
G00 X216.0 Y42.3
M03
G01 X215.7 Y42.3 F4000
M05
G00 X215.0 Y42.3
M03
G01 X214.7 Y42.3 F4000
M05
G00 X214.3 Y42.3
M03
G01 X214.1 Y42.3 F4000
M05
G00 X213.3 Y42.3
M03
G01 X213.1 Y42.3 F4000
M05
G00 X213.1 Y42.4
M03
G01 X213.3 Y42.4 F4000
M05
G00 X214.1 Y42.4
M03
G01 X214.3 Y42.4 F4000
M05
G00 X214.8 Y42.4
M03
G01 X215.0 Y42.4 F4000
M05
G00 X215.7 Y42.4
M03
G01 X215.9 Y42.4 F4000
M05
G00 X216.4 Y42.4
M03
G01 X216.7 Y42.4 F4000
M05
G00 X217.3 Y42.4
M03
G01 X217.6 Y42.4 F4000
M05
G00 X220.2 Y42.4
M03
G01 X220.4 Y42.4 F4000
M05
G00 X220.6 Y42.4
M03
G01 X220.9 Y42.4 F4000
M05
G00 X224.0 Y42.4
M03
G01 X224.2 Y42.4 F4000
M05
G00 X224.8 Y42.4
M03
G01 X225.1 Y42.4 F4000
M05
G00 X225.6 Y42.4
M03
G01 X225.9 Y42.4 F4000
M05
G00 X226.5 Y42.4
M03
G01 X226.8 Y42.4 F4000
M05
G00 X227.3 Y42.4
M03
G01 X227.5 Y42.4 F4000
M05
G00 X228.2 Y42.4
M03
G01 X228.5 Y42.4 F4000
M05
G00 X231.0 Y42.4
M03
G01 X231.3 Y42.4 F4000
M05
G00 X231.5 Y42.4
M03
G01 X231.8 Y42.4 F4000
M05
G00 X231.7 Y42.5
M03
G01 X231.1 Y42.5 F4000
M05
G00 X228.4 Y42.5
M03
G01 X228.2 Y42.5 F4000
M05
G00 X227.6 Y42.5
M03
G01 X227.3 Y42.5 F4000
M05
G00 X226.8 Y42.5
M03
G01 X226.5 Y42.5 F4000
M05
G00 X225.9 Y42.5
M03
G01 X225.6 Y42.5 F4000
M05
G00 X225.1 Y42.5
M03
G01 X224.8 Y42.5 F4000
M05
G00 X224.2 Y42.5
M03
G01 X224.0 Y42.5 F4000
M05
G00 X220.9 Y42.5
M03
G01 X220.2 Y42.5 F4000
M05
G00 X217.6 Y42.5
M03
G01 X217.3 Y42.5 F4000
M05
G00 X216.7 Y42.5
M03
G01 X216.4 Y42.5 F4000
M05
G00 X215.9 Y42.5
M03
G01 X215.6 Y42.5 F4000
M05
G00 X215.1 Y42.5
M03
G01 X214.8 Y42.5 F4000
M05
G00 X214.3 Y42.5
M03
G01 X214.0 Y42.5 F4000
M05
G00 X213.4 Y42.5
M03
G01 X213.1 Y42.5 F4000
M05
G00 X213.1 Y42.6
M03
G01 X213.5 Y42.6 F4000
M05
G00 X213.9 Y42.6
M03
G01 X214.3 Y42.6 F4000
M05
G00 X214.8 Y42.6
M03
G01 X215.1 Y42.6 F4000
M05
G00 X215.6 Y42.6
M03
G01 X215.9 Y42.6 F4000
M05
G00 X216.5 Y42.6
M03
G01 X216.8 Y42.6 F4000
M05
G00 X217.2 Y42.6
M03
G01 X217.5 Y42.6 F4000
M05
G00 X220.2 Y42.6
M03
G01 X220.8 Y42.6 F4000
M05
G00 X224.0 Y42.6
M03
G01 X224.3 Y42.6 F4000
M05
G00 X224.8 Y42.6
M03
G01 X225.1 Y42.6 F4000
M05
G00 X225.7 Y42.6
M03
G01 X226.0 Y42.6 F4000
M05
G00 X226.4 Y42.6
M03
G01 X226.7 Y42.6 F4000
M05
G00 X227.3 Y42.6
M03
G01 X227.6 Y42.6 F4000
M05
G00 X228.1 Y42.6
M03
G01 X228.4 Y42.6 F4000
M05
G00 X231.1 Y42.6
M03
G01 X231.7 Y42.6 F4000
M05
G00 X231.6 Y42.7
M03
G01 X231.1 Y42.7 F4000
M05
G00 X228.3 Y42.7
M03
G01 X227.4 Y42.7 F4000
M05
G00 X226.7 Y42.7
M03
G01 X225.7 Y42.7 F4000
M05
G00 X225.0 Y42.7
M03
G01 X224.1 Y42.7 F4000
M05
G00 X220.8 Y42.7
M03
G01 X220.3 Y42.7 F4000
M05
G00 X217.5 Y42.7
M03
G01 X216.5 Y42.7 F4000
M05
G00 X215.8 Y42.7
M03
G01 X214.9 Y42.7 F4000
M05
G00 X214.2 Y42.7
M03
G01 X213.2 Y42.7 F4000
M05
G00 X213.3 Y42.8
M03
G01 X214.1 Y42.8 F4000
M05
G00 X215.0 Y42.8
M03
G01 X215.7 Y42.8 F4000
M05
G00 X216.6 Y42.8
M03
G01 X217.4 Y42.8 F4000
M05
G00 X220.3 Y42.8
M03
G01 X220.7 Y42.8 F4000
M05
G00 X224.2 Y42.8
M03
G01 X225.0 Y42.8 F4000
M05
G00 X225.8 Y42.8
M03
G01 X226.6 Y42.8 F4000
M05
G00 X227.5 Y42.8
M03
G01 X228.2 Y42.8 F4000
M05
G00 X231.2 Y42.8
M03
G01 X231.6 Y42.8 F4000
M05
G00 X231.5 Y42.9
M03
G01 X231.3 Y42.9 F4000
M05
G00 X228.1 Y42.9
M03
G01 X227.6 Y42.9 F4000
M05
G00 X226.4 Y42.9
M03
G01 X226.0 Y42.9 F4000
M05
G00 X224.8 Y42.9
M03
G01 X224.3 Y42.9 F4000
M05
G00 X220.7 Y42.9
M03
G01 X220.4 Y42.9 F4000
M05
G00 X217.2 Y42.9
M03
G01 X216.8 Y42.9 F4000
M05
G00 X215.6 Y42.9
M03
G01 X215.1 Y42.9 F4000
M05
G00 X214.0 Y42.9
M03
G01 X213.5 Y42.9 F4000
M05
G00 X183.2 Y46.8
M03
G01 X183.4 Y46.8 F4000
M05
G00 X185.5 Y46.8
M03
G01 X185.6 Y46.8 F4000
M05
G00 X186.9 Y46.8
M03
G01 X186.9 Y46.8 F4000
M05
G00 X190.5 Y46.8
M03
G01 X190.7 Y46.8 F4000
M05
G00 X193.0 Y46.8
M03
G01 X193.1 Y46.8 F4000
M05
G00 X194.0 Y46.8
M03
G01 X194.1 Y46.8 F4000
M05
G00 X195.1 Y46.8
M03
G01 X195.1 Y46.8 F4000
M05
G00 X196.9 Y46.8
M03
G01 X196.9 Y46.8 F4000
M05
G00 X199.3 Y46.8
M03
G01 X199.5 Y46.8 F4000
M05
G00 X201.1 Y46.8
M03
G01 X201.1 Y46.8 F4000
M05
G00 X202.5 Y46.8
M03
G01 X202.5 Y46.8 F4000
M05
G00 X204.0 Y46.8
M03
G01 X204.2 Y46.8 F4000
M05
G00 X206.2 Y46.8
M03
G01 X206.2 Y46.8 F4000
M05
G00 X208.1 Y46.8
M03
G01 X208.1 Y46.8 F4000
M05
G00 X209.7 Y46.8
M03
G01 X209.9 Y46.8 F4000
M05
G00 X211.6 Y46.8
M03
G01 X211.6 Y46.8 F4000
M05
G00 X213.5 Y46.8
M03
G01 X213.7 Y46.8 F4000
M05
G00 X215.3 Y46.8
M03
G01 X215.4 Y46.8 F4000
M05
G00 X217.7 Y46.8
M03
G01 X217.9 Y46.8 F4000
M05
G00 X219.5 Y46.8
M03
G01 X219.5 Y46.8 F4000
M05
G00 X221.0 Y46.8
M03
G01 X221.0 Y46.8 F4000
M05
G00 X222.7 Y46.8
M03
G01 X222.8 Y46.8 F4000
M05
G00 X225.2 Y46.8
M03
G01 X225.4 Y46.8 F4000
M05
G00 X225.8 Y46.9
M03
G01 X224.8 Y46.9 F4000
M05
G00 X223.3 Y46.9
M03
G01 X222.3 Y46.9 F4000
M05
G00 X221.1 Y46.9
M03
G01 X220.8 Y46.9 F4000
M05
G00 X219.7 Y46.9
M03
G01 X219.4 Y46.9 F4000
M05
G00 X218.3 Y46.9
M03
G01 X217.3 Y46.9 F4000
M05
G00 X215.5 Y46.9
M03
G01 X215.2 Y46.9 F4000
M05
G00 X214.1 Y46.9
M03
G01 X213.1 Y46.9 F4000
M05
G00 X211.8 Y46.9
M03
G01 X211.5 Y46.9 F4000
M05
G00 X210.3 Y46.9
M03
G01 X209.3 Y46.9 F4000
M05
G00 X208.3 Y46.9
M03
G01 X207.9 Y46.9 F4000
M05
G00 X206.4 Y46.9
M03
G01 X206.0 Y46.9 F4000
M05
G00 X204.5 Y46.9
M03
G01 X203.7 Y46.9 F4000
M05
G00 X202.7 Y46.9
M03
G01 X202.4 Y46.9 F4000
M05
G00 X201.3 Y46.9
M03
G01 X200.9 Y46.9 F4000
M05
G00 X199.9 Y46.9
M03
G01 X198.9 Y46.9 F4000
M05
G00 X197.1 Y46.9
M03
G01 X196.8 Y46.9 F4000
M05
G00 X195.3 Y46.9
M03
G01 X195.0 Y46.9 F4000
M05
G00 X194.2 Y46.9
M03
G01 X193.9 Y46.9 F4000
M05
G00 X193.4 Y46.9
M03
G01 X192.7 Y46.9 F4000
M05
G00 X191.1 Y46.9
M03
G01 X190.0 Y46.9 F4000
M05
G00 X187.1 Y46.9
M03
G01 X186.7 Y46.9 F4000
M05
G00 X185.7 Y46.9
M03
G01 X185.3 Y46.9 F4000
M05
G00 X183.7 Y46.9
M03
G01 X182.8 Y46.9 F4000
M05
G00 X181.8 Y46.9
M03
G01 X180.0 Y46.9 F4000
M05
G00 X179.9 Y47.0
M03
G01 X181.9 Y47.0 F4000
M05
G00 X182.7 Y47.0
M03
G01 X183.9 Y47.0 F4000
M05
G00 X185.3 Y47.0
M03
G01 X185.8 Y47.0 F4000
M05
G00 X186.7 Y47.0
M03
G01 X187.2 Y47.0 F4000
M05
G00 X189.9 Y47.0
M03
G01 X191.3 Y47.0 F4000
M05
G00 X192.6 Y47.0
M03
G01 X193.6 Y47.0 F4000
M05
G00 X193.9 Y47.0
M03
G01 X194.2 Y47.0 F4000
M05
G00 X194.9 Y47.0
M03
G01 X195.3 Y47.0 F4000
M05
G00 X196.7 Y47.0
M03
G01 X197.1 Y47.0 F4000
M05
G00 X198.7 Y47.0
M03
G01 X200.0 Y47.0 F4000
M05
G00 X200.9 Y47.0
M03
G01 X201.3 Y47.0 F4000
M05
G00 X202.3 Y47.0
M03
G01 X202.7 Y47.0 F4000
M05
G00 X203.6 Y47.0
M03
G01 X204.6 Y47.0 F4000
M05
G00 X206.0 Y47.0
M03
G01 X206.4 Y47.0 F4000
M05
G00 X207.8 Y47.0
M03
G01 X208.3 Y47.0 F4000
M05
G00 X209.2 Y47.0
M03
G01 X210.5 Y47.0 F4000
M05
G00 X211.4 Y47.0
M03
G01 X211.8 Y47.0 F4000
M05
G00 X213.0 Y47.0
M03
G01 X214.3 Y47.0 F4000
M05
G00 X215.1 Y47.0
M03
G01 X215.6 Y47.0 F4000
M05
G00 X217.2 Y47.0
M03
G01 X218.5 Y47.0 F4000
M05
G00 X219.3 Y47.0
M03
G01 X219.8 Y47.0 F4000
M05
G00 X220.8 Y47.0
M03
G01 X221.2 Y47.0 F4000
M05
G00 X222.2 Y47.0
M03
G01 X223.4 Y47.0 F4000
M05
G00 X224.6 Y47.0
M03
G01 X225.9 Y47.0 F4000
M05
G00 X226.1 Y47.1
M03
G01 X224.5 Y47.1 F4000
M05
G00 X223.6 Y47.1
M03
G01 X222.0 Y47.1 F4000
M05
G00 X221.2 Y47.1
M03
G01 X220.7 Y47.1 F4000
M05
G00 X219.8 Y47.1
M03
G01 X219.3 Y47.1 F4000
M05
G00 X218.6 Y47.1
M03
G01 X217.1 Y47.1 F4000
M05
G00 X215.6 Y47.1
M03
G01 X215.1 Y47.1 F4000
M05
G00 X214.4 Y47.1
M03
G01 X212.9 Y47.1 F4000
M05
G00 X211.9 Y47.1
M03
G01 X211.4 Y47.1 F4000
M05
G00 X210.6 Y47.1
M03
G01 X209.0 Y47.1 F4000
M05
G00 X208.3 Y47.1
M03
G01 X207.8 Y47.1 F4000
M05
G00 X206.5 Y47.1
M03
G01 X206.0 Y47.1 F4000
M05
G00 X204.6 Y47.1
M03
G01 X203.6 Y47.1 F4000
M05
G00 X202.8 Y47.1
M03
G01 X202.3 Y47.1 F4000
M05
G00 X201.3 Y47.1
M03
G01 X200.9 Y47.1 F4000
M05
G00 X200.1 Y47.1
M03
G01 X198.6 Y47.1 F4000
M05
G00 X197.1 Y47.1
M03
G01 X196.7 Y47.1 F4000
M05
G00 X195.4 Y47.1
M03
G01 X194.9 Y47.1 F4000
M05
G00 X194.3 Y47.1
M03
G01 X192.5 Y47.1 F4000
M05
G00 X191.4 Y47.1
M03
G01 X189.7 Y47.1 F4000
M05
G00 X187.2 Y47.1
M03
G01 X186.6 Y47.1 F4000
M05
G00 X185.8 Y47.1
M03
G01 X185.2 Y47.1 F4000
M05
G00 X184.0 Y47.1
M03
G01 X182.5 Y47.1 F4000
M05
G00 X181.9 Y47.1
M03
G01 X179.9 Y47.1 F4000
M05
G00 X179.9 Y47.2
M03
G01 X181.9 Y47.2 F4000
M05
G00 X182.5 Y47.2
M03
G01 X184.1 Y47.2 F4000
M05
G00 X185.2 Y47.2
M03
G01 X185.9 Y47.2 F4000
M05
G00 X186.6 Y47.2
M03
G01 X187.2 Y47.2 F4000
M05
G00 X189.6 Y47.2
M03
G01 X191.5 Y47.2 F4000
M05
G00 X192.4 Y47.2
M03
G01 X194.3 Y47.2 F4000
M05
G00 X194.9 Y47.2
M03
G01 X195.4 Y47.2 F4000
M05
G00 X196.7 Y47.2
M03
G01 X197.1 Y47.2 F4000
M05
G00 X198.5 Y47.2
M03
G01 X199.2 Y47.2 F4000
M05
G00 X199.6 Y47.2
M03
G01 X200.2 Y47.2 F4000
M05
G00 X200.9 Y47.2
M03
G01 X201.3 Y47.2 F4000
M05
G00 X202.3 Y47.2
M03
G01 X202.8 Y47.2 F4000
M05
G00 X203.5 Y47.2
M03
G01 X204.5 Y47.2 F4000
M05
G00 X206.0 Y47.2
M03
G01 X206.5 Y47.2 F4000
M05
G00 X207.7 Y47.2
M03
G01 X208.3 Y47.2 F4000
M05
G00 X209.0 Y47.2
M03
G01 X209.6 Y47.2 F4000
M05
G00 X210.0 Y47.2
M03
G01 X210.6 Y47.2 F4000
M05
G00 X211.4 Y47.2
M03
G01 X211.9 Y47.2 F4000
M05
G00 X212.8 Y47.2
M03
G01 X213.4 Y47.2 F4000
M05
G00 X213.8 Y47.2
M03
G01 X214.5 Y47.2 F4000
M05
G00 X215.1 Y47.2
M03
G01 X215.6 Y47.2 F4000
M05
G00 X217.0 Y47.2
M03
G01 X217.6 Y47.2 F4000
M05
G00 X218.0 Y47.2
M03
G01 X218.7 Y47.2 F4000
M05
G00 X219.3 Y47.2
M03
G01 X219.8 Y47.2 F4000
M05
G00 X220.7 Y47.2
M03
G01 X221.2 Y47.2 F4000
M05
G00 X222.0 Y47.2
M03
G01 X223.6 Y47.2 F4000
M05
G00 X224.4 Y47.2
M03
G01 X225.1 Y47.2 F4000
M05
G00 X225.5 Y47.2
M03
G01 X226.1 Y47.2 F4000
M05
G00 X226.2 Y47.3
M03
G01 X225.7 Y47.3 F4000
M05
G00 X224.9 Y47.3
M03
G01 X224.4 Y47.3 F4000
M05
G00 X223.7 Y47.3
M03
G01 X223.1 Y47.3 F4000
M05
G00 X222.5 Y47.3
M03
G01 X221.9 Y47.3 F4000
M05
G00 X221.2 Y47.3
M03
G01 X220.7 Y47.3 F4000
M05
G00 X219.8 Y47.3
M03
G01 X219.3 Y47.3 F4000
M05
G00 X218.7 Y47.3
M03
G01 X218.2 Y47.3 F4000
M05
G00 X217.4 Y47.3
M03
G01 X216.9 Y47.3 F4000
M05
G00 X215.6 Y47.3
M03
G01 X215.1 Y47.3 F4000
M05
G00 X214.5 Y47.3
M03
G01 X214.0 Y47.3 F4000
M05
G00 X213.2 Y47.3
M03
G01 X212.7 Y47.3 F4000
M05
G00 X211.9 Y47.3
M03
G01 X211.4 Y47.3 F4000
M05
G00 X210.7 Y47.3
M03
G01 X210.2 Y47.3 F4000
M05
G00 X209.4 Y47.3
M03
G01 X208.9 Y47.3 F4000
M05
G00 X208.3 Y47.3
M03
G01 X207.7 Y47.3 F4000
M05
G00 X206.5 Y47.3
M03
G01 X206.0 Y47.3 F4000
M05
G00 X204.0 Y47.3
M03
G01 X203.5 Y47.3 F4000
M05
G00 X202.8 Y47.3
M03
G01 X202.3 Y47.3 F4000
M05
G00 X201.3 Y47.3
M03
G01 X200.9 Y47.3 F4000
M05
G00 X200.3 Y47.3
M03
G01 X199.8 Y47.3 F4000
M05
G00 X199.0 Y47.3
M03
G01 X198.5 Y47.3 F4000
M05
G00 X197.1 Y47.3
M03
G01 X196.7 Y47.3 F4000
M05
G00 X195.4 Y47.3
M03
G01 X194.9 Y47.3 F4000
M05
G00 X194.3 Y47.3
M03
G01 X193.5 Y47.3 F4000
M05
G00 X193.0 Y47.3
M03
G01 X192.4 Y47.3 F4000
M05
G00 X191.6 Y47.3
M03
G01 X190.8 Y47.3 F4000
M05
G00 X190.4 Y47.3
M03
G01 X189.5 Y47.3 F4000
M05
G00 X187.3 Y47.3
M03
G01 X186.6 Y47.3 F4000
M05
G00 X185.9 Y47.3
M03
G01 X185.2 Y47.3 F4000
M05
G00 X184.2 Y47.3
M03
G01 X183.6 Y47.3 F4000
M05
G00 X183.0 Y47.3
M03
G01 X182.4 Y47.3 F4000
M05
G00 X181.8 Y47.3
M03
G01 X179.9 Y47.3 F4000
M05
G00 X179.9 Y47.4
M03
G01 X180.4 Y47.4 F4000
M05
G00 X182.3 Y47.4
M03
G01 X182.8 Y47.4 F4000
M05
G00 X183.7 Y47.4
M03
G01 X184.2 Y47.4 F4000
M05
G00 X185.1 Y47.4
M03
G01 X185.9 Y47.4 F4000
M05
G00 X186.6 Y47.4
M03
G01 X187.3 Y47.4 F4000
M05
G00 X189.5 Y47.4
M03
G01 X190.1 Y47.4 F4000
M05
G00 X191.0 Y47.4
M03
G01 X191.7 Y47.4 F4000
M05
G00 X192.4 Y47.4
M03
G01 X192.9 Y47.4 F4000
M05
G00 X193.7 Y47.4
M03
G01 X194.3 Y47.4 F4000
M05
G00 X194.9 Y47.4
M03
G01 X195.4 Y47.4 F4000
M05
G00 X196.7 Y47.4
M03
G01 X197.1 Y47.4 F4000
M05
G00 X198.4 Y47.4
M03
G01 X198.9 Y47.4 F4000
M05
G00 X199.9 Y47.4
M03
G01 X200.3 Y47.4 F4000
M05
G00 X200.9 Y47.4
M03
G01 X201.3 Y47.4 F4000
M05
G00 X202.3 Y47.4
M03
G01 X202.8 Y47.4 F4000
M05
G00 X203.5 Y47.4
M03
G01 X204.0 Y47.4 F4000
M05
G00 X206.0 Y47.4
M03
G01 X206.5 Y47.4 F4000
M05
G00 X207.6 Y47.4
M03
G01 X208.2 Y47.4 F4000
M05
G00 X208.8 Y47.4
M03
G01 X209.3 Y47.4 F4000
M05
G00 X210.3 Y47.4
M03
G01 X210.7 Y47.4 F4000
M05
G00 X211.4 Y47.4
M03
G01 X211.9 Y47.4 F4000
M05
G00 X212.7 Y47.4
M03
G01 X213.1 Y47.4 F4000
M05
G00 X214.2 Y47.4
M03
G01 X214.5 Y47.4 F4000
M05
G00 X215.1 Y47.4
M03
G01 X215.6 Y47.4 F4000
M05
G00 X216.9 Y47.4
M03
G01 X217.3 Y47.4 F4000
M05
G00 X218.4 Y47.4
M03
G01 X218.7 Y47.4 F4000
M05
G00 X219.3 Y47.4
M03
G01 X219.8 Y47.4 F4000
M05
G00 X220.7 Y47.4
M03
G01 X221.2 Y47.4 F4000
M05
G00 X221.8 Y47.4
M03
G01 X222.4 Y47.4 F4000
M05
G00 X223.2 Y47.4
M03
G01 X223.7 Y47.4 F4000
M05
G00 X224.3 Y47.4
M03
G01 X224.8 Y47.4 F4000
M05
G00 X225.8 Y47.4
M03
G01 X226.2 Y47.4 F4000
M05
G00 X226.2 Y47.5
M03
G01 X225.9 Y47.5 F4000
M05
G00 X224.8 Y47.5
M03
G01 X224.3 Y47.5 F4000
M05
G00 X223.7 Y47.5
M03
G01 X223.3 Y47.5 F4000
M05
G00 X222.3 Y47.5
M03
G01 X221.8 Y47.5 F4000
M05
G00 X221.2 Y47.5
M03
G01 X220.7 Y47.5 F4000
M05
G00 X219.8 Y47.5
M03
G01 X219.3 Y47.5 F4000
M05
G00 X218.7 Y47.5
M03
G01 X218.5 Y47.5 F4000
M05
G00 X217.3 Y47.5
M03
G01 X216.8 Y47.5 F4000
M05
G00 X215.6 Y47.5
M03
G01 X215.1 Y47.5 F4000
M05
G00 X214.5 Y47.5
M03
G01 X214.3 Y47.5 F4000
M05
G00 X213.1 Y47.5
M03
G01 X212.6 Y47.5 F4000
M05
G00 X211.9 Y47.5
M03
G01 X211.4 Y47.5 F4000
M05
G00 X210.7 Y47.5
M03
G01 X210.5 Y47.5 F4000
M05
G00 X209.3 Y47.5
M03
G01 X208.8 Y47.5 F4000
M05
G00 X208.2 Y47.5
M03
G01 X207.6 Y47.5 F4000
M05
G00 X206.5 Y47.5
M03
G01 X206.0 Y47.5 F4000
M05
G00 X204.0 Y47.5
M03
G01 X203.5 Y47.5 F4000
M05
G00 X202.8 Y47.5
M03
G01 X202.3 Y47.5 F4000
M05
G00 X201.3 Y47.5
M03
G01 X200.9 Y47.5 F4000
M05
G00 X200.3 Y47.5
M03
G01 X200.0 Y47.5 F4000
M05
G00 X198.8 Y47.5
M03
G01 X198.4 Y47.5 F4000
M05
G00 X197.1 Y47.5
M03
G01 X196.7 Y47.5 F4000
M05
G00 X195.4 Y47.5
M03
G01 X194.9 Y47.5 F4000
M05
G00 X194.3 Y47.5
M03
G01 X193.7 Y47.5 F4000
M05
G00 X192.9 Y47.5
M03
G01 X192.4 Y47.5 F4000
M05
G00 X191.7 Y47.5
M03
G01 X191.2 Y47.5 F4000
M05
G00 X190.0 Y47.5
M03
G01 X189.4 Y47.5 F4000
M05
G00 X187.3 Y47.5
M03
G01 X186.5 Y47.5 F4000
M05
G00 X185.9 Y47.5
M03
G01 X185.1 Y47.5 F4000
M05
G00 X184.3 Y47.5
M03
G01 X183.8 Y47.5 F4000
M05
G00 X182.8 Y47.5
M03
G01 X182.3 Y47.5 F4000
M05
G00 X180.4 Y47.5
M03
G01 X179.9 Y47.5 F4000
M05
G00 X179.9 Y47.6
M03
G01 X180.4 Y47.6 F4000
M05
G00 X182.3 Y47.6
M03
G01 X182.7 Y47.6 F4000
M05
G00 X183.8 Y47.6
M03
G01 X184.3 Y47.6 F4000
M05
G00 X185.1 Y47.6
M03
G01 X185.4 Y47.6 F4000
M05
G00 X185.6 Y47.6
M03
G01 X186.0 Y47.6 F4000
M05
G00 X186.5 Y47.6
M03
G01 X186.8 Y47.6 F4000
M05
G00 X187.0 Y47.6
M03
G01 X187.4 Y47.6 F4000
M05
G00 X189.4 Y47.6
M03
G01 X189.9 Y47.6 F4000
M05
G00 X191.2 Y47.6
M03
G01 X191.7 Y47.6 F4000
M05
G00 X192.4 Y47.6
M03
G01 X192.9 Y47.6 F4000
M05
G00 X193.8 Y47.6
M03
G01 X194.3 Y47.6 F4000
M05
G00 X194.9 Y47.6
M03
G01 X195.4 Y47.6 F4000
M05
G00 X196.7 Y47.6
M03
G01 X197.1 Y47.6 F4000
M05
G00 X198.4 Y47.6
M03
G01 X198.8 Y47.6 F4000
M05
G00 X200.9 Y47.6
M03
G01 X201.3 Y47.6 F4000
M05
G00 X202.3 Y47.6
M03
G01 X202.8 Y47.6 F4000
M05
G00 X203.5 Y47.6
M03
G01 X204.0 Y47.6 F4000
M05
G00 X206.0 Y47.6
M03
G01 X206.5 Y47.6 F4000
M05
G00 X207.5 Y47.6
M03
G01 X208.1 Y47.6 F4000
M05
G00 X208.8 Y47.6
M03
G01 X209.2 Y47.6 F4000
M05
G00 X211.4 Y47.6
M03
G01 X211.9 Y47.6 F4000
M05
G00 X212.6 Y47.6
M03
G01 X213.0 Y47.6 F4000
M05
G00 X215.1 Y47.6
M03
G01 X215.6 Y47.6 F4000
M05
G00 X216.8 Y47.6
M03
G01 X217.2 Y47.6 F4000
M05
G00 X219.3 Y47.6
M03
G01 X219.8 Y47.6 F4000
M05
G00 X220.7 Y47.6
M03
G01 X221.2 Y47.6 F4000
M05
G00 X221.8 Y47.6
M03
G01 X222.3 Y47.6 F4000
M05
G00 X223.4 Y47.6
M03
G01 X223.7 Y47.6 F4000
M05
G00 X224.3 Y47.6
M03
G01 X224.7 Y47.6 F4000
M05
G00 X224.7 Y47.7
M03
G01 X224.2 Y47.7 F4000
M05
G00 X223.6 Y47.7
M03
G01 X223.5 Y47.7 F4000
M05
G00 X222.2 Y47.7
M03
G01 X221.8 Y47.7 F4000
M05
G00 X221.2 Y47.7
M03
G01 X220.7 Y47.7 F4000
M05
G00 X219.8 Y47.7
M03
G01 X219.3 Y47.7 F4000
M05
G00 X217.2 Y47.7
M03
G01 X216.8 Y47.7 F4000
M05
G00 X215.6 Y47.7
M03
G01 X215.1 Y47.7 F4000
M05
G00 X213.0 Y47.7
M03
G01 X212.6 Y47.7 F4000
M05
G00 X211.9 Y47.7
M03
G01 X211.4 Y47.7 F4000
M05
G00 X209.2 Y47.7
M03
G01 X208.8 Y47.7 F4000
M05
G00 X208.1 Y47.7
M03
G01 X207.4 Y47.7 F4000
M05
G00 X206.5 Y47.7
M03
G01 X206.0 Y47.7 F4000
M05
G00 X204.0 Y47.7
M03
G01 X203.5 Y47.7 F4000
M05
G00 X202.8 Y47.7
M03
G01 X202.3 Y47.7 F4000
M05
G00 X201.3 Y47.7
M03
G01 X200.9 Y47.7 F4000
M05
G00 X198.8 Y47.7
M03
G01 X198.3 Y47.7 F4000
M05
G00 X197.1 Y47.7
M03
G01 X196.7 Y47.7 F4000
M05
G00 X195.4 Y47.7
M03
G01 X194.9 Y47.7 F4000
M05
G00 X194.3 Y47.7
M03
G01 X193.8 Y47.7 F4000
M05
G00 X192.8 Y47.7
M03
G01 X192.4 Y47.7 F4000
M05
G00 X191.8 Y47.7
M03
G01 X191.3 Y47.7 F4000
M05
G00 X189.9 Y47.7
M03
G01 X189.3 Y47.7 F4000
M05
G00 X187.4 Y47.7
M03
G01 X187.0 Y47.7 F4000
M05
G00 X186.8 Y47.7
M03
G01 X186.5 Y47.7 F4000
M05
G00 X186.0 Y47.7
M03
G01 X185.6 Y47.7 F4000
M05
G00 X185.4 Y47.7
M03
G01 X185.0 Y47.7 F4000
M05
G00 X184.3 Y47.7
M03
G01 X183.8 Y47.7 F4000
M05
G00 X182.7 Y47.7
M03
G01 X182.2 Y47.7 F4000
M05
G00 X180.4 Y47.7
M03
G01 X179.9 Y47.7 F4000
M05
G00 X179.9 Y47.8
M03
G01 X180.4 Y47.8 F4000
M05
G00 X182.2 Y47.8
M03
G01 X182.7 Y47.8 F4000
M05
G00 X183.9 Y47.8
M03
G01 X184.3 Y47.8 F4000
M05
G00 X185.0 Y47.8
M03
G01 X185.4 Y47.8 F4000
M05
G00 X185.7 Y47.8
M03
G01 X186.0 Y47.8 F4000
M05
G00 X186.4 Y47.8
M03
G01 X186.8 Y47.8 F4000
M05
G00 X187.1 Y47.8
M03
G01 X187.4 Y47.8 F4000
M05
G00 X189.3 Y47.8
M03
G01 X189.8 Y47.8 F4000
M05
G00 X191.3 Y47.8
M03
G01 X191.8 Y47.8 F4000
M05
G00 X192.4 Y47.8
M03
G01 X192.8 Y47.8 F4000
M05
G00 X193.8 Y47.8
M03
G01 X194.3 Y47.8 F4000
M05
G00 X194.9 Y47.8
M03
G01 X195.4 Y47.8 F4000
M05
G00 X196.7 Y47.8
M03
G01 X197.2 Y47.8 F4000
M05
G00 X198.3 Y47.8
M03
G01 X198.8 Y47.8 F4000
M05
G00 X200.9 Y47.8
M03
G01 X201.3 Y47.8 F4000
M05
G00 X202.3 Y47.8
M03
G01 X202.8 Y47.8 F4000
M05
G00 X203.5 Y47.8
M03
G01 X204.0 Y47.8 F4000
M05
G00 X206.0 Y47.8
M03
G01 X206.5 Y47.8 F4000
M05
G00 X207.4 Y47.8
M03
G01 X208.0 Y47.8 F4000
M05
G00 X208.7 Y47.8
M03
G01 X209.2 Y47.8 F4000
M05
G00 X211.4 Y47.8
M03
G01 X211.9 Y47.8 F4000
M05
G00 X212.6 Y47.8
M03
G01 X213.0 Y47.8 F4000
M05
G00 X215.1 Y47.8
M03
G01 X215.6 Y47.8 F4000
M05
G00 X216.8 Y47.8
M03
G01 X217.2 Y47.8 F4000
M05
G00 X219.3 Y47.8
M03
G01 X219.8 Y47.8 F4000
M05
G00 X220.7 Y47.8
M03
G01 X221.2 Y47.8 F4000
M05
G00 X221.8 Y47.8
M03
G01 X222.2 Y47.8 F4000
M05
G00 X224.2 Y47.8
M03
G01 X224.7 Y47.8 F4000
M05
G00 X226.1 Y47.9
M03
G01 X224.2 Y47.9 F4000
M05
G00 X222.2 Y47.9
M03
G01 X221.7 Y47.9 F4000
M05
G00 X221.2 Y47.9
M03
G01 X220.7 Y47.9 F4000
M05
G00 X219.8 Y47.9
M03
G01 X219.3 Y47.9 F4000
M05
G00 X218.7 Y47.9
M03
G01 X216.8 Y47.9 F4000
M05
G00 X215.6 Y47.9
M03
G01 X215.1 Y47.9 F4000
M05
G00 X214.5 Y47.9
M03
G01 X212.5 Y47.9 F4000
M05
G00 X211.9 Y47.9
M03
G01 X211.4 Y47.9 F4000
M05
G00 X210.6 Y47.9
M03
G01 X208.7 Y47.9 F4000
M05
G00 X207.9 Y47.9
M03
G01 X207.3 Y47.9 F4000
M05
G00 X206.5 Y47.9
M03
G01 X206.0 Y47.9 F4000
M05
G00 X204.0 Y47.9
M03
G01 X203.5 Y47.9 F4000
M05
G00 X202.8 Y47.9
M03
G01 X202.3 Y47.9 F4000
M05
G00 X201.3 Y47.9
M03
G01 X200.9 Y47.9 F4000
M05
G00 X200.2 Y47.9
M03
G01 X198.3 Y47.9 F4000
M05
G00 X197.2 Y47.9
M03
G01 X196.7 Y47.9 F4000
M05
G00 X195.4 Y47.9
M03
G01 X194.9 Y47.9 F4000
M05
G00 X194.3 Y47.9
M03
G01 X193.8 Y47.9 F4000
M05
G00 X192.8 Y47.9
M03
G01 X192.4 Y47.9 F4000
M05
G00 X191.8 Y47.9
M03
G01 X191.4 Y47.9 F4000
M05
G00 X189.8 Y47.9
M03
G01 X189.3 Y47.9 F4000
M05
G00 X187.5 Y47.9
M03
G01 X187.1 Y47.9 F4000
M05
G00 X186.8 Y47.9
M03
G01 X186.4 Y47.9 F4000
M05
G00 X186.0 Y47.9
M03
G01 X185.7 Y47.9 F4000
M05
G00 X185.4 Y47.9
M03
G01 X185.0 Y47.9 F4000
M05
G00 X184.3 Y47.9
M03
G01 X183.9 Y47.9 F4000
M05
G00 X182.7 Y47.9
M03
G01 X182.2 Y47.9 F4000
M05
G00 X180.4 Y47.9
M03
G01 X179.9 Y47.9 F4000
M05
G00 X179.9 Y48.0
M03
G01 X180.4 Y48.0 F4000
M05
G00 X182.2 Y48.0
M03
G01 X182.7 Y48.0 F4000
M05
G00 X183.9 Y48.0
M03
G01 X184.3 Y48.0 F4000
M05
G00 X184.9 Y48.0
M03
G01 X185.3 Y48.0 F4000
M05
G00 X185.7 Y48.0
M03
G01 X186.1 Y48.0 F4000
M05
G00 X186.4 Y48.0
M03
G01 X186.7 Y48.0 F4000
M05
G00 X187.1 Y48.0
M03
G01 X187.5 Y48.0 F4000
M05
G00 X189.3 Y48.0
M03
G01 X189.8 Y48.0 F4000
M05
G00 X191.4 Y48.0
M03
G01 X191.7 Y48.0 F4000
M05
G00 X192.4 Y48.0
M03
G01 X192.8 Y48.0 F4000
M05
G00 X193.8 Y48.0
M03
G01 X194.3 Y48.0 F4000
M05
G00 X194.9 Y48.0
M03
G01 X195.4 Y48.0 F4000
M05
G00 X196.7 Y48.0
M03
G01 X197.2 Y48.0 F4000
M05
G00 X198.3 Y48.0
M03
G01 X200.3 Y48.0 F4000
M05
G00 X200.9 Y48.0
M03
G01 X201.3 Y48.0 F4000
M05
G00 X202.3 Y48.0
M03
G01 X202.8 Y48.0 F4000
M05
G00 X203.5 Y48.0
M03
G01 X204.0 Y48.0 F4000
M05
G00 X206.0 Y48.0
M03
G01 X206.5 Y48.0 F4000
M05
G00 X207.2 Y48.0
M03
G01 X207.8 Y48.0 F4000
M05
G00 X208.7 Y48.0
M03
G01 X210.7 Y48.0 F4000
M05
G00 X211.4 Y48.0
M03
G01 X211.9 Y48.0 F4000
M05
G00 X212.5 Y48.0
M03
G01 X214.5 Y48.0 F4000
M05
G00 X215.1 Y48.0
M03
G01 X215.6 Y48.0 F4000
M05
G00 X216.7 Y48.0
M03
G01 X218.7 Y48.0 F4000
M05
G00 X219.3 Y48.0
M03
G01 X219.8 Y48.0 F4000
M05
G00 X220.7 Y48.0
M03
G01 X221.2 Y48.0 F4000
M05
G00 X221.7 Y48.0
M03
G01 X222.2 Y48.0 F4000
M05
G00 X224.2 Y48.0
M03
G01 X226.2 Y48.0 F4000
M05
G00 X226.2 Y48.1
M03
G01 X224.2 Y48.1 F4000
M05
G00 X222.2 Y48.1
M03
G01 X221.7 Y48.1 F4000
M05
G00 X221.2 Y48.1
M03
G01 X220.7 Y48.1 F4000
M05
G00 X219.8 Y48.1
M03
G01 X219.3 Y48.1 F4000
M05
G00 X218.8 Y48.1
M03
G01 X216.8 Y48.1 F4000
M05
G00 X215.6 Y48.1
M03
G01 X215.1 Y48.1 F4000
M05
G00 X214.6 Y48.1
M03
G01 X212.6 Y48.1 F4000
M05
G00 X211.9 Y48.1
M03
G01 X211.4 Y48.1 F4000
M05
G00 X210.7 Y48.1
M03
G01 X208.7 Y48.1 F4000
M05
G00 X207.7 Y48.1
M03
G01 X207.1 Y48.1 F4000
M05
G00 X206.5 Y48.1
M03
G01 X206.0 Y48.1 F4000
M05
G00 X204.0 Y48.1
M03
G01 X203.5 Y48.1 F4000
M05
G00 X202.8 Y48.1
M03
G01 X202.3 Y48.1 F4000
M05
G00 X201.3 Y48.1
M03
G01 X200.9 Y48.1 F4000
M05
G00 X200.3 Y48.1
M03
G01 X198.3 Y48.1 F4000
M05
G00 X197.2 Y48.1
M03
G01 X196.7 Y48.1 F4000
M05
G00 X195.4 Y48.1
M03
G01 X194.9 Y48.1 F4000
M05
G00 X194.3 Y48.1
M03
G01 X193.8 Y48.1 F4000
M05
G00 X192.8 Y48.1
M03
G01 X192.4 Y48.1 F4000
M05
G00 X189.8 Y48.1
M03
G01 X189.2 Y48.1 F4000
M05
G00 X187.5 Y48.1
M03
G01 X187.2 Y48.1 F4000
M05
G00 X186.7 Y48.1
M03
G01 X186.4 Y48.1 F4000
M05
G00 X186.1 Y48.1
M03
G01 X185.7 Y48.1 F4000
M05
G00 X185.3 Y48.1
M03
G01 X184.9 Y48.1 F4000
M05
G00 X184.3 Y48.1
M03
G01 X183.9 Y48.1 F4000
M05
G00 X182.7 Y48.1
M03
G01 X182.2 Y48.1 F4000
M05
G00 X180.4 Y48.1
M03
G01 X179.9 Y48.1 F4000
M05
G00 X179.9 Y48.2
M03
G01 X180.4 Y48.2 F4000
M05
G00 X182.2 Y48.2
M03
G01 X182.7 Y48.2 F4000
M05
G00 X183.9 Y48.2
M03
G01 X184.3 Y48.2 F4000
M05
G00 X184.9 Y48.2
M03
G01 X185.3 Y48.2 F4000
M05
G00 X185.8 Y48.2
M03
G01 X186.1 Y48.2 F4000
M05
G00 X186.3 Y48.2
M03
G01 X186.7 Y48.2 F4000
M05
G00 X187.2 Y48.2
M03
G01 X187.6 Y48.2 F4000
M05
G00 X189.2 Y48.2
M03
G01 X189.8 Y48.2 F4000
M05
G00 X192.4 Y48.2
M03
G01 X192.8 Y48.2 F4000
M05
G00 X193.8 Y48.2
M03
G01 X194.3 Y48.2 F4000
M05
G00 X194.9 Y48.2
M03
G01 X195.4 Y48.2 F4000
M05
G00 X196.7 Y48.2
M03
G01 X197.2 Y48.2 F4000
M05
G00 X198.3 Y48.2
M03
G01 X198.8 Y48.2 F4000
M05
G00 X199.9 Y48.2
M03
G01 X200.3 Y48.2 F4000
M05
G00 X200.9 Y48.2
M03
G01 X201.4 Y48.2 F4000
M05
G00 X202.3 Y48.2
M03
G01 X202.8 Y48.2 F4000
M05
G00 X203.5 Y48.2
M03
G01 X204.0 Y48.2 F4000
M05
G00 X206.0 Y48.2
M03
G01 X207.6 Y48.2 F4000
M05
G00 X208.7 Y48.2
M03
G01 X209.2 Y48.2 F4000
M05
G00 X210.3 Y48.2
M03
G01 X210.7 Y48.2 F4000
M05
G00 X211.4 Y48.2
M03
G01 X211.9 Y48.2 F4000
M05
G00 X212.6 Y48.2
M03
G01 X213.0 Y48.2 F4000
M05
G00 X214.1 Y48.2
M03
G01 X214.6 Y48.2 F4000
M05
G00 X215.1 Y48.2
M03
G01 X215.6 Y48.2 F4000
M05
G00 X216.8 Y48.2
M03
G01 X217.2 Y48.2 F4000
M05
G00 X218.3 Y48.2
M03
G01 X218.8 Y48.2 F4000
M05
G00 X219.3 Y48.2
M03
G01 X219.8 Y48.2 F4000
M05
G00 X220.7 Y48.2
M03
G01 X221.2 Y48.2 F4000
M05
G00 X221.8 Y48.2
M03
G01 X222.2 Y48.2 F4000
M05
G00 X224.2 Y48.2
M03
G01 X224.7 Y48.2 F4000
M05
G00 X225.8 Y48.2
M03
G01 X226.2 Y48.2 F4000
M05
G00 X226.2 Y48.3
M03
G01 X225.8 Y48.3 F4000
M05
G00 X224.7 Y48.3
M03
G01 X224.3 Y48.3 F4000
M05
G00 X223.6 Y48.3
M03
G01 X223.4 Y48.3 F4000
M05
G00 X222.3 Y48.3
M03
G01 X221.8 Y48.3 F4000
M05
G00 X221.2 Y48.3
M03
G01 X220.7 Y48.3 F4000
M05
G00 X219.8 Y48.3
M03
G01 X219.3 Y48.3 F4000
M05
G00 X218.7 Y48.3
M03
G01 X218.3 Y48.3 F4000
M05
G00 X217.2 Y48.3
M03
G01 X216.8 Y48.3 F4000
M05
G00 X215.6 Y48.3
M03
G01 X215.1 Y48.3 F4000
M05
G00 X214.5 Y48.3
M03
G01 X214.1 Y48.3 F4000
M05
G00 X213.0 Y48.3
M03
G01 X212.6 Y48.3 F4000
M05
G00 X211.9 Y48.3
M03
G01 X211.4 Y48.3 F4000
M05
G00 X210.7 Y48.3
M03
G01 X210.3 Y48.3 F4000
M05
G00 X209.2 Y48.3
M03
G01 X208.8 Y48.3 F4000
M05
G00 X207.7 Y48.3
M03
G01 X206.0 Y48.3 F4000
M05
G00 X204.0 Y48.3
M03
G01 X203.5 Y48.3 F4000
M05
G00 X202.8 Y48.3
M03
G01 X202.3 Y48.3 F4000
M05
G00 X201.4 Y48.3
M03
G01 X200.9 Y48.3 F4000
M05
G00 X200.3 Y48.3
M03
G01 X199.9 Y48.3 F4000
M05
G00 X198.8 Y48.3
M03
G01 X198.4 Y48.3 F4000
M05
G00 X197.2 Y48.3
M03
G01 X196.7 Y48.3 F4000
M05
G00 X195.4 Y48.3
M03
G01 X194.9 Y48.3 F4000
M05
G00 X194.3 Y48.3
M03
G01 X193.8 Y48.3 F4000
M05
G00 X192.8 Y48.3
M03
G01 X192.4 Y48.3 F4000
M05
G00 X189.7 Y48.3
M03
G01 X189.2 Y48.3 F4000
M05
G00 X187.6 Y48.3
M03
G01 X187.2 Y48.3 F4000
M05
G00 X186.7 Y48.3
M03
G01 X185.8 Y48.3 F4000
M05
G00 X185.3 Y48.3
M03
G01 X184.9 Y48.3 F4000
M05
G00 X184.3 Y48.3
M03
G01 X183.8 Y48.3 F4000
M05
G00 X182.7 Y48.3
M03
G01 X182.3 Y48.3 F4000
M05
G00 X180.4 Y48.3
M03
G01 X179.9 Y48.3 F4000
M05
G00 X179.9 Y48.4
M03
G01 X180.4 Y48.4 F4000
M05
G00 X182.3 Y48.4
M03
G01 X182.8 Y48.4 F4000
M05
G00 X183.8 Y48.4
M03
G01 X184.3 Y48.4 F4000
M05
G00 X184.8 Y48.4
M03
G01 X185.2 Y48.4 F4000
M05
G00 X185.8 Y48.4
M03
G01 X186.6 Y48.4 F4000
M05
G00 X187.2 Y48.4
M03
G01 X187.6 Y48.4 F4000
M05
G00 X189.2 Y48.4
M03
G01 X189.7 Y48.4 F4000
M05
G00 X192.4 Y48.4
M03
G01 X192.8 Y48.4 F4000
M05
G00 X193.8 Y48.4
M03
G01 X194.3 Y48.4 F4000
M05
G00 X194.9 Y48.4
M03
G01 X195.5 Y48.4 F4000
M05
G00 X196.7 Y48.4
M03
G01 X197.2 Y48.4 F4000
M05
G00 X198.4 Y48.4
M03
G01 X198.8 Y48.4 F4000
M05
G00 X199.8 Y48.4
M03
G01 X200.3 Y48.4 F4000
M05
G00 X200.9 Y48.4
M03
G01 X201.4 Y48.4 F4000
M05
G00 X202.3 Y48.4
M03
G01 X202.8 Y48.4 F4000
M05
G00 X203.5 Y48.4
M03
G01 X204.0 Y48.4 F4000
M05
G00 X206.0 Y48.4
M03
G01 X207.9 Y48.4 F4000
M05
G00 X208.8 Y48.4
M03
G01 X209.3 Y48.4 F4000
M05
G00 X210.3 Y48.4
M03
G01 X210.7 Y48.4 F4000
M05
G00 X211.4 Y48.4
M03
G01 X211.9 Y48.4 F4000
M05
G00 X212.6 Y48.4
M03
G01 X213.1 Y48.4 F4000
M05
G00 X214.1 Y48.4
M03
G01 X214.5 Y48.4 F4000
M05
G00 X215.1 Y48.4
M03
G01 X215.7 Y48.4 F4000
M05
G00 X216.8 Y48.4
M03
G01 X217.3 Y48.4 F4000
M05
G00 X218.3 Y48.4
M03
G01 X218.7 Y48.4 F4000
M05
G00 X219.3 Y48.4
M03
G01 X219.8 Y48.4 F4000
M05
G00 X220.7 Y48.4
M03
G01 X221.2 Y48.4 F4000
M05
G00 X221.8 Y48.4
M03
G01 X222.3 Y48.4 F4000
M05
G00 X223.3 Y48.4
M03
G01 X223.7 Y48.4 F4000
M05
G00 X224.3 Y48.4
M03
G01 X224.7 Y48.4 F4000
M05
G00 X225.7 Y48.4
M03
G01 X226.2 Y48.4 F4000
M05
G00 X226.2 Y48.5
M03
G01 X225.7 Y48.5 F4000
M05
G00 X224.8 Y48.5
M03
G01 X224.3 Y48.5 F4000
M05
G00 X223.7 Y48.5
M03
G01 X223.2 Y48.5 F4000
M05
G00 X222.4 Y48.5
M03
G01 X221.8 Y48.5 F4000
M05
G00 X221.2 Y48.5
M03
G01 X220.7 Y48.5 F4000
M05
G00 X219.9 Y48.5
M03
G01 X219.3 Y48.5 F4000
M05
G00 X218.7 Y48.5
M03
G01 X218.2 Y48.5 F4000
M05
G00 X217.3 Y48.5
M03
G01 X216.8 Y48.5 F4000
M05
G00 X215.7 Y48.5
M03
G01 X215.1 Y48.5 F4000
M05
G00 X214.5 Y48.5
M03
G01 X214.0 Y48.5 F4000
M05
G00 X213.1 Y48.5
M03
G01 X212.6 Y48.5 F4000
M05
G00 X211.9 Y48.5
M03
G01 X211.4 Y48.5 F4000
M05
G00 X210.7 Y48.5
M03
G01 X210.2 Y48.5 F4000
M05
G00 X209.3 Y48.5
M03
G01 X208.8 Y48.5 F4000
M05
G00 X208.1 Y48.5
M03
G01 X206.0 Y48.5 F4000
M05
G00 X204.0 Y48.5
M03
G01 X203.5 Y48.5 F4000
M05
G00 X202.7 Y48.5
M03
G01 X202.2 Y48.5 F4000
M05
G00 X201.5 Y48.5
M03
G01 X200.9 Y48.5 F4000
M05
G00 X200.3 Y48.5
M03
G01 X199.8 Y48.5 F4000
M05
G00 X198.9 Y48.5
M03
G01 X198.4 Y48.5 F4000
M05
G00 X197.3 Y48.5
M03
G01 X196.7 Y48.5 F4000
M05
G00 X195.5 Y48.5
M03
G01 X194.9 Y48.5 F4000
M05
G00 X194.3 Y48.5
M03
G01 X193.8 Y48.5 F4000
M05
G00 X192.8 Y48.5
M03
G01 X192.4 Y48.5 F4000
M05
G00 X189.7 Y48.5
M03
G01 X189.2 Y48.5 F4000
M05
G00 X187.7 Y48.5
M03
G01 X187.3 Y48.5 F4000
M05
G00 X186.6 Y48.5
M03
G01 X185.9 Y48.5 F4000
M05
G00 X185.2 Y48.5
M03
G01 X184.8 Y48.5 F4000
M05
G00 X184.2 Y48.5
M03
G01 X183.7 Y48.5 F4000
M05
G00 X182.8 Y48.5
M03
G01 X182.3 Y48.5 F4000
M05
G00 X180.4 Y48.5
M03
G01 X179.9 Y48.5 F4000
M05
G00 X179.9 Y48.6
M03
G01 X180.4 Y48.6 F4000
M05
G00 X182.4 Y48.6
M03
G01 X182.9 Y48.6 F4000
M05
G00 X183.6 Y48.6
M03
G01 X184.2 Y48.6 F4000
M05
G00 X184.8 Y48.6
M03
G01 X185.2 Y48.6 F4000
M05
G00 X185.9 Y48.6
M03
G01 X186.6 Y48.6 F4000
M05
G00 X187.3 Y48.6
M03
G01 X187.7 Y48.6 F4000
M05
G00 X189.2 Y48.6
M03
G01 X189.8 Y48.6 F4000
M05
G00 X192.4 Y48.6
M03
G01 X192.8 Y48.6 F4000
M05
G00 X193.8 Y48.6
M03
G01 X194.3 Y48.6 F4000
M05
G00 X194.9 Y48.6
M03
G01 X195.6 Y48.6 F4000
M05
G00 X196.0 Y48.6
M03
G01 X196.2 Y48.6 F4000
M05
G00 X196.7 Y48.6
M03
G01 X197.4 Y48.6 F4000
M05
G00 X197.8 Y48.6
M03
G01 X198.0 Y48.6 F4000
M05
G00 X198.5 Y48.6
M03
G01 X199.0 Y48.6 F4000
M05
G00 X199.7 Y48.6
M03
G01 X200.2 Y48.6 F4000
M05
G00 X200.9 Y48.6
M03
G01 X201.6 Y48.6 F4000
M05
G00 X202.2 Y48.6
M03
G01 X202.7 Y48.6 F4000
M05
G00 X203.5 Y48.6
M03
G01 X204.0 Y48.6 F4000
M05
G00 X206.0 Y48.6
M03
G01 X208.2 Y48.6 F4000
M05
G00 X208.9 Y48.6
M03
G01 X209.4 Y48.6 F4000
M05
G00 X210.1 Y48.6
M03
G01 X210.6 Y48.6 F4000
M05
G00 X211.4 Y48.6
M03
G01 X211.9 Y48.6 F4000
M05
G00 X212.7 Y48.6
M03
G01 X213.2 Y48.6 F4000
M05
G00 X213.9 Y48.6
M03
G01 X214.5 Y48.6 F4000
M05
G00 X215.1 Y48.6
M03
G01 X215.8 Y48.6 F4000
M05
G00 X216.3 Y48.6
M03
G01 X216.4 Y48.6 F4000
M05
G00 X216.9 Y48.6
M03
G01 X217.4 Y48.6 F4000
M05
G00 X218.2 Y48.6
M03
G01 X218.7 Y48.6 F4000
M05
G00 X219.3 Y48.6
M03
G01 X220.0 Y48.6 F4000
M05
G00 X220.6 Y48.6
M03
G01 X221.2 Y48.6 F4000
M05
G00 X221.9 Y48.6
M03
G01 X222.5 Y48.6 F4000
M05
G00 X223.1 Y48.6
M03
G01 X223.7 Y48.6 F4000
M05
G00 X224.4 Y48.6
M03
G01 X224.9 Y48.6 F4000
M05
G00 X225.6 Y48.6
M03
G01 X226.1 Y48.6 F4000
M05
G00 X226.1 Y48.7
M03
G01 X225.5 Y48.7 F4000
M05
G00 X225.0 Y48.7
M03
G01 X224.4 Y48.7 F4000
M05
G00 X223.6 Y48.7
M03
G01 X222.0 Y48.7 F4000
M05
G00 X221.1 Y48.7
M03
G01 X219.3 Y48.7 F4000
M05
G00 X218.6 Y48.7
M03
G01 X218.0 Y48.7 F4000
M05
G00 X217.5 Y48.7
M03
G01 X217.0 Y48.7 F4000
M05
G00 X216.5 Y48.7
M03
G01 X215.1 Y48.7 F4000
M05
G00 X214.4 Y48.7
M03
G01 X213.8 Y48.7 F4000
M05
G00 X213.3 Y48.7
M03
G01 X212.7 Y48.7 F4000
M05
G00 X212.2 Y48.7
M03
G01 X211.1 Y48.7 F4000
M05
G00 X210.6 Y48.7
M03
G01 X210.0 Y48.7 F4000
M05
G00 X209.5 Y48.7
M03
G01 X208.9 Y48.7 F4000
M05
G00 X208.2 Y48.7
M03
G01 X207.6 Y48.7 F4000
M05
G00 X206.5 Y48.7
M03
G01 X206.0 Y48.7 F4000
M05
G00 X204.3 Y48.7
M03
G01 X203.3 Y48.7 F4000
M05
G00 X202.7 Y48.7
M03
G01 X200.9 Y48.7 F4000
M05
G00 X200.2 Y48.7
M03
G01 X199.6 Y48.7 F4000
M05
G00 X199.1 Y48.7
M03
G01 X198.5 Y48.7 F4000
M05
G00 X198.1 Y48.7
M03
G01 X196.7 Y48.7 F4000
M05
G00 X196.3 Y48.7
M03
G01 X194.9 Y48.7 F4000
M05
G00 X194.3 Y48.7
M03
G01 X193.8 Y48.7 F4000
M05
G00 X192.8 Y48.7
M03
G01 X192.4 Y48.7 F4000
M05
G00 X189.8 Y48.7
M03
G01 X189.2 Y48.7 F4000
M05
G00 X187.7 Y48.7
M03
G01 X187.3 Y48.7 F4000
M05
G00 X186.5 Y48.7
M03
G01 X185.9 Y48.7 F4000
M05
G00 X185.1 Y48.7
M03
G01 X184.7 Y48.7 F4000
M05
G00 X184.1 Y48.7
M03
G01 X183.4 Y48.7 F4000
M05
G00 X183.2 Y48.7
M03
G01 X182.4 Y48.7 F4000
M05
G00 X180.4 Y48.7
M03
G01 X179.9 Y48.7 F4000
M05
G00 X179.9 Y48.8
M03
G01 X180.4 Y48.8 F4000
M05
G00 X182.5 Y48.8
M03
G01 X184.0 Y48.8 F4000
M05
G00 X184.7 Y48.8
M03
G01 X185.1 Y48.8 F4000
M05
G00 X185.9 Y48.8
M03
G01 X186.5 Y48.8 F4000
M05
G00 X187.4 Y48.8
M03
G01 X187.8 Y48.8 F4000
M05
G00 X189.3 Y48.8
M03
G01 X189.8 Y48.8 F4000
M05
G00 X191.5 Y48.8
M03
G01 X191.6 Y48.8 F4000
M05
G00 X192.4 Y48.8
M03
G01 X192.8 Y48.8 F4000
M05
G00 X193.8 Y48.8
M03
G01 X194.3 Y48.8 F4000
M05
G00 X194.9 Y48.8
M03
G01 X196.3 Y48.8 F4000
M05
G00 X196.7 Y48.8
M03
G01 X198.1 Y48.8 F4000
M05
G00 X198.6 Y48.8
M03
G01 X200.1 Y48.8 F4000
M05
G00 X200.9 Y48.8
M03
G01 X202.6 Y48.8 F4000
M05
G00 X203.2 Y48.8
M03
G01 X204.4 Y48.8 F4000
M05
G00 X206.0 Y48.8
M03
G01 X206.5 Y48.8 F4000
M05
G00 X207.7 Y48.8
M03
G01 X208.3 Y48.8 F4000
M05
G00 X209.0 Y48.8
M03
G01 X210.5 Y48.8 F4000
M05
G00 X211.0 Y48.8
M03
G01 X212.3 Y48.8 F4000
M05
G00 X212.8 Y48.8
M03
G01 X214.3 Y48.8 F4000
M05
G00 X215.1 Y48.8
M03
G01 X216.5 Y48.8 F4000
M05
G00 X217.0 Y48.8
M03
G01 X218.5 Y48.8 F4000
M05
G00 X219.3 Y48.8
M03
G01 X221.1 Y48.8 F4000
M05
G00 X222.0 Y48.8
M03
G01 X223.6 Y48.8 F4000
M05
G00 X224.5 Y48.8
M03
G01 X226.0 Y48.8 F4000
M05
G00 X225.9 Y48.9
M03
G01 X224.6 Y48.9 F4000
M05
G00 X223.5 Y48.9
M03
G01 X222.1 Y48.9 F4000
M05
G00 X221.0 Y48.9
M03
G01 X220.0 Y48.9 F4000
M05
G00 X219.7 Y48.9
M03
G01 X219.3 Y48.9 F4000
M05
G00 X218.4 Y48.9
M03
G01 X217.1 Y48.9 F4000
M05
G00 X216.5 Y48.9
M03
G01 X215.7 Y48.9 F4000
M05
G00 X215.5 Y48.9
M03
G01 X215.1 Y48.9 F4000
M05
G00 X214.2 Y48.9
M03
G01 X212.9 Y48.9 F4000
M05
G00 X212.3 Y48.9
M03
G01 X211.0 Y48.9 F4000
M05
G00 X210.4 Y48.9
M03
G01 X209.1 Y48.9 F4000
M05
G00 X208.3 Y48.9
M03
G01 X207.8 Y48.9 F4000
M05
G00 X206.5 Y48.9
M03
G01 X206.0 Y48.9 F4000
M05
G00 X204.4 Y48.9
M03
G01 X203.2 Y48.9 F4000
M05
G00 X202.6 Y48.9
M03
G01 X201.5 Y48.9 F4000
M05
G00 X201.3 Y48.9
M03
G01 X200.9 Y48.9 F4000
M05
G00 X200.0 Y48.9
M03
G01 X198.7 Y48.9 F4000
M05
G00 X198.1 Y48.9
M03
G01 X197.3 Y48.9 F4000
M05
G00 X197.1 Y48.9
M03
G01 X196.7 Y48.9 F4000
M05
G00 X196.3 Y48.9
M03
G01 X195.5 Y48.9 F4000
M05
G00 X195.3 Y48.9
M03
G01 X194.9 Y48.9 F4000
M05
G00 X194.2 Y48.9
M03
G01 X193.8 Y48.9 F4000
M05
G00 X192.8 Y48.9
M03
G01 X192.4 Y48.9 F4000
M05
G00 X191.7 Y48.9
M03
G01 X191.4 Y48.9 F4000
M05
G00 X189.8 Y48.9
M03
G01 X189.3 Y48.9 F4000
M05
G00 X187.8 Y48.9
M03
G01 X187.4 Y48.9 F4000
M05
G00 X186.5 Y48.9
M03
G01 X186.0 Y48.9 F4000
M05
G00 X185.1 Y48.9
M03
G01 X184.7 Y48.9 F4000
M05
G00 X183.9 Y48.9
M03
G01 X182.6 Y48.9 F4000
M05
G00 X180.4 Y48.9
M03
G01 X179.9 Y48.9 F4000
M05
G00 X179.9 Y49.0
M03
G01 X180.4 Y49.0 F4000
M05
G00 X182.8 Y49.0
M03
G01 X183.8 Y49.0 F4000
M05
G00 X184.7 Y49.0
M03
G01 X185.0 Y49.0 F4000
M05
G00 X186.0 Y49.0
M03
G01 X186.4 Y49.0 F4000
M05
G00 X187.4 Y49.0
M03
G01 X187.7 Y49.0 F4000
M05
G00 X189.3 Y49.0
M03
G01 X189.8 Y49.0 F4000
M05
G00 X191.3 Y49.0
M03
G01 X191.8 Y49.0 F4000
M05
G00 X192.4 Y49.0
M03
G01 X192.8 Y49.0 F4000
M05
G00 X193.9 Y49.0
M03
G01 X194.2 Y49.0 F4000
M05
G00 X195.0 Y49.0
M03
G01 X195.3 Y49.0 F4000
M05
G00 X195.6 Y49.0
M03
G01 X196.2 Y49.0 F4000
M05
G00 X196.7 Y49.0
M03
G01 X197.1 Y49.0 F4000
M05
G00 X197.4 Y49.0
M03
G01 X198.0 Y49.0 F4000
M05
G00 X198.8 Y49.0
M03
G01 X199.8 Y49.0 F4000
M05
G00 X200.9 Y49.0
M03
G01 X201.3 Y49.0 F4000
M05
G00 X201.7 Y49.0
M03
G01 X202.5 Y49.0 F4000
M05
G00 X203.2 Y49.0
M03
G01 X204.4 Y49.0 F4000
M05
G00 X206.0 Y49.0
M03
G01 X206.5 Y49.0 F4000
M05
G00 X207.8 Y49.0
M03
G01 X208.3 Y49.0 F4000
M05
G00 X209.3 Y49.0
M03
G01 X210.3 Y49.0 F4000
M05
G00 X211.0 Y49.0
M03
G01 X212.3 Y49.0 F4000
M05
G00 X213.1 Y49.0
M03
G01 X214.1 Y49.0 F4000
M05
G00 X215.2 Y49.0
M03
G01 X215.5 Y49.0 F4000
M05
G00 X215.8 Y49.0
M03
G01 X216.4 Y49.0 F4000
M05
G00 X217.3 Y49.0
M03
G01 X218.3 Y49.0 F4000
M05
G00 X219.4 Y49.0
M03
G01 X219.7 Y49.0 F4000
M05
G00 X220.1 Y49.0
M03
G01 X220.9 Y49.0 F4000
M05
G00 X222.3 Y49.0
M03
G01 X223.3 Y49.0 F4000
M05
G00 X224.8 Y49.0
M03
G01 X225.8 Y49.0 F4000
M05
G00 X225.5 Y49.1
M03
G01 X225.0 Y49.1 F4000
M05
G00 X223.0 Y49.1
M03
G01 X222.5 Y49.1 F4000
M05
G00 X220.7 Y49.1
M03
G01 X220.3 Y49.1 F4000
M05
G00 X219.6 Y49.1
M03
G01 X219.5 Y49.1 F4000
M05
G00 X218.0 Y49.1
M03
G01 X217.5 Y49.1 F4000
M05
G00 X216.2 Y49.1
M03
G01 X216.0 Y49.1 F4000
M05
G00 X215.4 Y49.1
M03
G01 X215.3 Y49.1 F4000
M05
G00 X213.8 Y49.1
M03
G01 X213.3 Y49.1 F4000
M05
G00 X211.9 Y49.1
M03
G01 X211.4 Y49.1 F4000
M05
G00 X210.0 Y49.1
M03
G01 X209.5 Y49.1 F4000
M05
G00 X208.3 Y49.1
M03
G01 X207.8 Y49.1 F4000
M05
G00 X206.5 Y49.1
M03
G01 X206.0 Y49.1 F4000
M05
G00 X204.0 Y49.1
M03
G01 X203.5 Y49.1 F4000
M05
G00 X202.2 Y49.1
M03
G01 X201.9 Y49.1 F4000
M05
G00 X201.2 Y49.1
M03
G01 X201.0 Y49.1 F4000
M05
G00 X199.6 Y49.1
M03
G01 X199.1 Y49.1 F4000
M05
G00 X197.8 Y49.1
M03
G01 X197.5 Y49.1 F4000
M05
G00 X197.0 Y49.1
M03
G01 X196.8 Y49.1 F4000
M05
G00 X196.0 Y49.1
M03
G01 X195.8 Y49.1 F4000
M05
G00 X195.2 Y49.1
M03
G01 X195.1 Y49.1 F4000
M05
G00 X194.1 Y49.1
M03
G01 X194.0 Y49.1 F4000
M05
G00 X192.7 Y49.1
M03
G01 X192.5 Y49.1 F4000
M05
G00 X191.8 Y49.1
M03
G01 X191.3 Y49.1 F4000
M05
G00 X189.9 Y49.1
M03
G01 X189.3 Y49.1 F4000
M05
G00 X187.6 Y49.1
M03
G01 X187.5 Y49.1 F4000
M05
G00 X186.3 Y49.1
M03
G01 X186.1 Y49.1 F4000
M05
G00 X185.0 Y49.1
M03
G01 X184.8 Y49.1 F4000
M05
G00 X183.5 Y49.1
M03
G01 X183.0 Y49.1 F4000
M05
G00 X180.4 Y49.1
M03
G01 X179.9 Y49.1 F4000
M05
G00 X179.9 Y49.2
M03
G01 X180.4 Y49.2 F4000
M05
G00 X189.4 Y49.2
M03
G01 X190.0 Y49.2 F4000
M05
G00 X191.2 Y49.2
M03
G01 X191.8 Y49.2 F4000
M05
G00 X203.5 Y49.2
M03
G01 X204.0 Y49.2 F4000
M05
G00 X206.0 Y49.2
M03
G01 X206.5 Y49.2 F4000
M05
G00 X207.8 Y49.2
M03
G01 X208.3 Y49.2 F4000
M05
G00 X211.4 Y49.2
M03
G01 X211.9 Y49.2 F4000
M05
G00 X211.9 Y49.3
M03
G01 X211.4 Y49.3 F4000
M05
G00 X208.3 Y49.3
M03
G01 X207.7 Y49.3 F4000
M05
G00 X206.5 Y49.3
M03
G01 X206.0 Y49.3 F4000
M05
G00 X204.0 Y49.3
M03
G01 X203.5 Y49.3 F4000
M05
G00 X191.7 Y49.3
M03
G01 X191.1 Y49.3 F4000
M05
G00 X190.1 Y49.3
M03
G01 X189.4 Y49.3 F4000
M05
G00 X180.4 Y49.3
M03
G01 X179.9 Y49.3 F4000
M05
G00 X179.9 Y49.4
M03
G01 X180.4 Y49.4 F4000
M05
G00 X189.5 Y49.4
M03
G01 X190.2 Y49.4 F4000
M05
G00 X191.0 Y49.4
M03
G01 X191.7 Y49.4 F4000
M05
G00 X203.5 Y49.4
M03
G01 X204.0 Y49.4 F4000
M05
G00 X206.0 Y49.4
M03
G01 X206.5 Y49.4 F4000
M05
G00 X207.6 Y49.4
M03
G01 X208.2 Y49.4 F4000
M05
G00 X211.4 Y49.4
M03
G01 X211.9 Y49.4 F4000
M05
G00 X211.9 Y49.5
M03
G01 X211.4 Y49.5 F4000
M05
G00 X208.2 Y49.5
M03
G01 X206.0 Y49.5 F4000
M05
G00 X204.0 Y49.5
M03
G01 X203.5 Y49.5 F4000
M05
G00 X191.6 Y49.5
M03
G01 X189.6 Y49.5 F4000
M05
G00 X180.4 Y49.5
M03
G01 X179.9 Y49.5 F4000
M05
G00 X179.9 Y49.6
M03
G01 X180.4 Y49.6 F4000
M05
G00 X189.7 Y49.6
M03
G01 X191.5 Y49.6 F4000
M05
G00 X203.5 Y49.6
M03
G01 X204.0 Y49.6 F4000
M05
G00 X206.0 Y49.6
M03
G01 X208.1 Y49.6 F4000
M05
G00 X211.4 Y49.6
M03
G01 X212.4 Y49.6 F4000
M05
G00 X212.5 Y49.7
M03
G01 X211.5 Y49.7 F4000
M05
G00 X208.0 Y49.7
M03
G01 X206.0 Y49.7 F4000
M05
G00 X203.9 Y49.7
M03
G01 X203.5 Y49.7 F4000
M05
G00 X191.4 Y49.7
M03
G01 X189.8 Y49.7 F4000
M05
G00 X180.4 Y49.7
M03
G01 X179.9 Y49.7 F4000
M05
G00 X179.9 Y49.8
M03
G01 X180.3 Y49.8 F4000
M05
G00 X189.9 Y49.8
M03
G01 X191.3 Y49.8 F4000
M05
G00 X203.6 Y49.8
M03
G01 X203.9 Y49.8 F4000
M05
G00 X206.0 Y49.8
M03
G01 X207.9 Y49.8 F4000
M05
G00 X211.5 Y49.8
M03
G01 X212.5 Y49.8 F4000
M05
G00 X212.4 Y49.9
M03
G01 X211.7 Y49.9 F4000
M05
G00 X207.7 Y49.9
M03
G01 X206.1 Y49.9 F4000
M05
G00 X203.8 Y49.9
M03
G01 X203.7 Y49.9 F4000
M05
G00 X191.1 Y49.9
M03
G01 X190.2 Y49.9 F4000
M05
G00 X180.3 Y49.9
M03
G01 X180.0 Y49.9 F4000
M05
G00 X0 Y0; home
G28; home all axes
